apk/assets/luts/Lut12.cube
# Copyright: (C) Copyright 2016 by IWLTBAP
# Cannot be resold, shared or otherwise redistributed
# Website: http://luts.iwltbap.com
TITLE "IWLTBAP 9380 (LOG)"
LUT_3D_SIZE 8
DOMAIN_MIN 0.000000 0.000000 0.000000
DOMAIN_MAX 0.903226 0.903226 0.903226
0.041382 0.045502 0.046692
0.073451 0.052584 0.047786
0.152428 0.067836 0.038678
0.271545 0.091344 0.041921
0.420391 0.137685 0.059942
0.519756 0.192869 0.078840
0.588382 0.235477 0.093540
0.629080 0.267154 0.101512
0.042621 0.065814 0.050578
0.069985 0.069650 0.049202
0.156944 0.086082 0.040091
0.280785 0.105450 0.041772
0.431699 0.151704 0.061391
0.534631 0.211498 0.082014
0.602801 0.254097 0.096319
0.644507 0.285518 0.104458
0.041744 0.108057 0.056781
0.060709 0.109879 0.055701
0.164424 0.126827 0.048889
0.324780 0.160232 0.045397
0.472870 0.201148 0.069778
0.547599 0.222813 0.084766
0.612366 0.266014 0.098467
0.655171 0.298977 0.106324
0.039378 0.170232 0.072632
0.052329 0.173841 0.068935
0.099655 0.192986 0.064625
0.370559 0.242228 0.056428
0.554276 0.310250 0.099696
0.643631 0.339323 0.114198
0.650021 0.312777 0.108388
0.680759 0.328779 0.112807
0.050286 0.275306 0.090168
0.067129 0.283553 0.082865
0.094711 0.296717 0.076045
0.295620 0.389888 0.096274
0.618765 0.429949 0.132977
0.731855 0.454573 0.140966
0.754084 0.450137 0.139721
0.728996 0.387513 0.126100
0.066614 0.367698 0.102629
0.077755 0.373554 0.099251
0.101719 0.386871 0.090722
0.174098 0.419271 0.085457
0.541835 0.570127 0.170733
0.781329 0.557482 0.164140
0.808321 0.548079 0.158740
0.813318 0.519678 0.150117
0.067251 0.423004 0.116049
0.077077 0.428691 0.115920
0.096150 0.441730 0.110286
0.162182 0.471078 0.101739
0.284140 0.521806 0.101438
0.726982 0.689975 0.235524
0.824352 0.628079 0.177463
0.841639 0.616698 0.171830
0.078452 0.471540 0.143626
0.089780 0.478401 0.141079
0.113726 0.493134 0.135032
0.168781 0.516360 0.115979
0.271911 0.564998 0.111779
0.412286 0.620975 0.137015
0.839869 0.731382 0.253975
0.846222 0.678384 0.193916
0.040153 0.054380 0.073358
0.062663 0.051986 0.075731
0.143788 0.069347 0.069259
0.270180 0.090066 0.051212
0.424276 0.143204 0.072085
0.521075 0.192772 0.089324
0.590137 0.234309 0.103196
0.632320 0.266560 0.110480
0.040711 0.065023 0.069944
0.061910 0.066159 0.067782
0.151421 0.083313 0.056542
0.281107 0.109375 0.051034
0.429451 0.147589 0.072229
0.534211 0.209295 0.091098
0.604694 0.252663 0.106174
0.646941 0.283251 0.113748
0.038013 0.109596 0.079859
0.056901 0.109240 0.074876
0.154046 0.123332 0.067386
0.317288 0.156413 0.053252
0.462590 0.190062 0.078655
0.544630 0.218918 0.093250
0.613231 0.263900 0.107320
0.658214 0.296809 0.115806
0.037176 0.169160 0.090704
0.051020 0.173053 0.085853
0.086185 0.184850 0.082721
0.361467 0.240074 0.070478
0.551260 0.309008 0.110943
0.637188 0.333532 0.122427
0.645107 0.302941 0.116173
0.681323 0.322860 0.121475
0.049204 0.274634 0.108891
0.066150 0.281464 0.100031
0.088759 0.293133 0.093305
0.267634 0.373856 0.103906
0.616013 0.431159 0.146363
0.734872 0.455116 0.153400
0.758469 0.451143 0.151512
0.731955 0.386256 0.136383
0.067511 0.368554 0.120011
0.078834 0.372637 0.116262
0.096874 0.383070 0.104975
0.152610 0.407736 0.094050
0.520714 0.561871 0.180704
0.783343 0.559669 0.176892
0.811258 0.551155 0.171640
0.818978 0.524056 0.163142
0.071146 0.427856 0.138698
0.080026 0.430801 0.134917
0.093067 0.439478 0.127592
0.147173 0.462906 0.115026
0.260430 0.509758 0.113831
0.717644 0.687013 0.243751
0.827860 0.631426 0.188229
0.844954 0.620099 0.183181
0.081963 0.475699 0.164580
0.091849 0.479407 0.158661
0.108189 0.491194 0.155994
0.157112 0.511725 0.136301
0.251990 0.552722 0.124115
0.389404 0.614760 0.138262
0.842508 0.737799 0.266636
0.848362 0.682594 0.206540
0.034162 0.075864 0.131061
0.053768 0.075724 0.124753
0.106678 0.071827 0.130466
0.237053 0.103335 0.115908
0.433884 0.163537 0.092951
0.527831 0.194582 0.107474
0.591941 0.230263 0.112984
0.635690 0.264383 0.121086
0.035582 0.086159 0.129744
0.048816 0.087460 0.128747
0.110439 0.085418 0.126393
0.249922 0.119225 0.111539
0.447596 0.178258 0.094591
0.540592 0.211814 0.109789
0.607222 0.249882 0.115988
0.649196 0.280646 0.124391
0.036632 0.106288 0.122920
0.049109 0.108217 0.121267
0.116337 0.117954 0.127244
0.300752 0.148108 0.081450
0.458420 0.189026 0.095559
0.550210 0.225656 0.109515
0.616065 0.261429 0.117981
0.659068 0.292398 0.125893
0.038272 0.192384 0.152556
0.046988 0.184827 0.138623
0.066511 0.181687 0.126999
0.334762 0.242536 0.109953
0.543263 0.307476 0.125890
0.620456 0.318230 0.129886
0.636567 0.287820 0.124046
0.674919 0.311071 0.128986
0.051063 0.281911 0.143108
0.063692 0.281701 0.130125
0.086026 0.290590 0.115933
0.223135 0.350086 0.116080
0.611349 0.434268 0.160567
0.737368 0.456103 0.166932
0.759642 0.447920 0.162879
0.729527 0.375481 0.144473
0.069773 0.371065 0.149351
0.080521 0.373486 0.138749
0.098239 0.384465 0.129270
0.133357 0.401488 0.112040
0.487573 0.548605 0.186721
0.784226 0.565878 0.191178
0.815666 0.556435 0.185899
0.824558 0.529849 0.177544
0.077468 0.436731 0.174172
0.085063 0.437103 0.163823
0.095831 0.441535 0.152724
0.129111 0.456842 0.135102
0.230656 0.494805 0.130326
0.703523 0.683758 0.252251
0.832455 0.635997 0.200848
0.848012 0.626230 0.198971
0.086481 0.483375 0.196435
0.093333 0.484465 0.187961
0.109117 0.492963 0.175281
0.140942 0.507150 0.159788
0.223055 0.538641 0.143293
0.357717 0.600225 0.146400
0.843376 0.744610 0.280374
0.851759 0.686935 0.218648
0.035835 0.112809 0.206061
0.046347 0.112108 0.202451
0.067980 0.112049 0.195536
0.170637 0.119684 0.199672
0.408512 0.179127 0.168873
0.562674 0.242092 0.177069
0.626511 0.258454 0.156796
0.637407 0.259558 0.132702
0.035839 0.123088 0.205740
0.045398 0.123352 0.208594
0.067814 0.124319 0.199910
0.177415 0.139616 0.202325
0.428250 0.208810 0.181497
0.580198 0.263816 0.181750
0.640953 0.276562 0.157184
0.653284 0.278621 0.135826
0.034484 0.144316 0.210278
0.044592 0.147741 0.211579
0.065024 0.151406 0.220597
0.189314 0.170767 0.212487
0.453292 0.241427 0.198841
0.596852 0.282657 0.181407
0.653129 0.293099 0.154420
0.665756 0.294042 0.137641
0.035461 0.177218 0.211711
0.046039 0.182595 0.213069
0.059793 0.188953 0.217557
0.204388 0.244823 0.259104
0.530760 0.301511 0.201869
0.617350 0.306432 0.169760
0.658556 0.303439 0.150584
0.669086 0.299695 0.137383
0.072332 0.348753 0.321426
0.080271 0.339546 0.294384
0.088124 0.327973 0.264287
0.118122 0.319384 0.222891
0.594970 0.460155 0.235343
0.734453 0.463174 0.194127
0.764246 0.443760 0.180595
0.720780 0.358887 0.151575
0.085131 0.406271 0.261102
0.090855 0.396313 0.229742
0.099814 0.392768 0.201275
0.122448 0.401777 0.168786
0.425117 0.526166 0.198417
0.779261 0.571105 0.206118
0.820616 0.562088 0.202108
0.829624 0.535169 0.194449
0.091084 0.456042 0.238952
0.094843 0.450546 0.214098
0.099897 0.448645 0.195784
0.122249 0.461219 0.170925
0.203083 0.489933 0.158668
0.683399 0.681078 0.262549
0.836743 0.640690 0.213595
0.852489 0.630308 0.213123
0.101793 0.505231 0.263430
0.102981 0.499378 0.238796
0.108506 0.498301 0.222691
0.133438 0.512207 0.198066
0.195621 0.536294 0.177559
0.324035 0.587527 0.170367
0.841347 0.752002 0.297131
0.855312 0.690077 0.231719
0.049179 0.189948 0.323891
0.058980 0.190026 0.319732
0.080645 0.189253 0.302123
0.104944 0.189287 0.283903
0.362351 0.231120 0.236410
0.543376 0.252594 0.202310
0.645390 0.273247 0.253842
0.731463 0.275064 0.268829
0.048758 0.201552 0.327800
0.058683 0.203368 0.328798
0.078574 0.202226 0.311171
0.105210 0.202865 0.289862
0.372175 0.255973 0.246331
0.563235 0.282888 0.219297
0.674657 0.307089 0.270364
0.758124 0.304221 0.280332
0.048380 0.213480 0.330949
0.058311 0.217009 0.332680
0.073959 0.217295 0.328217
0.103102 0.217479 0.299920
0.384477 0.279764 0.259424
0.584509 0.311962 0.237702
0.704956 0.343110 0.297654
0.786211 0.343149 0.297862
0.048221 0.243090 0.337877
0.059013 0.247554 0.339764
0.070810 0.253476 0.343467
0.104082 0.269939 0.360409
0.433304 0.343317 0.329629
0.614609 0.352969 0.280210
0.737305 0.377746 0.328495
0.805288 0.379220 0.303390
0.054578 0.291204 0.353997
0.066782 0.298247 0.355625
0.078798 0.306279 0.359320
0.101384 0.322835 0.370433
0.463756 0.502605 0.490333
0.766249 0.526696 0.447585
0.814860 0.446937 0.349296
0.808440 0.399122 0.277887
0.137787 0.473310 0.478024
0.155029 0.487427 0.479788
0.165755 0.492285 0.471817
0.171988 0.488819 0.453418
0.228861 0.495235 0.404621
0.794744 0.638230 0.360360
0.863372 0.612641 0.307678
0.850717 0.557781 0.242185
0.157132 0.538468 0.443034
0.155905 0.528509 0.415859
0.152251 0.518034 0.384270
0.149152 0.507261 0.347067
0.161323 0.503289 0.295622
0.617886 0.675147 0.300383
0.843098 0.648314 0.229824
0.855384 0.635123 0.227099
0.130710 0.542853 0.364074
0.128310 0.533653 0.333249
0.126853 0.525332 0.302515
0.132581 0.523122 0.273726
0.168843 0.540265 0.226796
0.290055 0.581097 0.206867
0.832481 0.762890 0.320486
0.859242 0.694973 0.245133
0.066523 0.268211 0.418522
0.076981 0.270300 0.415995
0.090719 0.272027 0.407375
0.117284 0.272444 0.388625
0.215894 0.305745 0.401138
0.552316 0.330899 0.411492
0.659113 0.318352 0.382778
0.733466 0.310892 0.403206
0.067914 0.280573 0.424069
0.077350 0.283242 0.425724
0.090229 0.284887 0.418112
0.115821 0.283582 0.396039
0.217224 0.318663 0.408180
0.566643 0.357623 0.421524
0.677300 0.340386 0.388655
0.755675 0.334650 0.409776
0.068962 0.292007 0.428584
0.078671 0.293833 0.429667
0.088839 0.296295 0.431873
0.114160 0.294568 0.407698
0.218824 0.331541 0.417504
0.580057 0.386534 0.441134
0.697027 0.363417 0.398316
0.780324 0.362279 0.426987
0.070969 0.307904 0.435729
0.081138 0.308879 0.435467
0.091016 0.308982 0.436404
0.112021 0.308403 0.429453
0.214977 0.342763 0.430995
0.594233 0.417427 0.471067
0.716819 0.388527 0.417819
0.807234 0.402546 0.464361
0.081623 0.349997 0.454728
0.092124 0.352541 0.455690
0.103501 0.357049 0.458316
0.116336 0.364107 0.464176
0.241642 0.428953 0.525719
0.674971 0.519514 0.586117
0.751008 0.428786 0.460999
0.832514 0.444130 0.505218
0.105626 0.411115 0.485023
0.120369 0.419250 0.487562
0.137022 0.430555 0.492851
0.153543 0.441447 0.498287
0.193284 0.470961 0.519121
0.739668 0.729656 0.696983
0.880924 0.731388 0.672504
0.891368 0.643416 0.621712
0.183993 0.538984 0.569560
0.203006 0.553049 0.576308
0.221206 0.567725 0.583623
0.241633 0.584922 0.592649
0.261370 0.604662 0.601470
0.428898 0.699980 0.610228
0.896608 0.771620 0.509367
0.908683 0.752576 0.469635
0.225957 0.647951 0.585358
0.229379 0.643981 0.570583
0.230543 0.639865 0.555183
0.231384 0.633093 0.535556
0.227098 0.624390 0.510842
0.228370 0.617187 0.467850
0.802340 0.795532 0.405276
0.873422 0.713245 0.282137
0.081515 0.315971 0.478927
0.091513 0.319041 0.478972
0.102049 0.321660 0.478809
0.126448 0.325537 0.472654
0.158804 0.329629 0.467643
0.457889 0.403969 0.595528
0.682681 0.392913 0.594934
0.742843 0.352250 0.582441
0.085090 0.331633 0.488134
0.094302 0.333481 0.489775
0.104863 0.336815 0.488685
0.127255 0.338949 0.483032
0.160218 0.342530 0.476418
0.463528 0.425538 0.603604
0.695350 0.415094 0.605268
0.760799 0.379025 0.593978
0.088075 0.344007 0.494974
0.097073 0.345365 0.496561
0.106860 0.347712 0.499137
0.126465 0.350153 0.493965
0.162185 0.356620 0.486899
0.471388 0.448542 0.613657
0.714465 0.440699 0.620967
0.778095 0.407251 0.607578
0.090495 0.355761 0.501279
0.099046 0.356337 0.502370
0.108105 0.356925 0.504128
0.119432 0.358705 0.506249
0.162065 0.367649 0.498945
0.481654 0.467770 0.627235
0.730350 0.461176 0.636667
0.793796 0.434848 0.623911
0.100210 0.382960 0.516350
0.108394 0.382003 0.516606
0.117938 0.382680 0.518622
0.126815 0.382783 0.519348
0.160956 0.384706 0.520593
0.484540 0.488927 0.645332
0.745977 0.483905 0.657226
0.811701 0.466993 0.642361
0.128922 0.446208 0.546911
0.141153 0.451831 0.550856
0.153088 0.457441 0.555499
0.166452 0.463712 0.561274
0.184622 0.475877 0.571966
0.596045 0.677426 0.773406
0.831463 0.666402 0.769592
0.840332 0.521179 0.676706
0.157739 0.500200 0.573449
0.174555 0.509876 0.579990
0.192763 0.521381 0.587906
0.210749 0.534904 0.597181
0.230980 0.549496 0.609981
0.315532 0.610841 0.660958
0.866736 0.857558 0.825366
0.914734 0.870115 0.831766
0.204613 0.578483 0.630676
0.221859 0.590049 0.638846
0.239568 0.602276 0.647024
0.258527 0.616726 0.658037
0.278942 0.632885 0.669516
0.301682 0.653132 0.683745
0.702914 0.864711 0.787504
0.913028 0.877839 0.742651
0.092543 0.348184 0.519734
0.102613 0.350439 0.521626
0.112510 0.353086 0.522540
0.123111 0.355750 0.522591
0.160046 0.364180 0.528359
0.360222 0.433357 0.642883
0.680791 0.430457 0.706953
0.756570 0.388600 0.674372
0.096257 0.362054 0.529595
0.107160 0.366761 0.532840
0.117261 0.368980 0.533954
0.127706 0.371342 0.534232
0.162144 0.377465 0.537052
0.375926 0.457642 0.656707
0.692570 0.453506 0.719676
0.771964 0.414976 0.689208
0.102096 0.376807 0.539420
0.112080 0.379535 0.542940
0.122934 0.383717 0.546251
0.132391 0.385129 0.546819
0.163905 0.389896 0.546162
0.396505 0.484621 0.675869
0.706031 0.477849 0.733651
0.787966 0.443522 0.703710
0.107612 0.390971 0.548048
0.116931 0.392055 0.551514
0.126289 0.393397 0.553662
0.136023 0.395977 0.556834
0.162112 0.399789 0.555490
0.410544 0.505359 0.691742
0.720214 0.502701 0.748544
0.803554 0.474387 0.721705
0.114873 0.407775 0.557707
0.122878 0.408103 0.559858
0.131452 0.407649 0.562006
0.141166 0.409441 0.565091
0.155670 0.411356 0.569283
0.404106 0.516733 0.694225
0.731786 0.525281 0.762192
0.820435 0.503701 0.737795
0.131449 0.446855 0.578043
0.140660 0.448158 0.581709
0.149936 0.449836 0.584159
0.161003 0.452475 0.588426
0.172185 0.454770 0.593875
0.341449 0.522669 0.680950
0.743781 0.557482 0.779211
0.835992 0.540836 0.756922
0.169674 0.521886 0.614111
0.185893 0.531396 0.621942
0.201742 0.540309 0.629227
0.217762 0.550369 0.637604
0.234861 0.561097 0.647564
0.256255 0.576431 0.663731
0.846494 0.846352 0.875692
0.903116 0.831704 0.864571
0.193173 0.561842 0.634765
0.209650 0.572625 0.643293
0.225571 0.582531 0.651112
0.242470 0.593302 0.660674
0.260324 0.605248 0.671363
0.278961 0.621596 0.685286
0.599532 0.792686 0.823451
0.907404 0.905329 0.882530
