apk/assets/luts/Lut14.cube
# Copyright: (C) Copyright 2016 by IWLTBAP
# Cannot be resold, shared or otherwise redistributed
# Website: http://luts.iwltbap.com
TITLE "IWLTBAP 9380 (Rec.709)"
LUT_3D_SIZE 8
DOMAIN_MIN 0.000000 0.000000 0.000000
DOMAIN_MAX 0.903226 0.903226 0.903226
0.060150 0.064240 0.065918
0.141654 0.083434 0.061936
0.231812 0.102721 0.050938
0.323161 0.122677 0.059901
0.402347 0.142328 0.072659
0.478824 0.178842 0.089299
0.551792 0.223879 0.102282
0.610792 0.257630 0.114866
0.059706 0.105642 0.076947
0.141429 0.116413 0.070360
0.252445 0.139461 0.052978
0.365182 0.179130 0.067416
0.453853 0.214611 0.085661
0.507998 0.217488 0.096414
0.561151 0.233615 0.103829
0.613804 0.261592 0.115031
0.056343 0.150752 0.085691
0.107814 0.166207 0.082772
0.272923 0.190753 0.067827
0.398547 0.223630 0.074585
0.501798 0.273208 0.100613
0.575091 0.308790 0.119374
0.615561 0.304009 0.121901
0.635231 0.288651 0.121727
0.059269 0.196203 0.095247
0.082577 0.205463 0.091398
0.276575 0.289148 0.103415
0.421148 0.279617 0.086833
0.532387 0.321227 0.114074
0.616803 0.362412 0.133482
0.691027 0.385859 0.144180
0.669862 0.330418 0.131491
0.070810 0.257710 0.104383
0.091544 0.267191 0.100514
0.217266 0.324007 0.102891
0.454718 0.418304 0.155976
0.557904 0.383981 0.133281
0.653829 0.416059 0.148704
0.733615 0.443929 0.159450
0.754701 0.443986 0.159209
0.081664 0.323193 0.110048
0.102834 0.333850 0.102004
0.131814 0.346701 0.095864
0.328698 0.432515 0.128594
0.582440 0.529561 0.200534
0.685057 0.488395 0.170170
0.768595 0.502484 0.172539
0.797769 0.516542 0.174446
0.090506 0.386988 0.128644
0.105729 0.395641 0.116516
0.135404 0.407987 0.107444
0.175947 0.423437 0.104832
0.339690 0.494143 0.134383
0.690473 0.618782 0.230730
0.793543 0.572166 0.187056
0.817964 0.572643 0.185449
0.091127 0.434594 0.148255
0.103429 0.442118 0.137341
0.133583 0.454241 0.128456
0.174090 0.468530 0.126919
0.230886 0.491729 0.125716
0.330981 0.533255 0.128694
0.790675 0.695034 0.258191
0.829527 0.631366 0.196880
0.053361 0.086738 0.122765
0.106406 0.084071 0.121087
0.195471 0.109473 0.123819
0.305360 0.139429 0.110608
0.416790 0.182135 0.109431
0.505920 0.218267 0.114755
0.567172 0.239102 0.122679
0.616411 0.259003 0.127517
0.052131 0.103690 0.115654
0.117514 0.119108 0.129138
0.247791 0.146253 0.107747
0.361237 0.173058 0.089753
0.454241 0.209443 0.103638
0.523339 0.234287 0.119741
0.581739 0.252813 0.125053
0.625927 0.269327 0.128554
0.047107 0.162047 0.138877
0.087055 0.169836 0.135601
0.260081 0.203316 0.121776
0.390590 0.234012 0.110311
0.501057 0.282225 0.121994
0.576905 0.312192 0.139132
0.596264 0.270958 0.127766
0.634024 0.280434 0.129258
0.054011 0.208024 0.145810
0.070702 0.211276 0.143406
0.213029 0.266911 0.136134
0.412305 0.294409 0.128782
0.531835 0.331226 0.136027
0.625148 0.375255 0.155575
0.692635 0.387395 0.158126
0.660921 0.315345 0.136315
0.066902 0.261207 0.151053
0.081466 0.269172 0.147306
0.164433 0.304677 0.129542
0.417979 0.408778 0.178188
0.559810 0.397862 0.155103
0.664421 0.430078 0.167248
0.745970 0.453706 0.172807
0.760484 0.445754 0.168467
0.078453 0.322548 0.141332
0.101984 0.340142 0.126984
0.123917 0.351070 0.116099
0.286125 0.418764 0.136863
0.569792 0.532056 0.212357
0.694501 0.503426 0.185100
0.780427 0.515013 0.185528
0.806202 0.526094 0.187226
0.090171 0.386130 0.148682
0.108523 0.404844 0.141295
0.126567 0.414144 0.131023
0.159681 0.425864 0.124821
0.297625 0.482346 0.141654
0.694156 0.630210 0.245806
0.802560 0.586002 0.200446
0.825176 0.583349 0.198672
0.093240 0.438270 0.172460
0.107300 0.451340 0.162622
0.122097 0.457916 0.150002
0.160825 0.471346 0.144298
0.216603 0.491164 0.143022
0.312985 0.531451 0.143701
0.797197 0.703816 0.270331
0.835267 0.639154 0.207725
0.046891 0.111601 0.180729
0.076302 0.111942 0.176184
0.154908 0.118792 0.178833
0.259911 0.142983 0.167420
0.393101 0.198380 0.172608
0.513488 0.252132 0.183591
0.597968 0.274754 0.171902
0.647161 0.289125 0.156070
0.046542 0.132539 0.177712
0.070244 0.143531 0.197841
0.175427 0.160852 0.197154
0.303405 0.196730 0.188843
0.442318 0.243614 0.194914
0.540614 0.270843 0.183995
0.620833 0.294951 0.174277
0.663480 0.304288 0.156264
0.046969 0.153732 0.177159
0.067229 0.169695 0.192837
0.178211 0.209965 0.228802
0.378786 0.252635 0.208289
0.504949 0.283614 0.188840
0.582247 0.303331 0.176422
0.638352 0.310699 0.170391
0.669724 0.311567 0.154948
0.057984 0.232759 0.224262
0.073207 0.245606 0.225562
0.138278 0.259528 0.213377
0.393543 0.326145 0.222328
0.540684 0.361542 0.212762
0.644735 0.401156 0.202159
0.691234 0.380867 0.176721
0.665009 0.308181 0.151090
0.073219 0.297024 0.241793
0.083128 0.297495 0.231864
0.113285 0.301153 0.213570
0.315844 0.380841 0.213953
0.562775 0.433117 0.224127
0.676262 0.452124 0.201797
0.761619 0.469646 0.194757
0.770802 0.449558 0.183723
0.088721 0.350512 0.239252
0.097540 0.352888 0.223349
0.106172 0.358894 0.212860
0.197914 0.396877 0.174991
0.519133 0.526031 0.244607
0.699640 0.522723 0.211969
0.794642 0.530095 0.204149
0.813418 0.534888 0.198022
0.094346 0.393700 0.180890
0.105641 0.404847 0.170816
0.128429 0.423390 0.154489
0.147551 0.432976 0.145221
0.259739 0.475490 0.152737
0.696026 0.639580 0.258732
0.809598 0.596919 0.208971
0.831150 0.593048 0.207940
0.097687 0.444156 0.196724
0.107602 0.454650 0.188341
0.125282 0.467862 0.175024
0.149730 0.477030 0.165635
0.208350 0.497447 0.164160
0.296321 0.532125 0.162941
0.805102 0.713301 0.281396
0.839516 0.646046 0.215953
0.051126 0.142098 0.236197
0.070285 0.145090 0.225927
0.102209 0.149686 0.222525
0.198169 0.171776 0.222946
0.361922 0.193807 0.191532
0.495780 0.259128 0.211940
0.612638 0.309541 0.226151
0.680224 0.318216 0.216484
0.049442 0.165122 0.241109
0.072218 0.177274 0.257538
0.106970 0.180654 0.244629
0.219641 0.206568 0.241595
0.394516 0.231583 0.214538
0.528394 0.291833 0.232274
0.643604 0.333715 0.237314
0.705858 0.337793 0.223519
0.050528 0.182866 0.240118
0.070352 0.199647 0.259360
0.102848 0.221643 0.285976
0.273533 0.275047 0.295435
0.467272 0.317324 0.284239
0.592530 0.355407 0.279087
0.667599 0.349309 0.243740
0.729049 0.351489 0.227361
0.052133 0.207746 0.244589
0.066293 0.220801 0.256090
0.095213 0.248087 0.279207
0.284599 0.336732 0.345698
0.535388 0.393702 0.341517
0.660450 0.403635 0.303572
0.724423 0.388386 0.260260
0.748016 0.363151 0.229282
0.072505 0.298395 0.306831
0.087607 0.317986 0.315341
0.109745 0.334360 0.315827
0.213609 0.369984 0.307232
0.553680 0.472883 0.339236
0.716074 0.503878 0.319587
0.799882 0.508734 0.278906
0.796017 0.447371 0.238677
0.106616 0.393378 0.350142
0.117700 0.396514 0.337076
0.125631 0.400934 0.328960
0.140894 0.402813 0.309053
0.447878 0.521163 0.310833
0.722191 0.560884 0.279207
0.818929 0.557866 0.245618
0.827771 0.553127 0.224837
0.119932 0.441454 0.324567
0.125261 0.441828 0.303363
0.129777 0.444782 0.288260
0.136007 0.449770 0.272780
0.195048 0.474226 0.225029
0.673678 0.651244 0.298890
0.817296 0.611353 0.224892
0.836950 0.603020 0.217556
0.105127 0.455204 0.229922
0.110090 0.460358 0.220714
0.126300 0.473079 0.205042
0.145937 0.485925 0.192845
0.197108 0.504651 0.187345
0.280398 0.534427 0.183736
0.813539 0.724728 0.295724
0.843808 0.653614 0.224301
0.061318 0.187477 0.301226
0.078255 0.186803 0.283140
0.095116 0.187913 0.272489
0.144334 0.203155 0.270328
0.311680 0.238754 0.249731
0.478423 0.255809 0.217407
0.596345 0.309703 0.234976
0.693363 0.335702 0.286145
0.059923 0.204291 0.305194
0.080321 0.213950 0.313714
0.096104 0.211728 0.293519
0.149992 0.225169 0.288307
0.338875 0.266948 0.261884
0.508157 0.288483 0.241187
0.630454 0.344529 0.270578
0.721594 0.360719 0.313392
0.060129 0.222817 0.307820
0.077354 0.241384 0.325577
0.101023 0.258439 0.346051
0.165536 0.274933 0.337385
0.403886 0.326123 0.318197
0.553830 0.342045 0.291353
0.662712 0.366644 0.299352
0.748450 0.377986 0.338190
0.060897 0.239351 0.308818
0.073407 0.252384 0.322032
0.101890 0.283050 0.352240
0.174136 0.322529 0.390436
0.454496 0.416400 0.416696
0.631302 0.438078 0.404122
0.728616 0.424286 0.379416
0.776824 0.397601 0.365912
0.065171 0.270531 0.318560
0.077900 0.284365 0.331425
0.098123 0.306579 0.351508
0.143062 0.346178 0.385430
0.469585 0.507162 0.495866
0.715069 0.550478 0.491573
0.824083 0.539629 0.456154
0.845228 0.475915 0.405255
0.106508 0.388200 0.404277
0.126481 0.412326 0.419070
0.142252 0.431631 0.432985
0.164514 0.449944 0.438483
0.349162 0.523420 0.444017
0.738829 0.626730 0.439109
0.861072 0.640183 0.414987
0.884764 0.634786 0.389154
0.158619 0.492560 0.451994
0.168318 0.498993 0.445390
0.179308 0.508448 0.445016
0.189015 0.517775 0.445463
0.197041 0.523749 0.436850
0.606724 0.676669 0.411008
0.842326 0.664415 0.318245
0.862897 0.640585 0.280998
0.151055 0.515527 0.388256
0.150731 0.513124 0.365220
0.149835 0.511316 0.344647
0.150798 0.511458 0.325478
0.175570 0.523866 0.285487
0.239959 0.544635 0.244766
0.822363 0.740977 0.322603
0.848853 0.662307 0.234687
0.071654 0.246586 0.374426
0.087928 0.241849 0.351052
0.106250 0.242886 0.336250
0.121052 0.241713 0.321393
0.243130 0.290237 0.335585
0.470177 0.306930 0.275559
0.588106 0.317354 0.277885
0.675217 0.329986 0.302742
0.072223 0.255672 0.376440
0.088577 0.261020 0.375644
0.106367 0.261371 0.356875
0.123347 0.259987 0.340253
0.252387 0.313489 0.359484
0.498010 0.334627 0.311204
0.615954 0.346901 0.313672
0.702229 0.353017 0.335215
0.073608 0.274050 0.381951
0.087211 0.284305 0.393594
0.105860 0.291329 0.401757
0.126031 0.289115 0.378477
0.264056 0.340207 0.395497
0.517076 0.359196 0.352433
0.642174 0.368449 0.345045
0.728305 0.375664 0.373094
0.075967 0.289703 0.386978
0.086577 0.300593 0.398192
0.111312 0.322864 0.421407
0.134605 0.336178 0.437775
0.302090 0.396818 0.467572
0.567811 0.441682 0.465944
0.673109 0.391129 0.382458
0.754143 0.400892 0.414549
0.077818 0.306365 0.391392
0.089495 0.319602 0.403641
0.104797 0.336512 0.420543
0.141368 0.372667 0.453819
0.331830 0.466548 0.539467
0.641412 0.543269 0.577969
0.780105 0.531126 0.560484
0.794717 0.449729 0.488434
0.090440 0.349553 0.409356
0.106403 0.366239 0.423853
0.119441 0.381490 0.438471
0.138032 0.401832 0.456386
0.256049 0.484565 0.522401
0.693285 0.688212 0.658125
0.853114 0.713864 0.653434
0.894924 0.707461 0.652140
0.161287 0.478796 0.502154
0.181938 0.499009 0.516054
0.200576 0.518854 0.531608
0.219083 0.538950 0.547231
0.238595 0.560773 0.563435
0.539569 0.717727 0.608893
0.861253 0.762674 0.550399
0.907913 0.769256 0.556981
0.221586 0.587380 0.557467
0.231765 0.596011 0.559190
0.241480 0.604993 0.563060
0.250069 0.613772 0.567655
0.259706 0.622963 0.571624
0.270032 0.631312 0.572017
0.780436 0.801059 0.520615
0.891044 0.736734 0.383963
0.086469 0.297984 0.437536
0.100099 0.298513 0.427250
0.114182 0.297182 0.414260
0.132921 0.299622 0.407359
0.173819 0.311585 0.408797
0.379050 0.390837 0.466601
0.590571 0.390180 0.461137
0.691583 0.382592 0.462051
0.087500 0.304255 0.439345
0.100884 0.312905 0.448633
0.116513 0.312359 0.434524
0.133064 0.315000 0.426600
0.181001 0.330841 0.430267
0.398455 0.413815 0.495823
0.617366 0.418875 0.499764
0.715558 0.406941 0.498484
0.088562 0.310653 0.441551
0.098592 0.318125 0.450822
0.117954 0.325931 0.454368
0.134667 0.328924 0.445831
0.185504 0.346529 0.450235
0.415660 0.429924 0.521902
0.642822 0.439544 0.532529
0.736883 0.428209 0.531140
0.093180 0.332822 0.451935
0.103621 0.339860 0.461054
0.117818 0.346092 0.471636
0.139036 0.351607 0.477262
0.191542 0.368356 0.478103
0.432398 0.445869 0.549417
0.667283 0.457362 0.560547
0.755275 0.445066 0.560957
0.099380 0.353574 0.462204
0.111109 0.364403 0.473214
0.121666 0.374972 0.484643
0.154356 0.401943 0.510643
0.226971 0.439168 0.553432
0.514461 0.530437 0.650042
0.717584 0.502333 0.622666
0.774565 0.465556 0.593177
0.108525 0.382374 0.475198
0.123170 0.397145 0.488149
0.138551 0.413354 0.502457
0.153051 0.429477 0.517052
0.206900 0.476634 0.558287
0.593519 0.666695 0.739932
0.811574 0.678589 0.739595
0.861263 0.641598 0.717981
0.137089 0.436686 0.501229
0.156087 0.455479 0.515586
0.172134 0.471630 0.529387
0.187683 0.488459 0.544254
0.206281 0.507688 0.561685
0.452001 0.663731 0.698817
0.840581 0.831372 0.796185
0.899892 0.845242 0.802839
0.205802 0.543467 0.579031
0.224287 0.561730 0.594547
0.239812 0.575435 0.607275
0.253742 0.587421 0.618843
0.267765 0.600253 0.631057
0.285628 0.618038 0.647048
0.752378 0.860396 0.767041
0.903064 0.861351 0.735430
0.103191 0.342300 0.493607
0.110188 0.343837 0.491813
0.126952 0.345194 0.486877
0.142516 0.347055 0.482143
0.158998 0.350018 0.478795
0.310235 0.417918 0.542892
0.568592 0.449661 0.626588
0.701511 0.433017 0.608096
0.104147 0.348143 0.496892
0.112532 0.353510 0.503241
0.125232 0.355554 0.500928
0.144971 0.359193 0.497225
0.162680 0.363356 0.493844
0.335483 0.440107 0.568840
0.604607 0.471385 0.651281
0.724686 0.452296 0.630483
0.105085 0.353902 0.499857
0.113129 0.358059 0.505938
0.122155 0.363969 0.512765
0.144852 0.368332 0.509750
0.165864 0.373407 0.507121
0.360844 0.459685 0.596033
0.635683 0.484364 0.671237
0.743805 0.465756 0.650149
0.106608 0.359885 0.503034
0.115149 0.364337 0.509430
0.122117 0.368821 0.515656
0.144412 0.378103 0.523198
0.168978 0.383675 0.520329
0.383542 0.478046 0.620695
0.660971 0.496053 0.690252
0.760262 0.479252 0.669831
0.114235 0.379363 0.514035
0.123039 0.383577 0.519675
0.129294 0.385836 0.524685
0.138401 0.388608 0.530960
0.170583 0.397000 0.536757
0.403096 0.496836 0.645421
0.684882 0.511643 0.709751
0.775130 0.495308 0.690144
0.132975 0.422777 0.536280
0.144869 0.432224 0.545186
0.155382 0.442033 0.554679
0.167026 0.453796 0.565643
0.200063 0.480438 0.592611
0.491067 0.619785 0.750036
0.756993 0.636716 0.788030
0.807339 0.547518 0.731527
0.156281 0.467049 0.557175
0.170804 0.480464 0.567962
0.185544 0.495406 0.580851
0.200173 0.510078 0.593899
0.215786 0.524578 0.607519
0.343734 0.613273 0.694233
0.821171 0.824930 0.854451
0.886352 0.815046 0.841065
0.185447 0.513111 0.580703
0.201977 0.528315 0.592504
0.216805 0.543333 0.605802
0.230922 0.557767 0.619382
0.245948 0.572860 0.633404
0.263734 0.590284 0.649451
0.732385 0.838235 0.841283
0.896575 0.892400 0.861588
