apk/assets/luts/Lut13.cube
LUT_3D_SIZE 6
-0.010242 -0.006237 -0.000666
0.215762 0.042837 0.029470
0.572249 0.074858 0.077025
0.891060 0.132719 0.133669
0.942885 0.143241 0.146864
0.984356 0.160481 0.154872
-0.001680 0.113939 0.015927
0.127996 0.125325 0.022867
0.550902 0.149856 0.020703
0.879584 0.187060 0.112245
0.949101 0.200623 0.145628
0.988265 0.208574 0.156207
-0.001160 0.308032 0.056125
-0.008199 0.302586 0.051584
0.421655 0.349554 0.049336
0.860503 0.360827 0.027557
0.980657 0.370673 0.063644
1.008824 0.379756 0.084494
0.004500 0.582587 0.095096
0.019430 0.581538 0.091124
0.021210 0.588890 0.046691
0.773599 0.633503 0.064989
0.985840 0.611123 0.055833
1.016713 0.610472 0.070205
0.009056 0.781887 0.124295
0.024109 0.786405 0.122556
0.058123 0.790620 0.107030
0.560435 0.843993 0.107447
0.978310 0.841105 0.117280
1.019814 0.829360 0.124002
0.008316 0.822484 0.139064
-0.051232 0.825408 0.137375
-0.133780 0.830668 0.134116
0.360263 0.873453 0.104175
0.936880 0.917041 0.145190
1.021511 0.912322 0.149645
-0.004540 -0.200439 0.228796
0.234518 -0.201413 0.248513
0.581790 -0.202274 0.150427
0.881051 -0.203727 0.173277
0.934882 -0.215265 0.172060
0.977484 -0.210528 0.173187
-0.001460 0.144184 0.180205
0.083684 0.132918 0.154522
0.575020 0.160437 0.129899
0.892319 0.204553 0.174892
0.955654 0.209822 0.181768
0.988597 0.220084 0.190364
-0.001174 0.321411 0.105053
0.004285 0.312220 0.093716
0.415622 0.352674 0.088585
0.885844 0.364417 0.060205
0.983351 0.383931 0.110846
1.009095 0.389627 0.130774
0.003728 0.588583 0.130649
0.018875 0.587447 0.128066
0.017088 0.589892 0.092345
0.767906 0.634076 0.096772
0.990271 0.628034 0.098947
1.017274 0.617214 0.111555
0.008700 0.785690 0.149349
0.024114 0.790064 0.146996
0.057734 0.794204 0.135906
0.554419 0.844894 0.141296
0.978693 0.842834 0.149295
1.020321 0.832180 0.161926
0.010062 0.825021 0.148785
-0.047618 0.828758 0.145641
-0.141231 0.834688 0.150491
0.343843 0.874511 0.129998
0.936559 0.919734 0.175347
1.022402 0.915242 0.180721
-0.002837 -0.201129 0.469351
0.076085 -0.202135 0.530489
0.586574 -0.204571 0.529979
0.903853 -0.214503 0.410810
0.937005 -0.228190 0.359761
0.970876 -0.229741 0.335383
-0.001134 0.158170 0.492503
0.034883 0.145260 0.479940
0.503078 0.108802 0.475800
0.880935 0.126974 0.332251
0.942213 0.137196 0.305314
0.978077 0.168067 0.307278
-0.001109 0.402638 0.431818
0.016575 0.398724 0.418264
0.269344 0.374394 0.386012
0.876359 0.412499 0.335573
0.977195 0.447680 0.363569
1.002936 0.466916 0.383577
-0.001360 0.635923 0.331391
0.014272 0.629975 0.315347
0.059502 0.603755 0.261124
0.738810 0.649211 0.257480
0.991758 0.643041 0.206496
1.017951 0.635893 0.229106
0.007565 0.794574 0.216424
0.023046 0.796814 0.201538
0.056795 0.798890 0.178270
0.541775 0.844358 0.180145
0.977494 0.843630 0.188653
1.020809 0.834642 0.209529
0.009244 0.829140 0.145983
0.016827 0.832507 0.113657
-0.122774 0.838582 0.113564
0.311466 0.876792 0.087671
0.933501 0.923699 0.182046
1.022115 0.918444 0.198134
0.003059 -0.208037 0.731744
0.103385 -0.208218 0.808258
0.400815 -0.209037 0.804341
0.891603 -0.219463 0.778668
0.960241 -0.233429 0.740008
0.991377 -0.235105 0.712412
0.002908 0.119985 0.789069
0.036619 0.108408 0.778547
0.259826 0.078197 0.769143
0.857367 0.064520 0.746304
0.964984 0.091416 0.690534
0.994642 0.117503 0.655449
-0.001096 0.395270 0.751718
0.014792 0.391833 0.744682
0.053142 0.366957 0.731063
0.799270 0.362803 0.723032
0.972595 0.380669 0.598048
0.997045 0.402358 0.580496
-0.001094 0.696124 0.698222
0.014230 0.696317 0.687632
0.067962 0.698237 0.662216
0.599854 0.696031 0.643617
0.987504 0.731881 0.629515
1.012620 0.750851 0.661222
-0.001133 0.846979 0.524994
0.015345 0.846256 0.509461
0.045401 0.838735 0.475442
0.369973 0.853264 0.478030
0.971359 0.872247 0.505389
1.021158 0.867209 0.519013
0.002732 0.868455 0.430786
-0.028283 0.867170 0.400229
-0.096294 0.865289 0.365535
0.246613 0.891597 0.351910
0.930696 0.942204 0.411665
1.022688 0.938333 0.401840
0.004209 -0.227730 0.786113
0.094981 -0.227223 0.858043
0.312389 -0.226351 0.862259
0.836180 -0.226914 0.870160
0.935882 -0.240133 0.853456
0.979258 -0.244892 0.845837
0.005965 0.113585 0.865137
0.037000 0.103647 0.863810
0.244671 0.087012 0.862830
0.769771 0.061233 0.867582
0.939366 0.081663 0.848027
0.982462 0.086979 0.841888
-0.001078 0.358890 0.864189
0.013106 0.351704 0.866076
0.081949 0.319232 0.873825
0.656867 0.298993 0.885015
0.944734 0.319411 0.867852
0.985822 0.337129 0.856703
-0.001086 0.628080 0.871404
0.014070 0.624560 0.871485
0.065146 0.626192 0.875569
0.269288 0.602877 0.892017
0.965466 0.652825 0.872579
0.999815 0.661257 0.856463
-0.001090 0.880028 0.859676
0.014148 0.882821 0.855788
0.039470 0.882963 0.846887
0.067500 0.895355 0.835768
0.941447 0.919535 0.853931
1.009241 0.924866 0.864031
-0.001919 0.922340 0.815054
-0.023212 0.923502 0.802387
-0.083856 0.924576 0.781952
-0.187581 0.930465 0.742562
0.895574 0.965541 0.778252
1.017242 0.980111 0.807495
0.004646 -0.228381 0.807968
0.090298 -0.228705 0.871886
0.296005 -0.229557 0.874440
0.795977 -0.235852 0.879779
0.926961 -0.248629 0.864853
0.975032 -0.257159 0.854401
0.006235 0.108700 0.884490
0.035895 0.099857 0.881973
0.232734 0.082770 0.879728
0.725575 0.054621 0.885095
0.929405 0.077467 0.869496
0.978675 0.079543 0.861290
-0.001094 0.347308 0.882463
0.013203 0.341447 0.884215
0.081463 0.311545 0.890405
0.607909 0.286289 0.900703
0.935744 0.297109 0.888797
0.982281 0.308101 0.878904
-0.001094 0.609318 0.889800
0.014035 0.605986 0.890518
0.064299 0.600744 0.896373
0.105558 0.561526 0.912889
0.954318 0.623228 0.915795
0.992284 0.619115 0.909384
-0.001082 0.852645 0.901300
0.014086 0.854397 0.902291
0.038943 0.849895 0.904598
0.107437 0.875259 0.922309
0.936568 0.911208 0.943514
1.004095 0.913632 0.951190
-0.001078 0.901798 0.906101
0.014087 0.904088 0.906922
0.026475 0.905897 0.908010
0.107291 0.925358 0.917141
0.852982 0.965218 0.943047
1.020134 0.995814 0.988375
