apk/assets/luts/Lut14.cube
# Copyright: (C) Copyright 2016 by IWLTBAP
# Cannot be resold, shared or otherwise redistributed
# Website: http://luts.iwltbap.com
TITLE "IWLTBAP 9380 (Rec.709)"
LUT_3D_SIZE 5
DOMAIN_MIN 0.000000 0.000000 0.000000
DOMAIN_MAX 0.903226 0.903226 0.903226
0.060150 0.064240 0.065918
0.210589 0.098561 0.050399
0.365240 0.134256 0.067673
0.497249 0.189553 0.093325
0.610792 0.257630 0.114866
0.055304 0.140200 0.083918
0.238851 0.170784 0.067652
0.445507 0.237871 0.084259
0.575540 0.296683 0.116268
0.629186 0.281216 0.119993
0.064280 0.225429 0.100440
0.192093 0.284566 0.096841
0.491954 0.330236 0.108055
0.655621 0.396691 0.144552
0.722045 0.395909 0.147617
0.085183 0.338949 0.112805
0.122437 0.358093 0.096651
0.421595 0.487733 0.156271
0.716224 0.511674 0.176452
0.804422 0.530842 0.177258
0.091127 0.434594 0.148255
0.124130 0.450896 0.130280
0.200569 0.478887 0.126510
0.505158 0.608288 0.185451
0.829527 0.631366 0.196880
0.046675 0.104480 0.168117
0.142693 0.108729 0.164178
0.334630 0.169835 0.158956
0.536619 0.249332 0.161321
0.636600 0.279177 0.144249
0.046776 0.141451 0.162242
0.162484 0.185660 0.204127
0.443441 0.245537 0.165511
0.579759 0.289116 0.155864
0.655797 0.298869 0.147522
0.064987 0.261832 0.215159
0.106765 0.266573 0.193585
0.485749 0.370067 0.200222
0.676094 0.423689 0.183841
0.704813 0.359757 0.158212
0.086809 0.351447 0.198286
0.109266 0.368911 0.176052
0.334811 0.462708 0.176520
0.731396 0.538292 0.204355
0.817271 0.547890 0.198517
0.096423 0.442470 0.190283
0.120728 0.463828 0.171469
0.180029 0.485148 0.159771
0.460878 0.601342 0.196251
0.838544 0.644244 0.213898
0.054687 0.162596 0.267580
0.085878 0.165393 0.246548
0.243740 0.202250 0.242340
0.516878 0.272775 0.221479
0.696567 0.336979 0.269824
0.053683 0.196940 0.273490
0.092135 0.227085 0.307290
0.329438 0.285558 0.290234
0.578095 0.336507 0.264365
0.743171 0.371811 0.291468
0.057063 0.237302 0.280597
0.089830 0.269554 0.307548
0.366137 0.414749 0.415318
0.724625 0.473424 0.382906
0.786911 0.393601 0.293403
0.124140 0.427440 0.401397
0.141859 0.437517 0.388751
0.180857 0.451613 0.361650
0.765690 0.603612 0.319885
0.852427 0.590132 0.264621
0.113903 0.468663 0.267004
0.120767 0.473178 0.238719
0.159463 0.498000 0.205160
0.407865 0.593059 0.212486
0.846173 0.657769 0.229061
0.074991 0.260681 0.391309
0.103738 0.257280 0.358018
0.145014 0.262897 0.342239
0.505149 0.319557 0.306376
0.674784 0.330795 0.312488
0.076196 0.279220 0.396444
0.103248 0.288884 0.403988
0.149353 0.292967 0.376573
0.541781 0.372037 0.382283
0.720312 0.373987 0.378231
0.080360 0.308773 0.406839
0.106116 0.334402 0.431925
0.181633 0.382757 0.483000
0.632281 0.487447 0.535684
0.765167 0.421633 0.456455
0.101107 0.370614 0.433482
0.126515 0.399208 0.458127
0.169262 0.441751 0.492567
0.739551 0.729289 0.697078
0.895977 0.749021 0.699750
0.221890 0.579335 0.569648
0.248551 0.608192 0.589798
0.267972 0.629834 0.605927
0.297818 0.652223 0.609237
0.903609 0.771857 0.467515
0.103191 0.342300 0.493607
0.121608 0.344144 0.487728
0.150229 0.348960 0.480431
0.365041 0.436067 0.568172
0.701511 0.433017 0.608096
0.104841 0.352487 0.499146
0.118572 0.360815 0.509838
0.154602 0.368160 0.505229
0.410569 0.467669 0.614152
0.739122 0.462463 0.645254
0.107921 0.363652 0.505199
0.121885 0.371470 0.516205
0.155855 0.385599 0.528290
0.456527 0.494556 0.657748
0.767736 0.486713 0.679833
0.138291 0.433437 0.541101
0.159972 0.452572 0.558515
0.181898 0.474814 0.579103
0.612565 0.688299 0.800790
0.839295 0.623260 0.770898
0.185447 0.513111 0.580703
0.213228 0.539824 0.602426
0.238538 0.565412 0.626637
0.268938 0.595073 0.653803
0.896575 0.892400 0.861588
