apk/assets/luts/Lut14.cube
# Copyright: (C) Copyright 2016 by IWLTBAP
# Cannot be resold, shared or otherwise redistributed
# Website: http://luts.iwltbap.com
TITLE "IWLTBAP 9380 (Rec.709)"
LUT_3D_SIZE 32
0.060150 0.064240 0.065918
0.074317 0.067246 0.065830
0.094856 0.072400 0.065966
0.118016 0.078310 0.065687
0.141654 0.083434 0.061936
0.166939 0.088327 0.056142
0.189312 0.093336 0.051789
0.210589 0.098561 0.050399
0.231812 0.102721 0.050938
0.256641 0.108248 0.052496
0.281374 0.113167 0.055206
0.302239 0.117477 0.057314
0.323161 0.122677 0.059901
0.344324 0.129464 0.063948
0.365240 0.134256 0.067673
0.383632 0.137847 0.069976
0.402347 0.142328 0.072659
0.422760 0.149438 0.076914
0.441415 0.158487 0.081875
0.460307 0.168949 0.085820
0.478824 0.178842 0.089299
0.497249 0.189553 0.093325
0.515464 0.200960 0.096646
0.534714 0.213519 0.099461
0.551792 0.223879 0.102282
0.568797 0.234409 0.106183
0.583824 0.242909 0.109417
0.597627 0.249615 0.112059
0.610792 0.257630 0.114866
0.619426 0.264403 0.116758
0.627799 0.271254 0.118893
0.636871 0.278229 0.121094
0.060787 0.073803 0.068620
0.072606 0.074992 0.067627
0.094536 0.078612 0.066022
0.117082 0.084743 0.066298
0.140496 0.089886 0.064826
0.167606 0.095288 0.057960
0.191443 0.100057 0.052664
0.213729 0.105769 0.050809
0.235582 0.110845 0.050798
0.260870 0.117363 0.052292
0.286441 0.122858 0.054838
0.308239 0.128320 0.057460
0.330471 0.134842 0.061139
0.351410 0.141846 0.065573
0.372601 0.147132 0.069045
0.392011 0.151449 0.071143
0.410763 0.156671 0.074483
0.429342 0.160767 0.078301
0.446593 0.165878 0.082502
0.463421 0.172648 0.085909
0.480195 0.179684 0.089091
0.496033 0.186933 0.092938
0.514252 0.198219 0.095953
0.533982 0.211693 0.098744
0.551899 0.223340 0.101947
0.569720 0.234939 0.106154
0.585294 0.243971 0.109647
0.599201 0.250998 0.112309
0.611684 0.258843 0.114970
0.620261 0.265604 0.116847
0.628573 0.272488 0.119016
0.637827 0.279495 0.121217
0.060293 0.084193 0.071609
0.071445 0.085701 0.070808
0.093287 0.088382 0.068035
0.116920 0.091290 0.066327
0.140817 0.097092 0.065513
0.168133 0.103176 0.059126
0.194371 0.108917 0.053119
0.217409 0.114584 0.051188
0.241571 0.120558 0.051450
0.268054 0.126704 0.053024
0.294509 0.132121 0.055182
0.316870 0.137917 0.057867
0.339788 0.145296 0.062073
0.360922 0.152214 0.066676
0.381824 0.158091 0.070239
0.401385 0.163167 0.073201
0.419816 0.168482 0.076834
0.437502 0.172358 0.080467
0.453287 0.174773 0.083446
0.468377 0.178910 0.086332
0.484328 0.184775 0.089462
0.499504 0.190968 0.093066
0.515841 0.199568 0.095841
0.534760 0.211929 0.098461
0.552717 0.223467 0.101815
0.570689 0.235333 0.106136
0.586417 0.244338 0.109684
0.600406 0.251669 0.112423
0.612254 0.259571 0.114942
0.620744 0.266336 0.116842
0.629059 0.273253 0.119044
0.638375 0.280320 0.121244
0.060394 0.094905 0.074749
0.070823 0.095968 0.074622
0.090197 0.100009 0.074712
0.115711 0.101636 0.069459
0.141528 0.104809 0.065855
0.169493 0.110559 0.059675
0.197413 0.116691 0.053911
0.221250 0.122937 0.051972
0.246997 0.130890 0.052461
0.274973 0.138688 0.054511
0.303448 0.147113 0.056987
0.328201 0.154590 0.059822
0.352080 0.163236 0.064110
0.374840 0.171985 0.068895
0.396482 0.177670 0.071961
0.415939 0.182237 0.075680
0.435265 0.188330 0.080480
0.452008 0.190954 0.084025
0.466001 0.191076 0.086199
0.478617 0.191454 0.088328
0.491265 0.193662 0.090882
0.505063 0.198258 0.093689
0.521215 0.206628 0.096602
0.538583 0.216349 0.098870
0.555256 0.226103 0.102221
0.572147 0.236322 0.106323
0.587956 0.245008 0.109830
0.601532 0.252329 0.112501
0.612406 0.259855 0.114809
0.620862 0.266635 0.116745
0.629233 0.273614 0.118944
0.638550 0.280710 0.121149
0.059706 0.105642 0.076947
0.070125 0.107029 0.078081
0.087331 0.110041 0.078598
0.111506 0.115267 0.078238
0.141429 0.116413 0.070360
0.169914 0.119174 0.063532
0.199976 0.124822 0.055919
0.225626 0.131469 0.053266
0.252445 0.139461 0.052978
0.282311 0.148201 0.055079
0.312558 0.158534 0.057769
0.339471 0.167962 0.061550
0.365182 0.179130 0.067416
0.389739 0.190810 0.072815
0.412945 0.199613 0.076305
0.434055 0.207559 0.080754
0.453853 0.214611 0.085661
0.471988 0.218971 0.089280
0.485836 0.219197 0.091642
0.498117 0.219011 0.094452
0.507998 0.217488 0.096414
0.516392 0.214413 0.096873
0.528526 0.216385 0.097881
0.544609 0.224180 0.100114
0.561151 0.233615 0.103829
0.577236 0.242473 0.107830
0.592260 0.249462 0.111004
0.604821 0.255741 0.113313
0.613804 0.261592 0.115031
0.621397 0.267419 0.116796
0.629758 0.274448 0.118971
0.638987 0.281376 0.121148
0.056921 0.116239 0.079355
0.066633 0.117599 0.079520
0.082318 0.120329 0.080974
0.105703 0.125943 0.080478
0.137527 0.133269 0.080691
0.171136 0.133318 0.071124
0.200549 0.134729 0.061321
0.229008 0.139955 0.055390
0.257336 0.148589 0.053918
0.288467 0.158081 0.055708
0.320573 0.169362 0.059005
0.349089 0.180495 0.063920
0.376063 0.192604 0.070214
0.401802 0.204167 0.074988
0.425620 0.213822 0.078995
0.448361 0.224456 0.084742
0.469974 0.234265 0.090388
0.489049 0.241299 0.094798
0.504538 0.246289 0.098702
0.518113 0.248620 0.101821
0.529601 0.247938 0.103395
0.535778 0.241261 0.102846
0.542506 0.235300 0.102036
0.552397 0.234523 0.102420
0.567241 0.241393 0.105735
0.583456 0.250001 0.109820
0.598484 0.256599 0.112747
0.610338 0.262201 0.114728
0.618537 0.267693 0.116505
0.625644 0.272972 0.118212
0.633127 0.278849 0.120078
0.641845 0.284640 0.121788
0.055403 0.128049 0.081512
0.064362 0.129021 0.081657
0.077331 0.131489 0.083195
0.098930 0.137586 0.082546
0.126258 0.145632 0.083310
0.171243 0.155945 0.079734
0.205470 0.152176 0.068347
0.231992 0.151434 0.060545
0.261987 0.158850 0.055999
0.293950 0.168630 0.056733
0.326773 0.180038 0.060998
0.356953 0.191705 0.065707
0.384862 0.203632 0.071681
0.411840 0.215712 0.076230
0.436247 0.226297 0.081227
0.459558 0.237491 0.087582
0.481882 0.247775 0.093755
0.502387 0.257189 0.099243
0.519919 0.265652 0.104494
0.535070 0.271992 0.108476
0.548366 0.274892 0.110206
0.557648 0.272212 0.109895
0.563438 0.264127 0.108385
0.568811 0.256005 0.107387
0.575343 0.251514 0.108229
0.589541 0.257415 0.111628
0.604327 0.263393 0.114270
0.615977 0.269075 0.116472
0.623674 0.274353 0.118247
0.630668 0.279396 0.119888
0.638149 0.285050 0.121545
0.647240 0.290756 0.123055
0.055304 0.140200 0.083918
0.062601 0.140750 0.083975
0.073790 0.142608 0.085261
0.091723 0.147896 0.084583
0.117427 0.156335 0.082447
0.157173 0.168685 0.083804
0.211682 0.180762 0.077573
0.238851 0.170784 0.067652
0.265652 0.171426 0.060870
0.299230 0.179797 0.059213
0.332821 0.190272 0.062357
0.363874 0.202070 0.066720
0.392124 0.213617 0.072944
0.420357 0.226598 0.078353
0.445507 0.237871 0.084259
0.469469 0.249607 0.091062
0.492492 0.260893 0.097445
0.513645 0.270877 0.103199
0.531995 0.280117 0.108698
0.548650 0.288519 0.112886
0.563406 0.294233 0.115214
0.575540 0.296683 0.116268
0.585560 0.294573 0.116154
0.590553 0.285073 0.115091
0.592039 0.273364 0.113429
0.596608 0.265945 0.113590
0.610643 0.270694 0.116158
0.621744 0.276085 0.118337
0.629186 0.281216 0.119993
0.636239 0.286390 0.121551
0.644114 0.292081 0.123044
0.653348 0.297739 0.124457
0.056343 0.150752 0.085691
0.062349 0.151779 0.085365
0.069591 0.153392 0.085529
0.082891 0.157319 0.085246
0.107814 0.166207 0.082772
0.146886 0.179831 0.083440
0.199767 0.196647 0.084355
0.252552 0.203246 0.078035
0.272923 0.190753 0.067827
0.303026 0.192712 0.064496
0.338034 0.200735 0.063516
0.369527 0.211941 0.067637
0.398547 0.223630 0.074585
0.427556 0.237071 0.080855
0.453347 0.248879 0.087226
0.477926 0.260858 0.094124
0.501798 0.273208 0.100613
0.523608 0.284010 0.107065
0.542270 0.293842 0.113110
0.559024 0.301422 0.116690
0.575091 0.308790 0.119374
0.590463 0.313970 0.120869
0.603962 0.316563 0.122428
0.613244 0.314742 0.123484
0.615561 0.304009 0.121901
0.613009 0.286065 0.118642
0.617231 0.278431 0.118151
0.627798 0.283408 0.120186
0.635231 0.288651 0.121727
0.642521 0.294142 0.123211
0.650461 0.299489 0.124588
0.659548 0.304770 0.125913
0.056038 0.161375 0.087706
0.062070 0.162568 0.087299
0.067907 0.164157 0.087169
0.077613 0.167614 0.087055
0.100241 0.176648 0.084904
0.139099 0.191613 0.083707
0.189109 0.208587 0.086164
0.246074 0.226022 0.089100
0.291888 0.226326 0.080614
0.309974 0.211179 0.070757
0.342135 0.213479 0.066433
0.374272 0.223360 0.069493
0.404155 0.234186 0.076615
0.434374 0.247699 0.082867
0.460690 0.259900 0.089464
0.485980 0.271991 0.096502
0.510058 0.284781 0.103312
0.532149 0.296536 0.110326
0.551647 0.306968 0.117089
0.569211 0.315070 0.120245
0.585976 0.323093 0.122698
0.603131 0.329310 0.124762
0.619192 0.334354 0.127767
0.631884 0.335935 0.129559
0.640175 0.332605 0.129303
0.640213 0.319459 0.126783
0.629497 0.293348 0.121684
0.634312 0.291418 0.121971
0.641816 0.296880 0.123452
0.649043 0.302148 0.124909
0.656913 0.306812 0.126147
0.665904 0.311827 0.127567
0.055736 0.172132 0.090967
0.061774 0.173538 0.090407
0.067580 0.175109 0.090218
0.075385 0.178014 0.089785
0.092510 0.185390 0.087505
0.129543 0.201897 0.084822
0.179732 0.220336 0.087763
0.236775 0.240879 0.093642
0.290561 0.256125 0.096656
0.331006 0.248650 0.085343
0.348450 0.232230 0.073388
0.378489 0.237547 0.072889
0.409194 0.247084 0.079508
0.440552 0.258528 0.084677
0.467385 0.271052 0.091608
0.493067 0.283223 0.099166
0.518029 0.296457 0.106544
0.540487 0.309396 0.113807
0.560896 0.320366 0.120167
0.579267 0.328614 0.123372
0.597201 0.337041 0.126340
0.614956 0.343680 0.129284
0.632313 0.349655 0.132711
0.647939 0.352931 0.134734
0.660547 0.352769 0.135167
0.666468 0.347778 0.134233
0.657013 0.326553 0.129490
0.642515 0.301809 0.124205
0.648405 0.305311 0.125300
0.655550 0.309902 0.126599
0.663551 0.314243 0.127898
0.672399 0.318921 0.129404
0.056435 0.183471 0.092463
0.061519 0.185041 0.091569
0.066887 0.186639 0.091049
0.072711 0.188861 0.090350
0.085394 0.194372 0.088652
0.117824 0.209775 0.086501
0.171160 0.231249 0.088986
0.226974 0.253422 0.095368
0.286033 0.275398 0.103194
0.337269 0.286613 0.105182
0.369947 0.270190 0.088845
0.385134 0.255024 0.078121
0.413901 0.261307 0.082525
0.445778 0.270872 0.087267
0.473047 0.282316 0.094252
0.499730 0.295028 0.102461
0.525448 0.308764 0.110355
0.548376 0.322164 0.117877
0.569116 0.332683 0.123272
0.588097 0.340992 0.126480
0.607296 0.349842 0.130206
0.626306 0.357258 0.133591
0.644718 0.364039 0.136977
0.662003 0.368434 0.138886
0.677039 0.370478 0.139808
0.686175 0.368671 0.139661
0.685645 0.358658 0.137704
0.663925 0.328171 0.130343
0.655528 0.314174 0.127375
0.662522 0.317670 0.128571
0.670643 0.321964 0.129965
0.679224 0.326429 0.131380
0.059269 0.196203 0.095247
0.064188 0.197952 0.094436
0.068952 0.199608 0.093720
0.073865 0.201457 0.092855
0.082577 0.205463 0.091398
0.109245 0.218981 0.089021
0.159639 0.241817 0.089890
0.217404 0.265635 0.095377
0.276575 0.289148 0.103415
0.334949 0.308999 0.114534
0.382309 0.314075 0.113029
0.405880 0.293468 0.093580
0.421148 0.279617 0.086833
0.450838 0.285842 0.090770
0.478971 0.296516 0.098308
0.506095 0.308354 0.106467
0.532387 0.321227 0.114074
0.555547 0.334011 0.121288
0.576901 0.344581 0.126327
0.596662 0.353272 0.129677
0.616803 0.362412 0.133482
0.636971 0.370415 0.137296
0.656306 0.377582 0.140792
0.674938 0.382841 0.142924
0.691027 0.385859 0.144180
0.700967 0.385933 0.144389
0.702817 0.380207 0.142854
0.692189 0.361396 0.138437
0.669862 0.330418 0.131491
0.670226 0.326064 0.130752
0.677985 0.330027 0.132047
0.686212 0.334464 0.133345
0.061946 0.210156 0.098499
0.067194 0.212346 0.097615
0.072183 0.214414 0.096804
0.077243 0.216504 0.096084
0.082846 0.218837 0.095019
0.103011 0.228864 0.092742
0.146035 0.251053 0.091636
0.207205 0.276549 0.096210
0.265007 0.300122 0.104209
0.326541 0.323256 0.116583
0.381493 0.340085 0.126631
0.424068 0.341597 0.122418
0.442383 0.318509 0.101519
0.458465 0.305094 0.096316
0.484751 0.311873 0.102545
0.512088 0.322766 0.110593
0.538573 0.333735 0.117458
0.562228 0.345607 0.124515
0.584461 0.356649 0.129832
0.605312 0.366132 0.133496
0.626324 0.375176 0.136903
0.646691 0.383358 0.140853
0.667296 0.390828 0.144573
0.687144 0.396851 0.147155
0.703554 0.400596 0.148449
0.712565 0.401717 0.148792
0.716263 0.399155 0.148194
0.713075 0.388568 0.145335
0.698139 0.363525 0.139406
0.681052 0.338521 0.133687
0.685313 0.338448 0.133959
0.692918 0.342640 0.135076
0.064280 0.225429 0.100440
0.069374 0.227711 0.099487
0.074491 0.230120 0.098551
0.079914 0.232687 0.098010
0.085256 0.235052 0.097374
0.097667 0.240549 0.096099
0.134727 0.258723 0.093589
0.192093 0.284566 0.096841
0.253683 0.310089 0.105496
0.314432 0.334036 0.116676
0.375102 0.355782 0.130712
0.424569 0.370372 0.140347
0.463240 0.369078 0.132986
0.476783 0.342265 0.110461
0.491954 0.330236 0.108055
0.517235 0.337424 0.114839
0.544820 0.348283 0.122048
0.569239 0.358489 0.128779
0.592155 0.368924 0.133723
0.613604 0.378662 0.137228
0.634892 0.387664 0.140306
0.655621 0.396691 0.144552
0.677516 0.404383 0.148217
0.698865 0.411168 0.151058
0.715001 0.415646 0.152165
0.723871 0.418050 0.152604
0.728638 0.417459 0.152402
0.728478 0.411489 0.151215
0.722045 0.395909 0.147617
0.702595 0.364771 0.139948
0.692590 0.347381 0.135959
0.700090 0.351214 0.137076
0.067491 0.241661 0.101762
0.072356 0.243894 0.100956
0.077264 0.246253 0.100101
0.082452 0.248740 0.099405
0.087703 0.251086 0.098772
0.094739 0.253934 0.098151
0.121181 0.265535 0.095840
0.174301 0.290441 0.096396
0.237897 0.318355 0.104378
0.300587 0.343727 0.115159
0.363150 0.368197 0.130199
0.417725 0.387923 0.144341
0.462122 0.399926 0.152112
0.498632 0.394825 0.140899
0.508925 0.367805 0.122579
0.524278 0.356602 0.120675
0.550721 0.363831 0.127073
0.576417 0.373670 0.133775
0.600320 0.382957 0.137812
0.621959 0.391802 0.140763
0.644074 0.401166 0.144078
0.665839 0.411188 0.148858
0.688342 0.418751 0.152050
0.709745 0.425525 0.154814
0.724994 0.429953 0.155857
0.733590 0.433017 0.156521
0.739850 0.434019 0.156690
0.742080 0.430989 0.155968
0.740432 0.423250 0.154022
0.729733 0.401465 0.148875
0.712321 0.371362 0.141551
0.707986 0.360442 0.139387
0.070810 0.257710 0.104383
0.075752 0.260083 0.103280
0.080747 0.262509 0.102331
0.086144 0.264967 0.101432
0.091544 0.267191 0.100514
0.097228 0.269375 0.099580
0.109174 0.274326 0.098302
0.149827 0.293899 0.096619
0.217266 0.324007 0.102891
0.281980 0.351731 0.113124
0.346162 0.378571 0.127079
0.404849 0.400828 0.141884
0.454718 0.418304 0.155976
0.498999 0.428102 0.162557
0.531465 0.421113 0.150036
0.541203 0.395165 0.135440
0.557904 0.383981 0.133281
0.582817 0.390262 0.138910
0.608548 0.399534 0.142892
0.631689 0.408226 0.145718
0.653829 0.416059 0.148704
0.676471 0.426206 0.153311
0.698670 0.433217 0.156105
0.719775 0.439324 0.158425
0.733615 0.443929 0.159450
0.742364 0.447360 0.160065
0.749576 0.449351 0.160390
0.753154 0.447960 0.160092
0.754701 0.443986 0.159209
0.752110 0.434592 0.156940
0.738926 0.409511 0.150863
0.720322 0.376108 0.143066
0.073593 0.273733 0.106708
0.078364 0.276213 0.105425
0.083243 0.278710 0.104082
0.089145 0.281349 0.103082
0.095574 0.283896 0.102362
0.102003 0.286461 0.101630
0.109021 0.289210 0.100407
0.129182 0.298392 0.098328
0.183179 0.324278 0.099219
0.255766 0.356058 0.109527
0.321036 0.383426 0.121241
0.385865 0.409893 0.138284
0.439769 0.430046 0.153396
0.491553 0.447320 0.168235
0.533682 0.456865 0.175419
0.562594 0.448175 0.162256
0.574435 0.422104 0.147985
0.590865 0.411137 0.145273
0.615855 0.418151 0.148677
0.640568 0.426255 0.151545
0.663400 0.432688 0.153679
0.686363 0.440126 0.156966
0.708595 0.446761 0.159519
0.729835 0.453068 0.161597
0.742129 0.457885 0.162564
0.751295 0.461976 0.163361
0.759152 0.464848 0.163902
0.763551 0.464736 0.163913
0.766266 0.462323 0.163519
0.767228 0.457016 0.162340
0.763121 0.444528 0.159367
0.748329 0.416407 0.152783
0.075435 0.290675 0.105877
0.079918 0.293249 0.104374
0.084875 0.295915 0.102978
0.090924 0.298840 0.102009
0.097701 0.301629 0.101240
0.104361 0.304306 0.100455
0.111124 0.307014 0.099492
0.121877 0.311295 0.098052
0.148884 0.323948 0.096194
0.211979 0.352051 0.102511
0.287446 0.384603 0.116399
0.355599 0.413000 0.132143
0.418246 0.437897 0.147803
0.473400 0.458365 0.164169
0.525614 0.476610 0.179851
0.564399 0.485311 0.188003
0.593801 0.475126 0.172641
0.606299 0.450356 0.159552
0.624570 0.439639 0.155650
0.647959 0.444252 0.156931
0.672110 0.451005 0.158759
0.696440 0.456535 0.161225
0.718900 0.461147 0.163197
0.739248 0.467261 0.164932
0.750945 0.472480 0.165978
0.760285 0.477092 0.166920
0.768600 0.480580 0.167581
0.773570 0.481218 0.167665
0.777256 0.480253 0.167582
0.779654 0.477141 0.167110
0.779057 0.469132 0.165311
0.772550 0.452083 0.161127
0.078391 0.307053 0.107137
0.082617 0.309494 0.104866
0.088059 0.312243 0.103351
0.093727 0.315200 0.102009
0.099697 0.318014 0.100454
0.105955 0.320700 0.099356
0.112322 0.323455 0.098177
0.121415 0.326824 0.096975
0.133976 0.331698 0.095755
0.166552 0.346532 0.096856
0.232938 0.376089 0.108015
0.311669 0.409691 0.123531
0.383781 0.439543 0.140595
0.445802 0.465293 0.157114
0.504314 0.487878 0.176461
0.553554 0.504145 0.190910
0.594700 0.512347 0.197839
0.623127 0.499912 0.182531
0.636346 0.475032 0.167208
0.654991 0.463762 0.162583
0.678862 0.467916 0.163571
0.704109 0.473137 0.165872
0.727984 0.477335 0.167659
0.747750 0.481669 0.168721
0.759564 0.486898 0.169603
0.769484 0.492738 0.170507
0.777968 0.496900 0.171089
0.783467 0.498582 0.171335
0.787571 0.498714 0.171339
0.790571 0.496534 0.170900
0.791027 0.489613 0.169578
0.788761 0.478134 0.167068
0.081664 0.323193 0.110048
0.086578 0.325655 0.107872
0.092053 0.328342 0.105962
0.097570 0.331207 0.104126
0.102834 0.333850 0.102004
0.107917 0.336575 0.099888
0.113238 0.339479 0.097708
0.121706 0.342935 0.096490
0.131814 0.346701 0.095864
0.144961 0.352123 0.095794
0.180593 0.367640 0.098788
0.245637 0.396393 0.110355
0.328698 0.432515 0.128594
0.405498 0.465106 0.147842
0.470834 0.491907 0.168405
0.531997 0.514784 0.187400
0.582440 0.529561 0.200534
0.626148 0.536530 0.206364
0.652333 0.524100 0.191674
0.665861 0.499044 0.174221
0.685057 0.488395 0.170170
0.711619 0.490901 0.170818
0.736492 0.495264 0.172158
0.757854 0.499308 0.172548
0.768595 0.502484 0.172539
0.778241 0.507539 0.173135
0.786960 0.512264 0.173751
0.792973 0.514811 0.174121
0.797769 0.516542 0.174446
0.800642 0.515146 0.174145
0.801784 0.509962 0.173110
0.801220 0.501096 0.171354
0.085183 0.338949 0.112805
0.089724 0.341711 0.110296
0.094479 0.344542 0.107893
0.099112 0.347192 0.105243
0.103677 0.349638 0.102432
0.108533 0.352033 0.100023
0.113932 0.354675 0.097789
0.122437 0.358093 0.096651
0.132836 0.362033 0.096279
0.143780 0.366413 0.096033
0.156547 0.372115 0.096414
0.187229 0.386055 0.100273
0.251493 0.414702 0.112264
0.336070 0.450880 0.131971
0.421595 0.487733 0.156271
0.492887 0.516370 0.178313
0.557626 0.538894 0.196002
0.612932 0.553420 0.208975
0.654115 0.558812 0.214232
0.679906 0.546385 0.198761
0.694361 0.522403 0.180773
0.716224 0.511674 0.176452
0.744385 0.513743 0.176129
0.767259 0.517316 0.176211
0.777215 0.519472 0.175937
0.785230 0.521873 0.175912
0.793171 0.525476 0.176295
0.799529 0.528811 0.176873
0.804422 0.530842 0.177258
0.808062 0.530174 0.177030
0.810706 0.526945 0.176219
0.812135 0.521644 0.174996
0.087738 0.355669 0.116695
0.091971 0.358449 0.113804
0.096363 0.361390 0.111089
0.100667 0.363977 0.108235
0.104694 0.366264 0.105133
0.108645 0.368430 0.102138
0.113398 0.370690 0.099534
0.121438 0.373852 0.097837
0.131086 0.377504 0.096831
0.141352 0.381436 0.096294
0.152569 0.386061 0.095964
0.164572 0.391424 0.096401
0.188110 0.401639 0.100207
0.253092 0.429618 0.113735
0.341584 0.467862 0.135465
0.434292 0.507942 0.163095
0.515183 0.539902 0.188812
0.585228 0.563242 0.206766
0.640668 0.576074 0.217694
0.679922 0.580042 0.220757
0.704675 0.566664 0.202619
0.721907 0.543735 0.185632
0.746472 0.533805 0.180986
0.773477 0.534651 0.179945
0.783728 0.535944 0.179548
0.790995 0.537425 0.179305
0.797927 0.539256 0.179217
0.804412 0.542281 0.179695
0.809286 0.544466 0.180132
0.812912 0.543828 0.179942
0.816384 0.542110 0.179448
0.819488 0.538952 0.178551
0.090003 0.372260 0.122376
0.094259 0.374657 0.119344
0.098280 0.377022 0.116223
0.102161 0.379177 0.113152
0.105846 0.381429 0.110201
0.109666 0.383714 0.107501
0.114681 0.386218 0.105159
0.123433 0.389495 0.103433
0.132969 0.392924 0.101785
0.142492 0.396262 0.100322
0.152226 0.399803 0.099225
0.163016 0.404504 0.099007
0.174646 0.410012 0.099451
0.191736 0.417736 0.101578
0.243496 0.440000 0.112528
0.339934 0.481260 0.136034
0.443745 0.524810 0.165612
0.537267 0.561707 0.196490
0.612319 0.585946 0.215718
0.666432 0.597645 0.225613
0.704075 0.600624 0.225831
0.728467 0.585658 0.205470
0.749487 0.563714 0.188133
0.774545 0.554509 0.184755
0.789587 0.553145 0.183307
0.797072 0.553612 0.182722
0.803740 0.554791 0.182494
0.809651 0.556636 0.182640
0.813806 0.557467 0.182832
0.817186 0.556711 0.182706
0.820990 0.555916 0.182547
0.824620 0.554271 0.182032
0.090506 0.386988 0.128644
0.094595 0.389302 0.125584
0.098463 0.391476 0.122440
0.102040 0.393493 0.119390
0.105729 0.395641 0.116516
0.109812 0.397787 0.113800
0.115557 0.400510 0.111351
0.125425 0.404292 0.109287
0.135404 0.407987 0.107444
0.144925 0.411353 0.105878
0.154469 0.414607 0.104841
0.164578 0.418504 0.104651
0.175947 0.423437 0.104832
0.188469 0.429287 0.105368
0.202403 0.435639 0.106229
0.237635 0.450915 0.111441
0.339690 0.494143 0.134383
0.453645 0.541600 0.168834
0.559844 0.583429 0.204500
0.639333 0.608567 0.223710
0.690473 0.618782 0.230730
0.730040 0.621945 0.231249
0.751967 0.603083 0.207041
0.773434 0.581033 0.189450
0.793543 0.572166 0.187056
0.801125 0.569926 0.185914
0.807692 0.570190 0.185456
0.813811 0.572134 0.185514
0.817964 0.572643 0.185449
0.821086 0.570868 0.185143
0.824789 0.569235 0.185031
0.828736 0.568074 0.184959
0.089651 0.399751 0.134956
0.093738 0.402426 0.132070
0.097881 0.405224 0.128896
0.101690 0.407637 0.125916
0.105524 0.409573 0.122997
0.109643 0.411590 0.119949
0.115461 0.414067 0.117329
0.125275 0.417650 0.115775
0.135023 0.421201 0.114156
0.144286 0.424467 0.112778
0.153815 0.427758 0.111880
0.163888 0.431424 0.111610
0.174941 0.435984 0.111691
0.187641 0.441863 0.112000
0.200661 0.447792 0.112428
0.214608 0.453889 0.112549
0.240173 0.464807 0.113562
0.331652 0.503912 0.132104
0.465396 0.559796 0.171079
0.584339 0.606865 0.213737
0.662061 0.629678 0.230073
0.714488 0.638849 0.235743
0.755142 0.641339 0.236302
0.773518 0.619136 0.207004
0.794573 0.598325 0.191581
0.805008 0.589132 0.189133
0.811427 0.587270 0.188291
0.817720 0.588241 0.188117
0.822188 0.588862 0.188075
0.825459 0.587623 0.187878
0.829082 0.585682 0.187611
0.832673 0.583180 0.187331
0.088641 0.412354 0.141246
0.092996 0.415095 0.138082
0.097264 0.417797 0.134835
0.101155 0.420067 0.131746
0.105089 0.422065 0.128701
0.109223 0.423950 0.125687
0.115645 0.426490 0.123219
0.125214 0.429946 0.121596
0.134694 0.433561 0.119911
0.144724 0.437344 0.118702
0.155315 0.441298 0.118040
0.165639 0.444973 0.117801
0.175999 0.448755 0.117756
0.187638 0.453727 0.118146
0.200413 0.459336 0.118536
0.214226 0.465473 0.118508
0.230044 0.472498 0.118296
0.251476 0.481820 0.118346
0.326173 0.514129 0.129992
0.476462 0.576336 0.173328
0.605199 0.626894 0.219963
0.686800 0.651309 0.238629
0.740637 0.659405 0.243784
0.779261 0.659860 0.241750
0.792868 0.632559 0.206054
0.807912 0.613978 0.194127
0.814154 0.605426 0.191189
0.820528 0.604824 0.190671
0.825291 0.604636 0.190463
0.828682 0.603582 0.190669
0.832550 0.602243 0.190769
0.836346 0.600274 0.190536
0.088739 0.423452 0.145463
0.092635 0.425772 0.142755
0.096921 0.428166 0.139702
0.100959 0.430435 0.136666
0.104870 0.432689 0.133652
0.108966 0.434731 0.130679
0.115659 0.437458 0.128293
0.125174 0.440960 0.126447
0.134529 0.444352 0.124616
0.144492 0.448130 0.123234
0.155236 0.452247 0.122685
0.165098 0.455783 0.122988
0.175218 0.459485 0.123216
0.186664 0.464040 0.123277
0.200245 0.469889 0.123174
0.214846 0.476328 0.122848
0.230198 0.483100 0.122528
0.247153 0.490485 0.122297
