apk/assets/luts/Lut16.cube
LUT_3D_SIZE 6
-0.002390 -0.003884 0.001056
0.192290 0.041500 0.007434
0.544314 0.061132 0.005808
0.776712 0.086302 0.004996
0.774884 0.086006 0.004994
0.776721 0.085964 0.004994
0.004868 0.153302 0.025402
0.069982 0.109974 0.032533
0.552275 0.157183 0.012328
0.815261 0.137653 0.004897
0.798296 0.105339 0.004929
0.783273 0.089814 0.004984
0.052948 0.488880 0.106453
0.041695 0.475224 0.105912
0.514077 0.487141 0.110079
0.863210 0.454222 0.029162
0.921977 0.395083 0.020776
0.914149 0.345151 0.018127
0.269993 0.785766 0.206491
0.259704 0.771773 0.201210
0.440989 0.782045 0.228240
0.826636 0.760212 0.184210
0.956704 0.706582 0.037676
0.954731 0.644371 0.017477
0.356642 0.917343 0.263417
0.356890 0.917626 0.263558
0.396351 0.931897 0.289529
0.768102 0.936591 0.434393
0.960849 0.924166 0.405668
0.968161 0.894419 0.201846
0.361730 0.929051 0.267664
0.360206 0.929043 0.267665
0.354492 0.932106 0.270800
0.627557 0.964584 0.350193
0.950725 0.920597 0.660923
0.971887 0.944336 0.494832
-0.085973 -0.233547 0.094583
0.185855 -0.233702 0.136488
0.598843 -0.234710 -0.034831
0.821811 -0.240655 -0.084971
0.806764 -0.230846 -0.147220
0.795175 -0.236113 -0.112586
0.000761 0.113768 0.108222
0.113136 0.142946 0.128577
0.555118 0.142911 0.058684
0.821754 0.117329 0.013781
0.804675 0.097487 0.007362
0.797948 0.092681 0.006727
0.033211 0.478843 0.136978
-0.006044 0.462767 0.114716
0.504281 0.479446 0.109878
0.858730 0.446239 0.029480
0.921040 0.389952 0.020562
0.914611 0.347685 0.018474
0.266401 0.780696 0.204643
0.256476 0.767534 0.199551
0.431983 0.777652 0.225978
0.822832 0.756146 0.181525
0.956609 0.702348 0.035962
0.954598 0.642983 0.017420
0.356743 0.917476 0.263482
0.356904 0.917755 0.263622
0.394965 0.931433 0.288377
0.761720 0.936748 0.426777
0.960084 0.923074 0.401722
0.968051 0.892689 0.197188
0.361447 0.929037 0.265991
0.360510 0.929045 0.265847
0.353337 0.932334 0.270660
0.624432 0.964480 0.349948
0.949156 0.920701 0.661251
0.970741 0.944622 0.494785
-0.054543 -0.224390 0.326475
0.059531 -0.228242 0.345724
0.591034 -0.236263 0.421283
0.797724 -0.240501 0.185781
0.797308 -0.229939 0.141256
0.808818 -0.236544 0.172676
0.040272 0.223683 0.365220
0.086764 0.194756 0.355580
0.534180 0.130325 0.411335
0.810276 0.122603 0.214067
0.821401 0.076591 0.200804
0.825286 0.068044 0.181751
-0.000847 0.465401 0.432371
-0.002788 0.442588 0.411745
0.365222 0.471501 0.431527
0.860740 0.475202 0.413800
0.934107 0.432113 0.363589
0.934741 0.421680 0.350983
0.135070 0.695957 0.452518
0.126879 0.688043 0.435512
0.311802 0.744811 0.404100
0.820116 0.768325 0.423696
0.959202 0.716775 0.265420
0.958745 0.674749 0.268119
0.341130 0.910427 0.338935
0.346058 0.915141 0.320226
0.397116 0.922578 0.355931
0.767773 0.938151 0.454225
0.959633 0.921885 0.407435
0.970452 0.896816 0.229285
0.360026 0.931117 0.275484
0.359872 0.931019 0.272244
0.378093 0.939714 0.305153
0.647507 0.965800 0.367258
0.950381 0.921461 0.667500
0.971423 0.944775 0.500045
0.113545 -0.169103 0.445886
0.135948 -0.166234 0.486759
0.389655 -0.185417 0.514126
0.858826 -0.234857 0.642410
0.832982 -0.232528 0.523159
0.787117 -0.238177 0.284947
0.111220 0.292024 0.531351
0.143007 0.274215 0.538798
0.295780 0.210663 0.554446
0.847182 0.113440 0.707894
0.798415 0.040683 0.351195
0.788982 0.023809 0.280721
0.011371 0.514026 0.630481
-0.013285 0.501058 0.617945
0.185991 0.484909 0.636724
0.827935 0.451997 0.744510
0.910884 0.460361 0.470043
0.915049 0.449546 0.430592
0.091286 0.667025 0.670848
0.084744 0.659469 0.661821
0.142431 0.670116 0.666132
0.659336 0.741960 0.724340
0.955844 0.774163 0.730487
0.957489 0.767829 0.723192
0.232668 0.795696 0.659825
0.234699 0.796000 0.652234
0.261711 0.806150 0.654588
0.629104 0.907173 0.692436
0.950074 0.926807 0.785097
0.963270 0.923178 0.736630
0.243011 0.809192 0.605989
0.242966 0.809553 0.599749
0.246573 0.816994 0.607900
0.608503 0.920332 0.681669
0.930119 0.942334 0.812135
0.954997 0.944517 0.815450
0.119320 -0.148024 0.429683
0.138128 -0.142134 0.470044
0.344231 -0.167223 0.504231
0.855996 -0.206107 0.701817
0.854271 -0.234502 0.610180
0.853845 -0.233124 0.608857
0.118174 0.277451 0.523466
0.143407 0.266964 0.534459
0.263658 0.207995 0.551876
0.793143 0.115738 0.612516
0.852944 0.077664 0.620263
0.854944 0.078605 0.620118
0.014316 0.501112 0.635538
-0.010710 0.490335 0.629925
0.188274 0.486598 0.668214
0.697903 0.475374 0.667800
0.931062 0.400226 0.779438
0.931951 0.392193 0.775655
0.088211 0.643046 0.706281
0.084107 0.636436 0.702843
0.147353 0.644962 0.720816
0.408543 0.665562 0.771347
0.952760 0.728448 0.897363
0.952416 0.721243 0.886699
0.167206 0.762788 0.770561
0.166203 0.761483 0.769847
0.176886 0.764317 0.775060
0.330290 0.807807 0.810012
0.817502 0.911030 0.889902
0.906793 0.929095 0.907078
0.172859 0.778097 0.772151
0.173597 0.779293 0.769297
0.163410 0.784311 0.769602
0.336105 0.841699 0.796176
0.797518 0.935927 0.885606
0.900814 0.954701 0.910903
0.120877 -0.139607 0.442691
0.137080 -0.131897 0.480770
0.278930 -0.155678 0.518818
0.781995 -0.191814 0.565461
0.857872 -0.226830 0.634445
0.853230 -0.244519 0.629916
0.124833 0.261807 0.530792
0.143636 0.265838 0.550589
0.231242 0.213155 0.565737
0.707293 0.133569 0.478113
0.853925 0.077789 0.646057
0.856045 0.079710 0.646137
0.014303 0.476808 0.643875
-0.011237 0.469318 0.639738
0.189119 0.484230 0.687690
0.595882 0.468685 0.692476
0.932078 0.403365 0.804506
0.931379 0.387458 0.798773
0.071979 0.615246 0.713826
0.067756 0.609876 0.710936
0.150151 0.626169 0.735085
0.410459 0.661919 0.792370
0.948478 0.728720 0.926427
0.953264 0.717264 0.918169
0.156717 0.745032 0.784407
0.153874 0.741359 0.782289
0.163940 0.743971 0.791198
0.332640 0.785761 0.826444
0.792248 0.901344 0.908612
0.919204 0.933649 0.951301
0.166431 0.757421 0.791571
0.166431 0.757421 0.791571
0.168903 0.759292 0.793630
0.330447 0.810851 0.831606
0.749324 0.907098 0.898243
0.942487 0.966607 0.973920
