apk/assets/luts/Lut12.cube
# Copyright: (C) Copyright 2016 by IWLTBAP
# Cannot be resold, shared or otherwise redistributed
# Website: http://luts.iwltbap.com
TITLE "IWLTBAP 9380 (LOG)"
LUT_3D_SIZE 32
0.041382 0.045502 0.046692
0.046583 0.046281 0.046475
0.053436 0.047315 0.046320
0.062416 0.049257 0.046690
0.073451 0.052584 0.047786
0.089539 0.055755 0.047157
0.108939 0.059456 0.045978
0.129700 0.063894 0.043210
0.152428 0.067836 0.038678
0.174458 0.072269 0.038709
0.201366 0.075882 0.038274
0.235454 0.082419 0.038308
0.271545 0.091344 0.041921
0.311792 0.102260 0.045637
0.352448 0.113256 0.050106
0.386855 0.122353 0.054103
0.420391 0.137685 0.059942
0.449672 0.153168 0.065777
0.475578 0.168330 0.071693
0.499483 0.183159 0.075852
0.519756 0.192869 0.078840
0.541124 0.205410 0.083739
0.560712 0.219148 0.088431
0.575857 0.227823 0.091642
0.588382 0.235477 0.093540
0.597441 0.242840 0.095042
0.606980 0.250555 0.096736
0.616802 0.258156 0.098990
0.629080 0.267154 0.101512
0.638627 0.272760 0.102905
0.644186 0.273896 0.103150
0.648224 0.273651 0.103119
0.041425 0.048766 0.047197
0.046337 0.049449 0.046709
0.052716 0.050308 0.046372
0.061501 0.052079 0.046542
0.072845 0.055014 0.047454
0.089012 0.058030 0.046998
0.108430 0.061387 0.045774
0.129487 0.065470 0.042976
0.152591 0.069924 0.038585
0.174989 0.074853 0.038541
0.201816 0.078699 0.038027
0.236487 0.085583 0.038032
0.272972 0.094618 0.041748
0.313423 0.105751 0.045574
0.353849 0.115903 0.050093
0.389046 0.125788 0.054149
0.423152 0.141615 0.060103
0.452470 0.156920 0.066164
0.478625 0.172291 0.072018
0.501998 0.186262 0.076038
0.523645 0.197793 0.079273
0.545250 0.210590 0.084535
0.564335 0.223793 0.089421
0.579713 0.232587 0.092429
0.591065 0.238987 0.093982
0.601121 0.247621 0.095721
0.610711 0.255390 0.097570
0.620758 0.263031 0.100043
0.632539 0.271368 0.102096
0.643257 0.278342 0.103758
0.648080 0.278630 0.103860
0.652118 0.278413 0.103830
0.042237 0.052612 0.048291
0.046520 0.053206 0.048076
0.052308 0.054232 0.047388
0.060832 0.055259 0.046957
0.072970 0.057778 0.047131
0.088969 0.061277 0.047103
0.108212 0.064894 0.046206
0.129597 0.068959 0.043401
0.153881 0.073098 0.038762
0.176276 0.077406 0.038331
0.202972 0.081306 0.037770
0.238461 0.089108 0.037852
0.275013 0.097773 0.041691
0.315439 0.108601 0.045640
0.355865 0.118606 0.050155
0.391536 0.129322 0.054243
0.426045 0.145375 0.060450
0.455478 0.160868 0.066579
0.481846 0.176332 0.072406
0.505199 0.190232 0.076314
0.527329 0.202456 0.080149
0.549580 0.215885 0.085410
0.568408 0.228989 0.090575
0.583022 0.236559 0.092980
0.594709 0.243742 0.094690
0.604515 0.252072 0.096317
0.614334 0.259899 0.098545
0.625484 0.268705 0.101018
0.636826 0.276478 0.102919
0.646337 0.282052 0.104277
0.650995 0.282407 0.104417
0.654988 0.282092 0.104356
0.042835 0.057834 0.049629
0.047050 0.058091 0.049382
0.052380 0.059517 0.049179
0.059473 0.060603 0.048418
0.072226 0.061494 0.047351
0.089298 0.065183 0.047023
0.108224 0.069336 0.046587
0.129570 0.074021 0.044562
0.155093 0.078503 0.039623
0.178125 0.082364 0.038205
0.204916 0.085364 0.037591
0.240921 0.092789 0.037750
0.277097 0.100699 0.041612
0.317711 0.111704 0.045715
0.358387 0.121963 0.050193
0.394315 0.132972 0.054445
0.428940 0.148785 0.060893
0.458616 0.164666 0.067000
0.484931 0.180098 0.072773
0.508436 0.194093 0.076757
0.531081 0.207271 0.081120
0.553427 0.220681 0.086527
0.572049 0.233586 0.091430
0.586734 0.241197 0.093711
0.598764 0.248970 0.095483
0.608196 0.256653 0.097140
0.617881 0.264356 0.099455
0.629009 0.272963 0.101734
0.640606 0.280913 0.103708
0.649929 0.286335 0.104929
0.654104 0.286232 0.104978
0.657874 0.285778 0.104919
0.042621 0.065814 0.050578
0.046802 0.066099 0.050425
0.052428 0.067060 0.050176
0.058700 0.068742 0.050236
0.069985 0.069650 0.049202
0.088885 0.070599 0.047083
0.108936 0.074935 0.046395
0.130894 0.080285 0.045122
0.156944 0.086082 0.040091
0.181125 0.090858 0.038401
0.208673 0.093498 0.037542
0.244992 0.099228 0.037750
0.280785 0.105450 0.041772
0.320925 0.116015 0.045890
0.361680 0.126333 0.050355
0.397159 0.136095 0.054678
0.431699 0.151704 0.061391
0.461444 0.167947 0.067495
0.487838 0.183387 0.073154
0.511472 0.197520 0.077211
0.534631 0.211498 0.082014
0.557360 0.225983 0.087517
0.575867 0.238204 0.092169
0.591084 0.246654 0.094561
0.602801 0.254097 0.096319
0.612059 0.261425 0.098205
0.622254 0.269867 0.100606
0.633546 0.278173 0.102819
0.644507 0.285518 0.104458
0.653644 0.290963 0.105688
0.657110 0.290073 0.105566
0.661047 0.289734 0.105504
0.043022 0.075563 0.052103
0.046424 0.075380 0.051758
0.051308 0.076010 0.051440
0.057625 0.077456 0.051185
0.067548 0.079975 0.051245
0.086933 0.081549 0.049678
0.109144 0.082295 0.046920
0.131523 0.086966 0.045688
0.158441 0.093163 0.040113
0.184309 0.099133 0.038274
0.214106 0.104298 0.037403
0.250091 0.109425 0.037814
0.287206 0.114240 0.041734
0.326787 0.123819 0.046316
0.366605 0.132720 0.050735
0.401338 0.140678 0.055260
0.434433 0.153879 0.061918
0.464113 0.170294 0.067882
0.490425 0.185802 0.073505
0.514141 0.200114 0.077666
0.537239 0.213999 0.082600
0.559966 0.228860 0.088044
0.578998 0.241696 0.092739
0.594127 0.250101 0.095011
0.605895 0.257930 0.097031
0.615383 0.265531 0.099064
0.625439 0.273831 0.101414
0.636788 0.282082 0.103387
0.647925 0.289792 0.105102
0.656088 0.294240 0.106152
0.660018 0.293843 0.106085
0.664025 0.293570 0.106088
0.043939 0.086217 0.054022
0.047128 0.086199 0.053787
0.051051 0.086272 0.053593
0.056003 0.086473 0.053350
0.064194 0.088343 0.053202
0.083191 0.092442 0.053393
0.108588 0.095162 0.050716
0.131083 0.095018 0.046511
0.159553 0.099938 0.040858
0.187007 0.106563 0.038512
0.220273 0.112934 0.036940
0.258255 0.121234 0.038084
0.297284 0.129744 0.041835
0.337212 0.137834 0.047143
0.375402 0.144143 0.051468
0.408533 0.149982 0.056759
0.439192 0.158735 0.062973
0.466609 0.171759 0.068241
0.492540 0.187078 0.073818
0.516477 0.201734 0.077999
0.539861 0.216170 0.083098
0.562655 0.231547 0.088637
0.581987 0.244234 0.093194
0.597012 0.252955 0.095459
0.608111 0.260726 0.097529
0.617753 0.268567 0.099633
0.628102 0.277197 0.102055
0.639429 0.285224 0.103793
0.650167 0.292724 0.105513
0.658031 0.296764 0.106446
0.662017 0.296417 0.106403
0.666103 0.296283 0.106372
0.043731 0.096550 0.055704
0.047345 0.096670 0.055530
0.051775 0.096970 0.055350
0.056156 0.097206 0.055180
0.063649 0.097871 0.054867
0.078487 0.101083 0.054838
0.103544 0.107794 0.055061
0.131955 0.108491 0.050010
0.159934 0.108327 0.042960
0.190093 0.114439 0.039454
0.225572 0.121767 0.036870
0.267333 0.132741 0.039419
0.311384 0.145359 0.043314
0.353262 0.158868 0.050251
0.392466 0.166060 0.053994
0.424528 0.171041 0.060901
0.449957 0.171914 0.064919
0.473112 0.178912 0.069383
0.495698 0.189477 0.074284
0.519010 0.203159 0.078381
0.542603 0.218042 0.083601
0.565709 0.234188 0.089326
0.585562 0.247005 0.093671
0.600078 0.255653 0.096005
0.610378 0.263545 0.098034
0.620197 0.271626 0.100259
0.630564 0.280352 0.102476
0.641822 0.288257 0.104214
0.652544 0.295797 0.105906
0.659587 0.298806 0.106600
0.663549 0.298478 0.106552
0.667629 0.298310 0.106527
0.041744 0.108057 0.056781
0.045455 0.108182 0.056590
0.049605 0.108442 0.056527
0.054673 0.108922 0.056187
0.060709 0.109879 0.055701
0.071917 0.112144 0.055246
0.094138 0.118009 0.055109
0.125517 0.126117 0.056464
0.164424 0.126827 0.048889
0.193749 0.125914 0.043354
0.231280 0.133303 0.038696
0.276172 0.145131 0.041686
0.324780 0.160232 0.045397
0.371023 0.177818 0.052488
0.412533 0.190798 0.057345
0.448582 0.202154 0.066167
0.472870 0.201148 0.069778
0.488159 0.197325 0.073030
0.505771 0.201759 0.076734
0.526405 0.211386 0.080345
0.547599 0.222813 0.084766
0.569302 0.236947 0.090216
0.588973 0.249001 0.094006
0.602223 0.257777 0.096371
0.612366 0.266014 0.098467
0.622409 0.274437 0.100743
0.632792 0.283159 0.102815
0.643977 0.291182 0.104574
0.655171 0.298977 0.106324
0.660681 0.300333 0.106637
0.664661 0.299931 0.106583
0.668811 0.299831 0.106598
0.039615 0.121739 0.058145
0.043033 0.122179 0.058029
0.046660 0.122566 0.057904
0.051337 0.122876 0.057621
0.056922 0.123490 0.057094
0.066347 0.124928 0.056385
0.082246 0.129827 0.056004
0.110255 0.138664 0.056171
0.158209 0.152325 0.056831
0.203696 0.149490 0.048794
0.236640 0.146892 0.042258
0.284428 0.158419 0.042660
0.336684 0.174889 0.046987
0.387445 0.195543 0.054721
0.432183 0.212521 0.062231
0.469823 0.226951 0.071669
0.497058 0.232895 0.077092
0.514646 0.233308 0.081197
0.525570 0.227342 0.081780
0.538113 0.225798 0.083349
0.557797 0.235881 0.087577
0.578302 0.247675 0.092742
0.596813 0.256364 0.095756
0.606314 0.262701 0.097424
0.614940 0.269148 0.099065
0.624610 0.277305 0.101126
0.634764 0.285605 0.103080
0.646219 0.293878 0.104892
0.656343 0.300631 0.106401
0.660780 0.300674 0.106423
0.664840 0.300303 0.106384
0.669088 0.300314 0.106444
0.040698 0.135229 0.060652
0.043493 0.136411 0.060665
0.046493 0.137848 0.060740
0.049543 0.138805 0.060465
0.055046 0.139870 0.059915
0.063457 0.141156 0.059240
0.075187 0.143294 0.058609
0.096648 0.151291 0.058464
0.138857 0.167282 0.059207
0.207737 0.186082 0.058962
0.249315 0.174334 0.049267
0.292071 0.175607 0.045206
0.347691 0.191168 0.048660
0.400782 0.212069 0.056802
0.448979 0.232606 0.067818
0.488955 0.248883 0.077375
0.518563 0.261065 0.085362
0.539497 0.267613 0.089966
0.555444 0.267145 0.091168
0.565107 0.260155 0.091845
0.571305 0.252228 0.091766
0.590534 0.260896 0.096230
0.608178 0.269322 0.098951
0.616636 0.275318 0.100370
0.624370 0.281020 0.101573
0.632093 0.286928 0.103013
0.641119 0.293073 0.104438
0.650934 0.299442 0.105820
0.657510 0.302314 0.106490
0.661547 0.301891 0.106437
0.665539 0.301334 0.106344
0.669817 0.301239 0.106344
0.040298 0.151327 0.065992
0.043013 0.152176 0.065466
0.046073 0.153114 0.064996
0.049106 0.153964 0.064549
0.053230 0.155022 0.064167
0.061230 0.157286 0.063525
0.070453 0.160094 0.062726
0.085753 0.165728 0.062105
0.120409 0.181195 0.059594
0.182770 0.204066 0.063530
0.261511 0.223385 0.065797
0.305528 0.206061 0.052434
0.356443 0.210246 0.050320
0.411878 0.228965 0.059330
0.463024 0.251560 0.072623
0.505014 0.270141 0.082444
0.537238 0.285652 0.093231
0.560796 0.295346 0.097306
0.581326 0.302390 0.100954
0.597587 0.302178 0.102953
0.604697 0.293525 0.102671
0.607687 0.280168 0.100804
0.619885 0.284314 0.102054
0.627827 0.289941 0.103215
0.635928 0.295798 0.104598
0.644252 0.301658 0.106003
0.653517 0.307713 0.107458
0.662919 0.313604 0.108995
0.667862 0.314394 0.109231
0.671925 0.314074 0.109161
0.676099 0.313541 0.109076
0.679752 0.312604 0.108892
0.039378 0.170232 0.072632
0.042076 0.171181 0.071874
0.045019 0.172146 0.070920
0.048206 0.172849 0.069894
0.052329 0.173841 0.068935
0.058156 0.175268 0.068552
0.067489 0.178249 0.067408
0.077969 0.181779 0.066386
0.099655 0.192986 0.064625
0.155178 0.218343 0.064848
0.241066 0.251492 0.073675
0.329031 0.270206 0.077660
0.370559 0.242228 0.056428
0.422587 0.252110 0.064067
0.476162 0.272527 0.077273
0.520026 0.292518 0.089274
0.554276 0.310250 0.099696
0.580503 0.322174 0.104043
0.606247 0.333108 0.109400
0.626931 0.338423 0.113035
0.643631 0.339323 0.114198
0.649054 0.329167 0.111972
0.638655 0.307391 0.106922
0.641808 0.306848 0.106764
0.650021 0.312777 0.108388
0.659229 0.318918 0.110068
0.668834 0.324994 0.111764
0.676318 0.328582 0.112721
0.680759 0.328779 0.112807
0.684505 0.328223 0.112695
0.688643 0.327680 0.112576
0.692258 0.326793 0.112379
0.040505 0.191783 0.078715
0.043212 0.192797 0.077908
0.046291 0.194100 0.076922
0.049876 0.195616 0.075815
0.054864 0.197456 0.075090
0.059988 0.199207 0.074339
0.066049 0.201449 0.073484
0.076290 0.204771 0.072309
0.089864 0.210227 0.071026
0.128242 0.231398 0.068493
0.209482 0.270051 0.073357
0.313145 0.309422 0.089024
0.404466 0.322046 0.092294
0.437510 0.287591 0.071610
0.488573 0.299387 0.083735
0.535627 0.318370 0.096162
0.570614 0.335673 0.106264
0.599957 0.349118 0.112266
0.627203 0.360146 0.117806
0.652776 0.368966 0.121106
0.674254 0.373690 0.122330
0.683915 0.372996 0.122157
0.679942 0.360110 0.119196
0.664484 0.334945 0.113663
0.666211 0.331317 0.113001
0.674681 0.336743 0.114366
0.682979 0.341572 0.115501
0.689277 0.343466 0.115941
0.693597 0.343160 0.115895
0.697449 0.342550 0.115787
0.701614 0.342076 0.115705
0.705282 0.341284 0.115566
0.041900 0.219834 0.081034
0.044233 0.221065 0.080137
0.047385 0.222573 0.079096
0.052397 0.224169 0.078507
0.057828 0.225884 0.078086
0.063400 0.227901 0.077524
0.069094 0.230439 0.077006
0.077940 0.233983 0.075957
0.090449 0.238921 0.074228
0.108231 0.247656 0.072292
0.169445 0.280083 0.072483
0.281279 0.327662 0.087129
0.392392 0.367198 0.109065
0.474730 0.371355 0.107879
0.503024 0.336072 0.093513
0.548922 0.347120 0.104387
0.586046 0.360381 0.112936
0.617858 0.374650 0.119130
0.647232 0.387078 0.124904
0.676033 0.397289 0.127940
0.697119 0.402928 0.130131
0.706700 0.404653 0.130712
0.711160 0.401516 0.129910
0.705146 0.386880 0.125974
0.689149 0.360591 0.119565
0.688301 0.353858 0.118158
0.696398 0.358294 0.119169
0.702243 0.359722 0.119456
0.707156 0.359816 0.119437
0.711618 0.359461 0.119334
0.715877 0.358798 0.119148
0.719594 0.356884 0.118822
0.045908 0.247555 0.085405
0.048455 0.249048 0.084320
0.052633 0.251098 0.083060
0.057609 0.253217 0.081907
0.062884 0.255469 0.080813
0.068436 0.257832 0.080063
0.074089 0.260123 0.079672
0.080721 0.262991 0.078781
0.092371 0.267361 0.077336
0.106806 0.273392 0.076388
0.132946 0.287614 0.075338
0.229277 0.334379 0.080920
0.357444 0.388098 0.104295
0.470807 0.427617 0.135809
0.538040 0.418838 0.128780
0.563972 0.384447 0.115944
0.603311 0.393064 0.121908
0.635930 0.403141 0.126894
0.667508 0.415180 0.132383
0.697963 0.424697 0.135104
0.716073 0.430266 0.136155
0.725476 0.432665 0.136426
0.732145 0.432460 0.136224
0.733237 0.427060 0.135119
0.728343 0.412887 0.132344
0.711269 0.383635 0.125447
0.707120 0.372149 0.122124
0.713056 0.373656 0.122482
0.718783 0.374864 0.122722
0.724372 0.375810 0.122879
0.729918 0.376295 0.122834
0.734100 0.375436 0.122634
0.050286 0.275306 0.090168
0.053992 0.276830 0.088363
0.058366 0.278915 0.086484
0.062725 0.281171 0.084768
0.067129 0.283553 0.082865
0.071618 0.285961 0.080969
0.076492 0.288583 0.079121
0.082489 0.291654 0.077075
0.094711 0.296717 0.076045
0.109787 0.302800 0.075313
0.126434 0.310437 0.074443
0.164214 0.331280 0.074441
0.295620 0.389888 0.096274
0.432213 0.444961 0.128358
0.539413 0.479582 0.158750
0.593595 0.459791 0.145908
0.618765 0.429949 0.132977
0.654195 0.436136 0.136219
0.687127 0.443462 0.139435
0.714769 0.449100 0.140479
0.731855 0.454573 0.140966
0.742589 0.458098 0.141495
0.751024 0.459581 0.141774
0.754226 0.457060 0.141232
0.754084 0.450137 0.139721
0.747205 0.433733 0.136306
0.729266 0.401351 0.129300
0.723176 0.386298 0.125810
0.728996 0.387513 0.126100
0.734861 0.388320 0.126145
0.740694 0.389223 0.126229
0.745453 0.389114 0.126138
0.054287 0.301807 0.092995
0.057992 0.303380 0.091346
0.062244 0.305459 0.089289
0.066526 0.307570 0.087219
0.070863 0.309719 0.085549
0.075418 0.312162 0.083357
0.080194 0.315044 0.080769
0.086285 0.318422 0.078454
0.097968 0.323495 0.077453
0.113066 0.329652 0.076899
0.130073 0.336683 0.076146
0.149744 0.347197 0.075188
0.206931 0.374398 0.082914
0.360478 0.441557 0.113263
0.500269 0.496231 0.151910
0.595723 0.520450 0.177069
0.642635 0.494746 0.156915
0.667302 0.468152 0.145006
0.702260 0.471731 0.146376
0.730571 0.474667 0.145839
0.745984 0.477187 0.145349
0.757205 0.481510 0.145887
0.766264 0.484437 0.146309
0.770353 0.483253 0.146091
0.771823 0.477733 0.144929
0.770136 0.467388 0.142675
0.763095 0.449841 0.138952
0.745324 0.416477 0.132370
0.738515 0.399403 0.129104
0.744244 0.399925 0.128825
0.749651 0.400426 0.128782
0.754184 0.400156 0.128615
0.061427 0.325989 0.096343
0.064371 0.327206 0.095017
0.067747 0.328881 0.093544
0.071431 0.330819 0.091930
0.075244 0.332942 0.090277
0.079366 0.335279 0.088001
0.084140 0.338101 0.085284
0.089720 0.341603 0.082444
0.100319 0.346648 0.080696
0.114682 0.352545 0.079711
0.130652 0.359110 0.078786
0.150234 0.369320 0.078419
0.177676 0.383403 0.079577
0.253501 0.417465 0.092224
0.423851 0.489596 0.132177
0.560177 0.537550 0.172209
0.645039 0.552126 0.187238
0.683687 0.523444 0.163071
0.713064 0.502022 0.154038
0.746824 0.503335 0.151911
0.761907 0.504552 0.150770
0.771444 0.505780 0.150404
0.780715 0.508709 0.150698
0.786297 0.509388 0.150731
0.787713 0.504702 0.149643
0.786929 0.496410 0.147843
0.784534 0.484077 0.144973
0.778518 0.465335 0.140996
0.759820 0.429905 0.134332
0.751944 0.410563 0.130628
0.757407 0.411092 0.130445
0.761907 0.410705 0.130212
0.063968 0.348314 0.099297
0.067139 0.349557 0.098036
0.070211 0.350771 0.096958
0.073425 0.352367 0.096081
0.077100 0.354449 0.094765
0.081153 0.356857 0.092865
0.085776 0.360104 0.090267
0.090710 0.363689 0.087171
0.100753 0.368487 0.085287
0.115005 0.374335 0.084175
0.130359 0.380576 0.082785
0.149528 0.390303 0.081085
0.173683 0.402097 0.081363
0.201637 0.415134 0.083597
0.301031 0.457027 0.101195
0.482662 0.530761 0.151287
0.614288 0.572255 0.187798
0.685966 0.580459 0.196790
0.720620 0.549100 0.168775
0.754543 0.532112 0.159902
0.773261 0.530385 0.157579
0.781963 0.530141 0.156566
0.790034 0.530800 0.156145
0.795671 0.530327 0.155749
0.799029 0.527008 0.154615
0.801360 0.521997 0.152820
0.801961 0.514521 0.150472
0.799669 0.502105 0.147190
0.792811 0.481413 0.142812
0.773855 0.442760 0.135915
0.764725 0.421172 0.132021
0.769187 0.420964 0.131700
0.066614 0.367698 0.102629
0.069318 0.368890 0.101643
0.072037 0.370256 0.100775
0.074743 0.371726 0.100098
0.077755 0.373554 0.099251
0.081489 0.375907 0.097505
0.086187 0.378828 0.095264
0.091427 0.382100 0.092519
0.101719 0.386871 0.090722
0.115608 0.392738 0.089498
0.131626 0.399726 0.087691
0.150264 0.408454 0.085647
0.174098 0.419271 0.085457
0.201449 0.431883 0.085352
0.232471 0.445979 0.086155
0.347432 0.493871 0.111208
0.541835 0.570127 0.170733
0.658971 0.602916 0.201935
0.720345 0.605166 0.200907
0.755674 0.572108 0.170323
0.781329 0.557482 0.164140
0.791178 0.554437 0.162183
0.799611 0.554670 0.161276
0.805467 0.552874 0.160130
0.808321 0.548079 0.158740
0.810801 0.543681 0.157178
0.813315 0.538828 0.155426
0.814567 0.531424 0.153237
0.813318 0.519678 0.150117
0.807670 0.498526 0.145464
0.786971 0.454995 0.137440
0.774754 0.429854 0.133254
0.064464 0.382540 0.107079
0.067420 0.383474 0.105905
0.070350 0.384788 0.105045
0.073416 0.386548 0.104234
0.076322 0.388369 0.103539
0.079656 0.390604 0.102412
0.083766 0.393919 0.100268
0.088604 0.397789 0.097420
0.099021 0.402767 0.095745
0.113128 0.408745 0.094367
0.131185 0.415942 0.092159
0.151990 0.424380 0.089985
0.175061 0.434753 0.090127
0.199892 0.446664 0.090961
0.228160 0.459634 0.091704
0.261297 0.473722 0.091832
0.395858 0.529346 0.124062
0.594735 0.605785 0.191779
0.695131 0.629835 0.211509
0.753894 0.625807 0.202855
0.783773 0.593280 0.172540
0.796144 0.579486 0.167058
0.804299 0.576907 0.165182
0.810973 0.575106 0.163855
0.814709 0.570678 0.162207
0.817907 0.565420 0.160868
0.821387 0.559692 0.159307
0.824561 0.554744 0.157685
0.826749 0.548161 0.155543
0.826039 0.536524 0.152774
0.820261 0.515362 0.148393
0.797201 0.466357 0.138990
0.064754 0.397398 0.110009
0.066452 0.397983 0.109235
0.068725 0.399433 0.108954
0.071250 0.401123 0.108726
0.073704 0.402937 0.108594
0.076620 0.404985 0.108036
0.080939 0.408299 0.106125
0.086798 0.412479 0.103191
0.099288 0.418098 0.101606
0.114745 0.424600 0.099791
0.131533 0.431457 0.097248
0.150276 0.439063 0.094835
0.171666 0.448960 0.095296
0.195221 0.461001 0.095691
0.223736 0.474325 0.095344
0.253431 0.487463 0.094592
0.293500 0.502805 0.097131
0.443962 0.563652 0.141066
0.641900 0.637146 0.208969
0.735646 0.656307 0.222720
0.785578 0.646291 0.208960
0.799657 0.611617 0.176173
0.807567 0.600599 0.171659
0.814737 0.596774 0.169416
0.818873 0.592707 0.167577
0.822773 0.588137 0.165814
0.826754 0.583021 0.163907
0.830518 0.576939 0.161913
0.834109 0.570590 0.159857
0.836967 0.563820 0.157891
0.836759 0.552601 0.155287
0.830299 0.531720 0.151140
0.065853 0.409879 0.112486
0.067924 0.410609 0.111970
0.070164 0.412034 0.111767
0.072447 0.413796 0.111728
0.074794 0.415716 0.111733
0.077658 0.418216 0.111227
0.081306 0.421330 0.109604
0.085977 0.424649 0.107570
0.096624 0.429910 0.105523
0.110088 0.436577 0.103368
0.125164 0.443152 0.100946
0.144146 0.451110 0.098724
0.167021 0.461731 0.098521
0.190238 0.472565 0.098833
0.219709 0.485327 0.098146
0.249922 0.498248 0.097387
0.286989 0.512168 0.099315
0.325416 0.526907 0.103735
0.495222 0.596312 0.160329
0.684968 0.664774 0.223325
0.772522 0.680423 0.233969
0.808266 0.659350 0.207204
0.809680 0.624719 0.178776
0.817229 0.618053 0.175424
0.822245 0.614419 0.173514
0.826240 0.610763 0.171903
0.830649 0.606001 0.170020
0.834747 0.600314 0.167892
0.838665 0.594018 0.165661
0.842441 0.587006 0.163296
0.844943 0.579674 0.160923
0.844409 0.569225 0.158359
0.067251 0.423004 0.116049
0.069278 0.423507 0.115446
0.071800 0.424902 0.115421
0.074341 0.426605 0.115592
0.077077 0.428691 0.115920
0.080350 0.431454 0.115762
0.084095 0.434282 0.114710
0.088207 0.437076 0.113026
0.096150 0.441730 0.110286
0.105841 0.447424 0.107296
0.120478 0.453644 0.104312
0.139066 0.461290 0.102185
0.162182 0.471078 0.101739
0.187180 0.481916 0.101675
0.216687 0.494394 0.100848
0.247989 0.507939 0.099926
0.284140 0.521806 0.101438
0.317652 0.535055 0.104341
0.358884 0.551421 0.113280
0.546914 0.627281 0.179653
0.726982 0.689975 0.235524
0.806823 0.700900 0.242726
0.814340 0.658551 0.197381
0.818128 0.632922 0.180087
0.824352 0.628079 0.177463
0.828453 0.625399 0.176074
0.832613 0.622798 0.174796
0.836909 0.619952 0.173380
0.841639 0.616698 0.171830
0.846246 0.612210 0.169963
0.849489 0.606739 0.168021
0.850533 0.599646 0.165861
0.069434 0.435926 0.123294
0.071571 0.436503 0.122617
0.073902 0.437604 0.122404
0.076367 0.439026 0.122311
0.079328 0.440944 0.121970
0.082818 0.443426 0.121177
0.086482 0.445946 0.119842
0.090934 0.448655 0.117792
0.099405 0.453690 0.114853
0.109241 0.459197 0.111249
0.119475 0.464134 0.107380
0.136696 0.471360 0.104908
0.159600 0.480262 0.104528
0.185250 0.491345 0.103904
0.213752 0.503959 0.101989
0.245647 0.517776 0.100919
0.280071 0.531262 0.102503
0.313255 0.544813 0.106136
0.351059 0.559588 0.113552
0.393067 0.576271 0.125385
0.587509 0.654878 0.194604
0.765202 0.708034 0.243075
0.830493 0.711859 0.246048
0.820754 0.662019 0.194902
0.825460 0.643019 0.182274
0.830048 0.639105 0.180332
0.834255 0.635564 0.178675
0.838563 0.632463 0.177125
0.842722 0.629484 0.175659
0.847207 0.626965 0.174332
0.850873 0.625864 0.173566
0.853610 0.625417 0.173166
0.071682 0.447235 0.129963
0.073825 0.447750 0.129170
0.076372 0.449036 0.128764
0.079187 0.450720 0.128474
0.082447 0.452977 0.127714
0.085686 0.455153 0.126483
0.089137 0.457680 0.125363
0.094666 0.461083 0.123523
0.103746 0.466085 0.120498
0.113385 0.471303 0.116964
0.122959 0.476311 0.112985
0.138479 0.483405 0.108625
0.162639 0.492180 0.107603
0.185995 0.502441 0.106015
0.210902 0.514001 0.103155
0.243610 0.527802 0.102330
0.276123 0.540574 0.104374
0.309337 0.553824 0.108235
0.345568 0.568210 0.114978
0.384355 0.583659 0.125425
0.429663 0.602805 0.139247
0.625433 0.677210 0.207675
0.800697 0.718189 0.248709
0.841823 0.717475 0.246992
0.829122 0.669063 0.197152
0.831196 0.655403 0.185723
0.835582 0.651684 0.183929
0.839891 0.648129 0.182180
0.844003 0.644231 0.180352
0.848308 0.640642 0.178604
0.851619 0.639311 0.177814
0.854444 0.639963 0.177768
0.074594 0.459109 0.137262
0.076802 0.459676 0.136424
0.079647 0.461254 0.135784
0.082940 0.463367 0.134868
0.086036 0.465716 0.134094
0.089293 0.467993 0.133175
0.093054 0.471075 0.132735
0.099829 0.475014 0.130591
0.108664 0.479427 0.127317
0.117825 0.484176 0.123693
0.128556 0.489825 0.119184
0.144135 0.496487 0.114103
0.165829 0.504430 0.111289
0.187064 0.513466 0.108478
0.209921 0.524086 0.105657
0.241580 0.537376 0.104449
0.272811 0.550125 0.106817
0.305748 0.564599 0.109805
