apk/assets/luts/Lut16.cube
LUT_3D_SIZE 16
-0.002390 -0.003884 0.001056
-0.011569 -0.004030 0.003800
0.058099 0.016685 0.006340
0.192290 0.041500 0.007434
0.337250 0.048018 0.006709
0.447552 0.055282 0.005480
0.544314 0.061132 0.005808
0.641132 0.064879 0.005445
0.729333 0.078463 0.004945
0.776712 0.086302 0.004996
0.774858 0.086005 0.004994
0.774884 0.086006 0.004994
0.774884 0.086006 0.004994
0.774884 0.086006 0.004994
0.774843 0.086002 0.004994
0.776721 0.085964 0.004994
0.001644 -0.002658 0.002105
-0.010341 -0.013174 0.003430
0.028994 0.003944 0.005630
0.154880 0.037392 0.007731
0.314034 0.046962 0.006515
0.431868 0.052299 0.005006
0.530543 0.059498 0.005889
0.627841 0.062891 0.005545
0.719476 0.076567 0.004909
0.773813 0.085770 0.004966
0.775068 0.086034 0.004995
0.774884 0.086006 0.004994
0.774884 0.086006 0.004994
0.774884 0.086006 0.004994
0.774843 0.086002 0.004994
0.776721 0.085964 0.004994
0.006947 0.071339 0.006053
-0.002015 0.065433 0.005806
-0.006826 0.033418 0.010849
0.101498 0.060610 0.012792
0.233124 0.074278 0.018247
0.397699 0.080298 0.006727
0.527323 0.077005 0.004761
0.624358 0.072977 0.005547
0.708462 0.076283 0.004902
0.766132 0.081248 0.004897
0.773491 0.083546 0.004991
0.773552 0.084293 0.004994
0.773834 0.084820 0.004995
0.774133 0.085191 0.004995
0.774273 0.085464 0.004994
0.776307 0.085567 0.004994
0.004868 0.153302 0.025402
-0.005001 0.148213 0.023452
0.023723 0.144286 0.026157
0.069982 0.109974 0.032533
0.213423 0.135918 0.036760
0.388087 0.153426 0.030661
0.552275 0.157183 0.012328
0.669736 0.148794 0.004562
0.756462 0.141169 0.004182
0.815261 0.137653 0.004897
0.817414 0.124196 0.004931
0.805478 0.112219 0.004940
0.798296 0.105339 0.004929
0.790861 0.098139 0.004971
0.785295 0.093342 0.004982
0.783273 0.089814 0.004984
0.004618 0.248193 0.055134
-0.001279 0.243497 0.053875
-0.016082 0.240942 0.053809
0.071769 0.229889 0.059916
0.185159 0.214239 0.063397
0.379578 0.246294 0.046039
0.550118 0.259253 0.037596
0.684319 0.256066 0.024800
0.782062 0.243421 0.014072
0.851394 0.228965 0.007123
0.873074 0.212624 0.005566
0.863651 0.195575 0.005251
0.858111 0.184808 0.005038
0.851728 0.173598 0.004901
0.845272 0.164406 0.004948
0.841662 0.156149 0.004969
-0.008758 0.361202 0.078795
-0.008592 0.355805 0.077774
-0.015528 0.345499 0.075616
0.028654 0.364926 0.083261
0.183151 0.333772 0.111979
0.348366 0.346939 0.088185
0.533910 0.369473 0.040995
0.682731 0.369618 0.040413
0.785080 0.356913 0.031400
0.864341 0.339635 0.021544
0.906429 0.320903 0.015827
0.901461 0.300393 0.013697
0.897583 0.286395 0.012132
0.893214 0.270653 0.010432
0.888597 0.256779 0.009008
0.885901 0.243906 0.008060
0.052948 0.488880 0.106453
0.049456 0.483577 0.105110
0.043260 0.475246 0.102808
0.041695 0.475224 0.105912
0.179530 0.488519 0.114850
0.366213 0.470304 0.193552
0.514077 0.487141 0.110079
0.663502 0.483793 -0.007758
0.777085 0.472023 0.032916
0.863210 0.454222 0.029162
0.922533 0.434207 0.022320
0.925607 0.411942 0.021276
0.921977 0.395083 0.020776
0.918712 0.377557 0.020123
0.915501 0.361327 0.019395
0.914149 0.345151 0.018127
0.135545 0.603596 0.141399
0.132579 0.599734 0.140060
0.127728 0.593371 0.137866
0.117247 0.582933 0.133987
0.169311 0.603914 0.153064
0.334008 0.595615 0.158713
0.546238 0.582550 0.277874
0.651195 0.589442 0.126159
0.758668 0.581602 -0.041209
0.849472 0.562873 0.016206
0.922305 0.543114 0.022444
0.942423 0.522221 0.021507
0.939326 0.504503 0.021884
0.936785 0.486133 0.021972
0.934357 0.468209 0.022022
0.933656 0.449312 0.021884
0.206235 0.699209 0.174407
0.203870 0.695836 0.173206
0.200303 0.691175 0.171384
0.193604 0.682903 0.168123
0.208944 0.688351 0.177370
0.303504 0.700390 0.192278
0.488127 0.686018 0.222650
0.688339 0.671860 0.346610
0.753806 0.681866 0.142405
0.830080 0.673910 -0.055167
0.910549 0.650669 -0.020554
0.952511 0.627405 0.017184
0.949810 0.606646 0.017761
0.947719 0.586730 0.018946
0.945913 0.567588 0.020036
0.946359 0.547396 0.020861
0.269993 0.785766 0.206491
0.267732 0.782726 0.205322
0.264619 0.778597 0.203737
0.259704 0.771773 0.201210
0.256465 0.765470 0.199845
0.299882 0.787196 0.222705
0.440989 0.782045 0.228240
0.644815 0.761927 0.330880
0.793503 0.744781 0.412205
0.826636 0.760212 0.184210
0.890737 0.753102 -0.058925
0.952616 0.727619 0.032404
0.956704 0.706582 0.037676
0.955301 0.687023 0.028498
0.954076 0.666472 0.023364
0.954731 0.644371 0.017477
0.319979 0.860766 0.237058
0.318424 0.858277 0.235997
0.316399 0.855132 0.234598
0.313290 0.850152 0.232474
0.307792 0.842691 0.228904
0.332092 0.851146 0.242450
0.385128 0.870097 0.264903
0.551752 0.858492 0.269150
0.790044 0.830670 0.464033
0.869709 0.814855 0.495674
0.891019 0.832070 0.257169
0.940731 0.824811 -0.030775
0.961402 0.799320 0.074432
0.959751 0.778275 0.072260
0.958773 0.757087 0.062533
0.959952 0.734507 0.051776
0.357469 0.918810 0.264000
0.356194 0.916753 0.263067
0.354689 0.914538 0.261917
0.352359 0.911157 0.260222
0.348548 0.905942 0.257486
0.353009 0.903987 0.259414
0.397922 0.923077 0.286341
0.511184 0.926703 0.305433
0.650873 0.919872 0.317813
0.878051 0.883179 0.565900
0.919679 0.870759 0.571836
0.938109 0.890124 0.333892
0.963178 0.885466 0.160445
0.964301 0.866181 0.138652
0.962869 0.846000 0.113952
0.963868 0.821244 0.096378
0.356642 0.917343 0.263417
0.356682 0.917388 0.263454
0.356778 0.917531 0.263491
0.356890 0.917626 0.263558
0.356903 0.917802 0.263602
0.356351 0.917852 0.263240
0.396351 0.931897 0.289529
0.459155 0.940997 0.343295
0.611207 0.950597 0.338384
0.768102 0.936591 0.434393
0.925344 0.902696 0.648298
0.944596 0.901781 0.625860
0.960849 0.924166 0.405668
0.966858 0.920050 0.312593
0.966649 0.910753 0.258459
0.968161 0.894419 0.201846
0.356616 0.917320 0.263406
0.356616 0.917320 0.263406
0.356616 0.917320 0.263406
0.356616 0.917320 0.263406
0.356612 0.917376 0.263396
0.355536 0.916884 0.262719
0.379439 0.927059 0.276873
0.439855 0.938626 0.326329
0.573862 0.949148 0.345516
0.689870 0.952272 0.356243
0.901363 0.915487 0.618912
0.939493 0.907342 0.658772
0.953152 0.918800 0.579787
0.963938 0.932542 0.487315
0.963813 0.932150 0.483348
0.966990 0.928227 0.424695
0.356616 0.917320 0.263406
0.356616 0.917320 0.263406
0.356616 0.917320 0.263406
0.356616 0.917320 0.263406
0.356616 0.917320 0.263406
0.356055 0.917116 0.263044
0.367306 0.922455 0.269225
0.424334 0.936581 0.312385
0.527131 0.945732 0.350225
0.653563 0.953532 0.341586
0.852910 0.925011 0.545437
0.934266 0.906770 0.660007
0.949410 0.910940 0.629991
0.962355 0.930562 0.492557
0.963645 0.931812 0.487567
0.965762 0.931191 0.489072
0.361730 0.929051 0.267664
0.361754 0.929050 0.267662
0.361454 0.929048 0.267663
0.360206 0.929043 0.267665
0.357460 0.929037 0.267666
0.353204 0.928940 0.267518
0.354492 0.932106 0.270800
0.404094 0.947037 0.308115
0.479431 0.954945 0.359813
0.627557 0.964584 0.350193
0.791919 0.948073 0.473353
0.933363 0.919458 0.669466
0.950725 0.920597 0.660923
0.964775 0.939631 0.529415
0.969698 0.944987 0.494040
0.971887 0.944336 0.494832
-0.086532 -0.233924 -0.059522
-0.085693 -0.233925 -0.058709
-0.069167 -0.233793 -0.059489
0.184039 -0.232850 -0.059465
0.343850 -0.232385 -0.059532
0.457077 -0.232018 -0.059849
0.547634 -0.232909 -0.062605
0.645418 -0.235643 -0.070255
0.733338 -0.236608 -0.077655
0.779375 -0.235622 -0.088582
0.773049 -0.231537 -0.117940
0.768445 -0.225991 -0.145502
0.766069 -0.225885 -0.147237
0.765232 -0.229777 -0.128871
0.764822 -0.232295 -0.115068
0.766605 -0.232775 -0.112684
0.001793 -0.012895 0.006751
-0.007845 -0.010172 0.010108
0.033302 -0.002192 0.006720
0.156232 0.036873 0.008157
0.316977 0.046212 0.006803
0.432327 0.052136 0.005079
0.529945 0.059580 0.005916
0.627305 0.062918 0.005549
0.718983 0.076522 0.004909
0.773494 0.085726 0.004966
0.775090 0.086037 0.004995
0.774884 0.086006 0.004994
0.774884 0.086006 0.004994
0.774884 0.086006 0.004994
0.774843 0.086002 0.004994
0.776720 0.085964 0.004994
0.007746 0.059820 0.009246
-0.000580 0.058675 0.008593
-0.007596 0.033052 0.011251
0.100712 0.059379 0.012450
0.230875 0.072698 0.017725
0.395562 0.078328 0.006434
0.524689 0.075226 0.004792
0.621939 0.071672 0.005565
0.706317 0.075018 0.004889
0.765970 0.081352 0.004895
0.773557 0.083656 0.004992
0.773546 0.084383 0.004995
0.773910 0.084885 0.004995
0.774192 0.085233 0.004995
0.774292 0.085477 0.004994
0.776295 0.085565 0.004994
0.004819 0.151623 0.024784
-0.004863 0.146733 0.022899
0.022758 0.142885 0.025454
0.068035 0.108021 0.031896
0.210927 0.134049 0.036357
0.385579 0.151509 0.030374
0.550030 0.155090 0.011958
0.667683 0.146843 0.004421
0.754646 0.139337 0.004212
0.813261 0.135738 0.004863
0.816109 0.122646 0.004914
0.804174 0.110895 0.004924
0.797309 0.104231 0.004912
0.789976 0.097309 0.004965
0.785189 0.093071 0.004982
0.783668 0.090049 0.004984
0.004602 0.246518 0.054694
0.001072 0.242113 0.053512
-0.015926 0.238925 0.053265
0.070497 0.228888 0.059069
0.182822 0.212291 0.062910
0.376767 0.244105 0.046436
0.547875 0.257135 0.037364
0.682680 0.254090 0.024532
0.780738 0.241515 0.013830
0.850092 0.227158 0.006923
0.872434 0.211103 0.005495
0.862926 0.194164 0.005230
0.857580 0.183644 0.004999
0.851121 0.172647 0.004922
0.844792 0.163708 0.004962
0.841434 0.155792 0.004983
-0.008642 0.359426 0.078453
-0.008498 0.354359 0.077493
-0.015151 0.343979 0.075331
0.024584 0.362928 0.082804
0.180656 0.332030 0.110935
0.345861 0.344853 0.087844
0.531939 0.367538 0.041375
0.681277 0.367903 0.040408
0.783781 0.355241 0.031336
0.863276 0.337973 0.021459
0.906138 0.319290 0.015667
0.901045 0.298883 0.013514
0.897129 0.284824 0.011980
0.892878 0.269341 0.010298
0.888283 0.255748 0.008932
0.885775 0.243165 0.007962
0.051795 0.487109 0.105997
0.048508 0.482205 0.104737
0.042319 0.473758 0.102470
0.038757 0.472921 0.105052
0.176532 0.487009 0.114420
0.363177 0.468673 0.192028
0.512182 0.485487 0.109848
0.662163 0.482346 -0.004224
0.776042 0.470486 0.033084
0.862360 0.452666 0.029253
0.921964 0.432560 0.022323
0.925436 0.410457 0.021231
0.921728 0.393591 0.020726
0.918488 0.376170 0.020051
0.915278 0.360146 0.019310
0.913780 0.344184 0.018066
0.134503 0.602208 0.140945
0.131648 0.598508 0.139646
0.126835 0.592210 0.137468
0.116171 0.581637 0.133499
0.167160 0.602360 0.152406
0.331416 0.594298 0.157897
0.543904 0.581069 0.276650
0.649559 0.588160 0.125901
0.757685 0.580202 -0.041008
0.848649 0.561586 0.016652
0.921518 0.541811 0.022528
0.942192 0.521015 0.021535
0.939121 0.503347 0.021895
0.936640 0.484767 0.021974
0.934032 0.466951 0.021988
0.933472 0.448357 0.021884
0.205445 0.698039 0.174022
0.203111 0.694911 0.172829
0.199548 0.690064 0.171004
0.192886 0.681834 0.167756
0.207389 0.686841 0.176604
0.300988 0.699322 0.191844
0.486001 0.685032 0.221504
0.686583 0.670727 0.345953
0.752768 0.680842 0.141978
0.828994 0.672701 -0.055073
0.909980 0.649447 -0.020532
0.952476 0.626034 0.017208
0.949609 0.605381 0.017817
0.947735 0.585499 0.019013
0.945804 0.566503 0.020095
0.946139 0.546302 0.020907
0.269161 0.784650 0.206075
0.267093 0.781682 0.204993
0.263990 0.777551 0.203390
0.258999 0.771062 0.200818
0.255345 0.764232 0.199220
0.298586 0.785859 0.222056
0.438779 0.781114 0.227755
0.642346 0.761035 0.328751
0.792127 0.743919 0.411243
0.825759 0.759244 0.183546
0.889933 0.751858 -0.058939
0.952163 0.726751 0.031666
0.956616 0.705472 0.037124
0.955297 0.685833 0.028106
0.954002 0.665381 0.023043
0.954597 0.643322 0.017270
0.319496 0.859811 0.236721
0.317926 0.857391 0.235633
0.315913 0.854293 0.234220
0.312830 0.849380 0.232100
0.307305 0.841935 0.228624
0.330923 0.849986 0.241730
0.383567 0.869129 0.264371
0.550049 0.857535 0.268557
0.788585 0.829845 0.462561
0.868780 0.813944 0.494438
0.890278 0.831018 0.255914
0.940444 0.823533 -0.033399
0.961268 0.798457 0.073691
0.959725 0.777167 0.071757
0.958693 0.756101 0.062124
0.959841 0.733518 0.051268
0.357030 0.918033 0.263697
0.355754 0.916092 0.262743
0.354239 0.913789 0.261610
0.351995 0.910512 0.259929
0.348125 0.905153 0.257202
0.352368 0.903126 0.258970
0.397071 0.922352 0.285672
0.509139 0.926186 0.304998
0.649425 0.919260 0.317048
0.876859 0.882489 0.564422
0.919176 0.869965 0.570771
0.937725 0.889505 0.332825
0.962737 0.884485 0.158385
0.964286 0.865240 0.137067
0.962869 0.844957 0.113110
0.963855 0.820281 0.095718
0.356649 0.917328 0.263437
0.356714 0.917437 0.263462
0.356790 0.917492 0.263511
0.356919 0.917673 0.263577
0.356909 0.917762 0.263614
0.356139 0.917691 0.263143
0.395758 0.931867 0.289015
0.458131 0.941063 0.342488
0.610042 0.950584 0.338062
0.766206 0.936610 0.432053
0.924896 0.902505 0.647511
0.944274 0.901399 0.625322
0.960552 0.923986 0.404643
0.966865 0.919883 0.310106
0.966651 0.910240 0.256023
0.968193 0.893755 0.200083
0.356616 0.917320 0.263406
0.356616 0.917320 0.263406
0.356616 0.917320 0.263406
0.356616 0.917320 0.263406
0.356615 0.917378 0.263398
0.355510 0.916897 0.262736
0.378979 0.926832 0.276552
0.439187 0.938343 0.325784
0.572187 0.949154 0.345554
0.688747 0.952352 0.355683
0.899709 0.915723 0.616776
0.939483 0.907459 0.658874
0.953109 0.918407 0.581642
0.963989 0.932531 0.486915
0.963869 0.931956 0.480290
0.967093 0.928108 0.421495
0.356616 0.917320 0.263406
0.356616 0.917320 0.263406
0.356616 0.917320 0.263406
0.356616 0.917320 0.263406
0.356616 0.917320 0.263406
0.356076 0.917122 0.263045
0.367120 0.922513 0.269127
0.423817 0.936384 0.311964
0.525335 0.945800 0.350338
0.652691 0.953578 0.341598
0.850314 0.925599 0.541395
0.933872 0.906670 0.660164
0.949378 0.910721 0.630703
0.962265 0.930519 0.493357
0.963554 0.931739 0.487592
0.965845 0.931194 0.489196
0.361727 0.929050 0.267624
0.361715 0.929050 0.267610
0.361434 0.929049 0.267609
0.360151 0.929045 0.267636
0.356993 0.929041 0.267683
0.351721 0.928951 0.267511
0.351648 0.931970 0.270655
0.401432 0.947039 0.307733
0.476401 0.954923 0.360033
0.626180 0.964559 0.350227
0.789227 0.948553 0.470286
0.933195 0.919460 0.669535
0.950476 0.920646 0.661072
0.964440 0.939264 0.531111
0.969683 0.944998 0.494005
0.971868 0.944333 0.494832
-0.086441 -0.233895 -0.051787
-0.086724 -0.233901 -0.053981
-0.038921 -0.233858 -0.031705
0.173688 -0.233269 -0.059036
0.352138 -0.232761 -0.057884
0.485833 -0.232727 -0.058464
0.592611 -0.234286 -0.061906
0.682237 -0.237249 -0.070051
0.749706 -0.238281 -0.077608
0.787290 -0.236130 -0.088316
0.777469 -0.231600 -0.117615
0.771571 -0.225964 -0.145390
0.768111 -0.225788 -0.147328
0.766286 -0.229712 -0.129058
0.765393 -0.232257 -0.115176
0.766962 -0.232760 -0.112688
0.006278 0.010418 0.032643
-0.015747 -0.003670 0.028021
0.071889 0.004436 0.052659
0.159419 0.030670 0.009995
0.331639 0.041434 0.018310
0.466162 0.044414 0.015907
0.570268 0.047351 0.012122
0.659908 0.050537 0.007867
0.728694 0.071355 0.006606
0.777339 0.085546 0.006047
0.777112 0.086261 0.005491
0.775881 0.086078 0.005200
0.775090 0.086015 0.005013
0.774786 0.085998 0.004981
0.774795 0.085998 0.004988
0.776756 0.085961 0.004990
0.006339 0.037110 0.034855
-0.011732 0.030121 0.030346
0.048944 0.056874 0.051176
0.086500 0.049121 0.025320
0.238322 0.068674 0.025597
0.407470 0.072072 0.014853
0.539504 0.064351 0.007968
0.628941 0.064658 0.006408
0.704823 0.073425 0.005427
0.765951 0.081671 0.004990
0.773593 0.083858 0.004963
0.773599 0.084495 0.004983
0.773888 0.084951 0.004992
0.774188 0.085244 0.004995
0.774201 0.085428 0.004994
0.776219 0.085474 0.004994
0.002749 0.104119 0.057987
-0.007675 0.100114 0.053226
0.020738 0.128645 0.051537
0.066502 0.106307 0.040625
0.210525 0.130213 0.043004
0.383490 0.147467 0.033046
0.546123 0.150486 0.012067
0.662907 0.142392 0.004205
0.750468 0.135343 0.004246
0.810028 0.132272 0.004819
0.813716 0.119989 0.004923
0.802023 0.108711 0.004918
0.795993 0.102856 0.004916
0.790028 0.097167 0.004952
0.786351 0.094086 0.004982
0.785994 0.092409 0.004983
0.005119 0.233739 0.072424
0.003318 0.230380 0.068551
-0.015729 0.230785 0.061536
0.069012 0.228981 0.059334
0.178603 0.208626 0.062495
0.371021 0.239514 0.047108
0.543936 0.253110 0.036851
0.679770 0.250069 0.023951
0.778266 0.237662 0.013317
0.847813 0.223634 0.006560
0.871073 0.208358 0.005415
0.861787 0.191926 0.005171
0.856705 0.182054 0.004979
0.850895 0.172300 0.004903
0.845298 0.164452 0.004983
0.842871 0.157835 0.004997
-0.008492 0.355977 0.077348
-0.008375 0.351063 0.076451
-0.014452 0.341135 0.074528
-0.003063 0.359220 0.082003
0.175965 0.328909 0.108933
0.341291 0.340986 0.087186
0.528546 0.364002 0.042013
0.678903 0.364629 0.040367
0.781878 0.352130 0.031170
0.861790 0.335030 0.021298
0.905433 0.316684 0.015371
0.900605 0.296672 0.013273
0.896747 0.283006 0.011821
0.892474 0.268554 0.010258
0.888575 0.255891 0.008909
0.886363 0.244531 0.008070
0.049619 0.483766 0.105148
0.046565 0.479303 0.103971
0.040777 0.471307 0.101834
0.032132 0.468482 0.103420
0.170903 0.484615 0.113781
0.358037 0.465610 0.189759
0.509008 0.482926 0.109405
0.659896 0.479822 0.007997
0.774440 0.467777 0.033331
0.860885 0.450080 0.029359
0.921265 0.430160 0.022299
0.925085 0.408380 0.021169
0.921485 0.391881 0.020654
0.918283 0.375184 0.019982
0.915037 0.359765 0.019250
0.914073 0.344770 0.018115
0.132821 0.599986 0.140169
0.129915 0.596163 0.138859
0.125498 0.590393 0.136868
0.114273 0.579455 0.132649
0.163423 0.599785 0.151273
0.327114 0.592413 0.156584
0.540299 0.579088 0.274944
0.647126 0.586249 0.125530
0.756178 0.578231 -0.040753
0.847536 0.559642 0.017228
0.920742 0.540006 0.022654
0.942122 0.519256 0.021578
0.939025 0.501733 0.021900
0.936416 0.483651 0.021981
0.933841 0.466212 0.022010
0.933489 0.448436 0.021932
0.204193 0.696441 0.173366
0.201699 0.693036 0.172125
0.198540 0.688661 0.170501
0.191894 0.680433 0.167257
0.204846 0.684498 0.175363
0.297056 0.697818 0.191218
0.481907 0.683606 0.219015
0.684351 0.669378 0.345108
0.751301 0.679326 0.141460
0.827983 0.671159 -0.054968
0.909188 0.647699 -0.020503
0.952231 0.624436 0.017223
0.949368 0.603750 0.017864
0.947677 0.584439 0.019080
0.945926 0.565701 0.020120
0.946103 0.546219 0.020911
0.268146 0.783101 0.205526
0.265933 0.780188 0.204426
0.262945 0.776120 0.202861
0.257968 0.769571 0.200264
0.253752 0.762488 0.198535
0.296628 0.783811 0.220905
0.435969 0.779823 0.226992
0.638800 0.759845 0.325665
0.790612 0.742727 0.409954
0.824613 0.757964 0.182787
0.888992 0.750649 -0.058947
0.951751 0.725303 0.030601
0.956706 0.703990 0.036586
0.955234 0.684809 0.027870
0.953897 0.664548 0.022795
0.954563 0.642747 0.017246
0.318764 0.858778 0.236222
0.317166 0.856261 0.235132
0.315253 0.853233 0.233830
0.312146 0.848227 0.231688
0.306573 0.840730 0.228136
0.329421 0.848373 0.240814
0.381442 0.868001 0.263731
0.547897 0.856444 0.267891
0.786318 0.828744 0.460350
0.867658 0.812807 0.493025
0.889153 0.829904 0.254210
0.939728 0.822389 -0.035811
0.961156 0.797181 0.072823
0.959604 0.776011 0.071238
0.958611 0.755307 0.061757
0.959814 0.732885 0.050911
0.356471 0.917326 0.263290
0.355196 0.915320 0.262311
0.353770 0.912990 0.261183
0.351448 0.909644 0.259586
0.347609 0.904381 0.256809
0.351454 0.902263 0.258387
0.395939 0.921270 0.284866
0.507043 0.925302 0.304422
0.647910 0.918529 0.316159
0.875383 0.881827 0.562513
0.918488 0.868965 0.569427
0.937069 0.888704 0.331553
0.962548 0.883631 0.155910
0.964424 0.863999 0.135458
0.962941 0.843936 0.112405
0.963862 0.819474 0.095239
0.356681 0.917386 0.263452
0.356730 0.917462 0.263459
0.356812 0.917551 0.263537
0.356932 0.917733 0.263607
0.356891 0.917815 0.263630
0.355909 0.917357 0.262974
0.395150 0.931538 0.288568
0.457105 0.940903 0.341540
0.608699 0.950440 0.337617
0.763837 0.936638 0.429263
0.924478 0.902285 0.646477
0.943984 0.901076 0.624288
0.960454 0.923479 0.403379
0.966914 0.919439 0.307208
0.966653 0.909714 0.253235
0.968058 0.893168 0.198260
0.356616 0.917320 0.263406
0.356616 0.917320 0.263406
0.356616 0.917320 0.263406
0.356616 0.917321 0.263406
0.356606 0.917321 0.263401
0.355533 0.916915 0.262750
0.378828 0.926827 0.276448
0.438641 0.938380 0.325332
0.570990 0.949172 0.345592
0.687753 0.952462 0.355626
0.898157 0.916014 0.614327
0.939283 0.907436 0.659052
0.952922 0.918194 0.583606
0.963912 0.932510 0.486417
0.963853 0.931767 0.475936
0.967149 0.927821 0.417417
0.356616 0.917320 0.263406
0.356616 0.917320 0.263406
0.356616 0.917320 0.263406
0.356616 0.917320 0.263406
0.356616 0.917320 0.263406
0.356067 0.917120 0.263039
0.367511 0.922592 0.269370
0.423730 0.936377 0.311897
0.524941 0.945713 0.349910
0.651816 0.953518 0.341531
0.848600 0.926035 0.538309
0.933912 0.906856 0.660235
0.949126 0.910640 0.631445
0.962209 0.930201 0.494369
0.963558 0.931757 0.487657
0.965842 0.931208 0.489308
0.361696 0.929047 0.267199
0.361702 0.929048 0.267231
0.361379 0.929048 0.267131
0.360322 0.929048 0.267099
0.357512 0.929045 0.267370
0.352082 0.928954 0.267397
0.351207 0.932019 0.270548
0.400544 0.947027 0.307947
0.475851 0.954946 0.358835
0.623900 0.964550 0.350242
0.786689 0.948925 0.468949
0.931935 0.919656 0.669542
0.949466 0.920708 0.661181
0.963485 0.939267 0.532892
0.968828 0.945122 0.493987
0.971173 0.944472 0.494831
-0.085973 -0.233547 0.094583
-0.085702 -0.233613 0.085222
-0.081874 -0.233632 0.078039
0.185855 -0.233702 0.136488
0.315012 -0.233275 -0.051219
0.475272 -0.233196 -0.037021
0.598843 -0.234710 -0.034831
0.697288 -0.237941 -0.054097
0.774505 -0.240606 -0.069781
0.821811 -0.240655 -0.084971
0.815346 -0.236623 -0.116429
0.810090 -0.231127 -0.144933
0.806764 -0.230846 -0.147220
0.802596 -0.234242 -0.129102
0.797747 -0.236210 -0.115149
0.795175 -0.236113 -0.112586
0.012643 0.029422 0.096851
0.011724 0.024869 0.092353
-0.010927 0.020179 0.083349
0.177482 0.018060 0.131536
0.297247 0.030814 0.027579
0.456728 0.037883 0.049737
0.580038 0.041843 0.053708
0.679360 0.043903 0.048482
0.758444 0.050188 0.038606
0.813429 0.056336 0.029089
0.814202 0.056794 0.020772
0.812409 0.057534 0.015985
0.811028 0.058267 0.012249
0.807629 0.061103 0.009824
0.803094 0.065219 0.008906
0.800931 0.069053 0.008449
-0.002418 0.062370 0.094436
-0.006470 0.057423 0.089653
-0.029533 0.049281 0.080672
0.140506 0.064029 0.128753
0.225249 0.060139 0.045129
0.412577 0.065882 0.049721
0.553758 0.055150 0.044796
0.660451 0.046386 0.036299
0.740151 0.044580 0.025454
0.803914 0.050691 0.016511
0.808311 0.056941 0.011629
0.802796 0.063252 0.009605
0.798494 0.068489 0.008669
0.793195 0.074236 0.007742
0.790071 0.077171 0.007510
0.790265 0.078134 0.007309
0.000761 0.113768 0.108222
-0.002918 0.109017 0.103633
-0.026127 0.104790 0.098394
0.113136 0.142946 0.128577
0.204694 0.126621 0.091131
0.387906 0.141257 0.080149
0.555118 0.142911 0.058684
0.670953 0.134021 0.039300
0.758972 0.123275 0.023362
0.821754 0.117329 0.013781
0.824018 0.109823 0.009511
0.810532 0.101279 0.008042
0.804675 0.097487 0.007362
0.798885 0.094119 0.006889
0.795983 0.092542 0.006745
0.797948 0.092681 0.006727
-0.000717 0.185204 0.141079
-0.000954 0.180459 0.137074
-0.017701 0.172369 0.130752
0.049351 0.229000 0.126606
0.173707 0.213569 0.109375
0.376237 0.235444 0.098534
0.549071 0.248041 0.072009
0.682272 0.245725 0.044328
0.779247 0.234995 0.023762
0.847844 0.220806 0.011547
0.871463 0.205506 0.007396
0.861558 0.189234 0.005685
0.857287 0.181367 0.005487
0.852652 0.173478 0.005492
0.848840 0.167699 0.005486
0.848046 0.163627 0.005571
-0.009381 0.318630 0.161797
-0.009153 0.315008 0.156633
-0.012312 0.307619 0.146083
-0.034874 0.340172 0.138365
0.161602 0.337969 0.127025
0.337414 0.340232 0.107413
0.528601 0.361906 0.058363
0.676999 0.361343 0.044793
0.779831 0.348201 0.032786
0.859724 0.331254 0.021751
0.904417 0.313289 0.015288
0.899802 0.293984 0.013154
0.896221 0.281320 0.011791
0.892475 0.268639 0.010289
0.889167 0.257855 0.009047
0.888123 0.248742 0.008348
0.033211 0.478843 0.136978
0.032201 0.474814 0.132365
0.031185 0.467552 0.122865
-0.006044 0.462767 0.114716
0.159645 0.481681 0.118197
0.348755 0.461581 0.188393
0.504281 0.479446 0.109878
0.656523 0.476289 0.014303
0.771761 0.463709 0.033615
0.858730 0.446239 0.029480
0.919898 0.426673 0.022266
0.924508 0.405623 0.021064
0.921040 0.389952 0.020562
0.918034 0.374465 0.019928
0.915252 0.360833 0.019240
0.914611 0.347685 0.018474
0.129090 0.597268 0.142469
0.126315 0.593302 0.140693
