apk/assets/luts/Lut12.cube
# Copyright: (C) Copyright 2016 by IWLTBAP
# Cannot be resold, shared or otherwise redistributed
# Website: http://luts.iwltbap.com
TITLE "IWLTBAP 9380 (LOG)"
LUT_3D_SIZE 5
DOMAIN_MIN 0.000000 0.000000 0.000000
DOMAIN_MAX 0.903226 0.903226 0.903226
0.041382 0.045502 0.046692
0.129700 0.063894 0.043210
0.352448 0.113256 0.050106
0.541124 0.205410 0.083739
0.629080 0.267154 0.101512
0.043731 0.096550 0.055704
0.131955 0.108491 0.050010
0.392466 0.166060 0.053994
0.565709 0.234188 0.089326
0.652544 0.295797 0.105906
0.041900 0.219834 0.081034
0.077940 0.233983 0.075957
0.503024 0.336072 0.093513
0.706700 0.404653 0.130712
0.707156 0.359816 0.119437
0.064464 0.382540 0.107079
0.088604 0.397789 0.097420
0.228160 0.459634 0.091704
0.796144 0.579486 0.167058
0.826749 0.548161 0.155543
0.078452 0.471540 0.143626
0.105083 0.488661 0.138220
0.212052 0.537177 0.111983
0.453920 0.634077 0.149329
0.846222 0.678384 0.193916
0.036909 0.069729 0.113606
0.094421 0.064611 0.117009
0.352634 0.132476 0.079348
0.545353 0.205108 0.103537
0.634934 0.264767 0.118367
0.038981 0.094876 0.108173
0.100714 0.101274 0.108032
0.376777 0.151119 0.076701
0.565977 0.233006 0.106381
0.657166 0.291232 0.123107
0.041001 0.223497 0.124664
0.070797 0.228005 0.111488
0.489198 0.332558 0.113423
0.708864 0.398263 0.148553
0.702599 0.344277 0.134262
0.068603 0.387015 0.148157
0.091252 0.397851 0.134332
0.183620 0.437068 0.111543
0.802789 0.585767 0.189728
0.833200 0.556276 0.179492
0.084298 0.480976 0.187071
0.104002 0.488786 0.170586
0.182372 0.521466 0.143538
0.405708 0.620274 0.149470
0.850830 0.685917 0.215705
0.041398 0.144941 0.260525
0.065201 0.144691 0.249430
0.237168 0.170486 0.231141
0.593721 0.270911 0.214304
0.690421 0.280533 0.184721
0.040966 0.167354 0.264637
0.063106 0.169495 0.267928
0.248497 0.210985 0.242399
0.635161 0.321130 0.236610
0.714558 0.316912 0.185101
0.041442 0.227699 0.277314
0.063324 0.242172 0.283911
0.310997 0.362781 0.365061
0.707346 0.379773 0.250865
0.711740 0.337737 0.165247
0.127220 0.478259 0.394836
0.126305 0.457500 0.337258
0.134789 0.440880 0.273399
0.803679 0.601189 0.226558
0.841926 0.566855 0.207672
0.115593 0.523546 0.313446
0.114959 0.510691 0.263709
0.150479 0.525006 0.211238
0.342675 0.597780 0.184971
0.856799 0.692404 0.238870
0.070008 0.281873 0.435574
0.087784 0.286056 0.431522
0.138261 0.290012 0.408358
0.589676 0.363973 0.480808
0.736090 0.318382 0.432697
0.073225 0.303626 0.445769
0.090896 0.308473 0.449226
0.137711 0.310826 0.422655
0.615518 0.406415 0.501110
0.772231 0.360833 0.450558
0.081553 0.341447 0.464253
0.097792 0.342488 0.464566
0.136095 0.347136 0.469884
0.645518 0.449612 0.536688
0.810393 0.422895 0.506384
0.121686 0.438026 0.511157
0.147697 0.453931 0.518713
0.179037 0.474957 0.530349
0.785505 0.774674 0.739882
0.898597 0.726972 0.698545
0.227564 0.626163 0.618706
0.255103 0.657486 0.627519
0.273080 0.673140 0.616189
0.277316 0.666046 0.582465
0.894189 0.758792 0.371984
0.092543 0.348184 0.519734
0.110208 0.352476 0.522679
0.134381 0.358184 0.522903
0.470654 0.439340 0.684488
0.756570 0.388600 0.674372
0.100695 0.373255 0.537190
0.119365 0.380290 0.543398
0.139662 0.383498 0.542975
0.481703 0.477934 0.701873
0.783947 0.435736 0.699509
0.111246 0.399333 0.552885
0.126347 0.399450 0.557220
0.143133 0.402801 0.562331
0.503644 0.517639 0.730621
0.811870 0.489284 0.729636
0.143033 0.472458 0.589328
0.162410 0.478513 0.598070
0.185754 0.489024 0.609907
0.554888 0.649172 0.804613
0.840761 0.552362 0.762559
0.193173 0.561842 0.634765
0.221792 0.580399 0.649450
0.251585 0.598868 0.665778
0.283996 0.625363 0.688642
0.907404 0.905329 0.882530
