apk/assets/luts/Lut13.cube
LUT_3D_SIZE 16
-0.010242 -0.006237 -0.000666
0.044090 -0.006904 -0.001209
0.123051 0.025083 0.010859
0.215762 0.042837 0.029470
0.328982 0.050840 0.037032
0.450620 0.061161 0.057674
0.572249 0.074858 0.077025
0.689951 0.087214 0.096075
0.803660 0.111842 0.115539
0.891060 0.132719 0.133669
0.918189 0.137724 0.140298
0.930976 0.139356 0.143332
0.942885 0.143241 0.146864
0.952966 0.151453 0.151100
0.961799 0.157091 0.153573
0.984356 0.160481 0.154872
-0.007534 0.023589 0.000897
0.001805 0.024042 -0.002142
0.105440 0.037338 0.005056
0.205580 0.049348 0.019617
0.319736 0.056612 0.025058
0.445562 0.066174 0.049393
0.563989 0.081930 0.071786
0.679359 0.100153 0.094059
0.793647 0.122349 0.114650
0.886176 0.143804 0.131466
0.919625 0.152040 0.139551
0.932596 0.153376 0.142709
0.944324 0.157094 0.146223
0.954355 0.163866 0.149544
0.963121 0.170440 0.152896
0.985660 0.173933 0.154520
-0.003732 0.068273 0.007653
-0.014635 0.067759 0.007869
0.074111 0.073101 0.012491
0.170279 0.082806 0.015526
0.297269 0.088311 0.009106
0.441426 0.087582 0.016273
0.562257 0.096834 0.054221
0.669584 0.109391 0.084743
0.780208 0.130878 0.109691
0.875782 0.154912 0.129784
0.920785 0.167471 0.140582
0.933728 0.168167 0.143317
0.945343 0.172201 0.146653
0.955457 0.178283 0.150180
0.964541 0.184825 0.153487
0.986439 0.188306 0.155425
-0.001680 0.113939 0.015927
-0.008284 0.113549 0.015567
0.020591 0.115555 0.017443
0.127996 0.125325 0.022867
0.257082 0.134734 0.016796
0.404701 0.141891 0.006486
0.550902 0.149856 0.020703
0.683087 0.153401 0.050115
0.793522 0.167339 0.079486
0.879584 0.187060 0.112245
0.930107 0.200817 0.133209
0.939239 0.198440 0.140430
0.949101 0.200623 0.145628
0.958390 0.203179 0.150377
0.966806 0.205902 0.154133
0.988265 0.208574 0.156207
-0.001721 0.167255 0.024003
0.003657 0.166860 0.023029
-0.014780 0.164809 0.021298
0.062740 0.171935 0.018460
0.206786 0.187142 0.026189
0.360768 0.196525 0.020459
0.516789 0.204878 0.010936
0.659892 0.212510 0.034757
0.795077 0.219630 0.044858
0.889947 0.230960 0.065044
0.948644 0.247199 0.098730
0.958353 0.246522 0.110976
0.965306 0.247239 0.118013
0.971706 0.248677 0.124391
0.976496 0.251107 0.130890
0.997592 0.253154 0.133966
-0.001283 0.231435 0.040374
0.004375 0.231594 0.039439
-0.007061 0.229102 0.037841
-0.022318 0.229032 0.031269
0.127760 0.243100 0.028080
0.308348 0.263636 0.038126
0.475333 0.268533 0.026321
0.628122 0.273876 0.025021
0.771025 0.283528 0.037723
0.880909 0.293428 0.040673
0.956887 0.301677 0.062304
0.971236 0.302183 0.076390
0.976392 0.302304 0.085358
0.981970 0.303314 0.093140
0.985880 0.305977 0.101078
1.005405 0.308855 0.105750
-0.001160 0.308032 0.056125
0.005370 0.308499 0.055734
0.009440 0.306370 0.054740
-0.008199 0.302586 0.051584
-0.026614 0.308203 0.037300
0.220758 0.333125 0.041777
0.421655 0.349554 0.049336
0.590067 0.347518 0.035032
0.740463 0.351176 0.020556
0.860503 0.360827 0.027557
0.949100 0.368432 0.045723
0.974623 0.371833 0.057733
0.980657 0.370673 0.063644
0.985188 0.372109 0.070756
0.988361 0.375936 0.079066
1.008824 0.379756 0.084494
-0.000620 0.389392 0.067116
0.006438 0.390745 0.066373
0.011305 0.389839 0.065319
0.013959 0.385307 0.063037
0.016057 0.382565 0.050763
0.091979 0.400585 0.042977
0.348350 0.429595 0.055278
0.538879 0.436881 0.055399
0.702320 0.428423 0.033075
0.837448 0.429840 0.019014
0.933384 0.442202 0.026049
0.974882 0.453296 0.038479
0.981391 0.451118 0.046073
0.985671 0.451824 0.053357
0.989577 0.453597 0.060728
1.011455 0.456402 0.065173
0.002669 0.484618 0.076487
0.007900 0.485944 0.074452
0.012993 0.485875 0.072070
0.017088 0.483307 0.070319
0.028046 0.476807 0.063204
0.015544 0.481872 0.047885
0.200969 0.509573 0.047819
0.472932 0.534697 0.054120
0.652077 0.536492 0.059345
0.809681 0.518597 0.041885
0.914472 0.521510 0.021532
0.973233 0.534463 0.024947
0.982514 0.532131 0.032543
0.987678 0.530587 0.039992
0.991784 0.530688 0.049585
1.014199 0.532581 0.057646
0.004500 0.582587 0.095096
0.009713 0.583728 0.094344
0.014741 0.583760 0.093027
0.019430 0.581538 0.091124
0.025737 0.576580 0.085150
0.045908 0.571836 0.057164
0.021210 0.588890 0.046691
0.350875 0.617145 0.061969
0.594748 0.641636 0.072751
0.773599 0.633503 0.064989
0.893391 0.612275 0.041879
0.968606 0.611191 0.045034
0.985840 0.611123 0.055833
0.990832 0.607954 0.059549
0.993958 0.608125 0.065082
1.016713 0.610472 0.070205
0.006392 0.670934 0.104092
0.011518 0.671896 0.103602
0.016457 0.671735 0.102875
0.021363 0.670235 0.101398
0.025114 0.667415 0.099876
0.043524 0.661934 0.079726
0.060748 0.670736 0.058397
0.184978 0.697656 0.066999
0.501323 0.722675 0.071930
0.732767 0.744026 0.076348
0.868174 0.725761 0.089736
0.955663 0.704623 0.084473
0.988560 0.695794 0.081265
0.992813 0.692187 0.082078
0.995465 0.691276 0.083961
1.018754 0.692484 0.086390
0.008088 0.744442 0.112589
0.013137 0.745022 0.112394
0.018032 0.744915 0.111716
0.022898 0.743782 0.110473
0.027430 0.741315 0.108348
0.035955 0.738742 0.101586
0.065191 0.741910 0.084179
0.064559 0.760704 0.075391
0.396106 0.782830 0.068512
0.660507 0.805911 0.094623
0.838810 0.813262 0.116774
0.936106 0.792858 0.108590
0.985660 0.778270 0.098903
0.992395 0.771647 0.099771
0.995504 0.766615 0.102225
1.019382 0.765126 0.104262
0.009056 0.781887 0.124295
0.014192 0.783580 0.124215
0.019176 0.785069 0.123565
0.024109 0.786405 0.122556
0.029084 0.787103 0.121241
0.032431 0.787424 0.120568
0.058123 0.790620 0.107030
0.074313 0.803945 0.082000
0.256923 0.823848 0.083370
0.560435 0.843993 0.107447
0.782273 0.863005 0.127334
0.908317 0.856356 0.126040
0.978310 0.841105 0.117280
0.992167 0.835660 0.119457
0.995568 0.831365 0.121611
1.019814 0.829360 0.124002
0.009435 0.791308 0.127715
0.014596 0.793205 0.127714
0.019612 0.794608 0.127465
0.024594 0.796193 0.127027
0.029572 0.797525 0.126147
0.033718 0.798842 0.125934
0.049056 0.801474 0.119951
0.080680 0.813558 0.090655
0.147323 0.833126 0.084618
0.472704 0.854286 0.108833
0.708220 0.876946 0.123644
0.869541 0.893015 0.136930
0.961284 0.881140 0.135652
0.993046 0.878723 0.135386
0.995848 0.877331 0.138258
1.020077 0.875601 0.140888
0.009795 0.801077 0.131787
0.014820 0.802284 0.131015
0.019779 0.803762 0.131117
0.024708 0.805095 0.131030
0.029733 0.806754 0.131199
0.034326 0.808097 0.131273
0.043542 0.809834 0.127921
0.078860 0.819189 0.097009
0.104623 0.836361 0.085960
0.413052 0.855815 0.104405
0.660166 0.877802 0.120239
0.834668 0.896252 0.138554
0.943541 0.891634 0.140681
0.991380 0.886685 0.137739
0.995902 0.889193 0.142991
1.019953 0.888828 0.145468
0.008316 0.822484 0.139064
-0.013447 0.823156 0.138363
-0.030454 0.824248 0.137860
-0.051232 0.825408 0.137375
-0.076421 0.826912 0.137279
-0.104692 0.828581 0.137475
-0.133780 0.830668 0.134116
-0.158251 0.839118 0.097853
-0.174196 0.854689 0.079117
0.360263 0.873453 0.104175
0.628824 0.894477 0.119117
0.814229 0.913678 0.139760
0.936880 0.917041 0.145190
0.991450 0.909925 0.141751
0.997048 0.911893 0.147065
1.021511 0.912322 0.149645
-0.008690 -0.199881 0.058363
0.046981 -0.200058 0.054808
0.130798 -0.200136 0.023462
0.217872 -0.199521 0.023122
0.331084 -0.199131 0.030478
0.457023 -0.198591 0.054594
0.581130 -0.197738 0.077323
0.699546 -0.198297 0.097910
0.813534 -0.196588 0.114514
0.899103 -0.195697 0.127247
0.924207 -0.200936 0.132631
0.934021 -0.206359 0.135123
0.943063 -0.208701 0.137738
0.951493 -0.207337 0.140027
0.959715 -0.205079 0.142027
0.982555 -0.203393 0.142340
-0.007336 0.029177 0.047133
-0.016823 0.027590 0.039623
0.115602 0.037753 0.026081
0.212788 0.050370 0.035663
0.324763 0.058781 0.044861
0.446555 0.070939 0.064695
0.568996 0.085864 0.085253
0.689049 0.101870 0.105102
0.802965 0.125894 0.125550
0.892173 0.147446 0.142844
0.924861 0.155403 0.151525
0.937167 0.157283 0.154927
0.947441 0.162149 0.157798
0.957050 0.168488 0.160770
0.963706 0.174917 0.164454
0.985655 0.178301 0.166070
-0.003180 0.071217 0.031984
-0.015943 0.070604 0.032842
0.070348 0.074405 0.034802
0.182465 0.084317 0.024541
0.312283 0.087049 0.017228
0.448127 0.089650 0.039948
0.563609 0.101014 0.071573
0.674076 0.112721 0.098457
0.786842 0.134690 0.121970
0.881906 0.156879 0.140227
0.926281 0.168448 0.150903
0.938052 0.169647 0.153704
0.948591 0.174778 0.156869
0.958195 0.181127 0.160377
0.964923 0.188159 0.164514
0.986493 0.191836 0.166637
-0.001089 0.118210 0.035807
-0.007178 0.117726 0.035701
0.017493 0.118236 0.037133
0.125770 0.127083 0.042974
0.267508 0.137369 0.026781
0.420780 0.142993 0.018291
0.564712 0.148302 0.037349
0.689946 0.154625 0.066359
0.795315 0.171982 0.097480
0.880502 0.192858 0.129033
0.931882 0.206806 0.149027
0.941870 0.202621 0.153828
0.951536 0.203901 0.157806
0.960646 0.205606 0.161639
0.967054 0.208902 0.165798
0.988227 0.211767 0.167975
-0.001802 0.172727 0.042848
0.004472 0.172163 0.041774
-0.014628 0.169754 0.040759
0.059248 0.174359 0.039641
0.204500 0.188733 0.045674
0.371349 0.199560 0.031954
0.531202 0.206922 0.023852
0.674643 0.213744 0.046389
0.804567 0.219986 0.056201
0.893212 0.233826 0.084342
0.949499 0.250773 0.117329
0.959215 0.250421 0.128898
0.966119 0.251757 0.136663
0.972158 0.253426 0.143159
0.975998 0.255366 0.148617
0.996895 0.257412 0.151658
-0.001297 0.235635 0.055659
0.004329 0.235965 0.055273
-0.006662 0.233446 0.054167
-0.022502 0.231999 0.050625
0.122776 0.244567 0.048677
0.305280 0.264831 0.054578
0.482851 0.271420 0.038300
0.642000 0.276873 0.034473
0.783785 0.284931 0.046530
0.888759 0.293525 0.051754
0.958951 0.304406 0.076920
0.972179 0.306087 0.092430
0.977283 0.306687 0.101780
0.982331 0.307683 0.109620
0.985412 0.309155 0.116295
1.005093 0.311843 0.120728
-0.001175 0.311900 0.068405
0.005142 0.311971 0.068014
0.009126 0.309932 0.067371
-0.007525 0.305945 0.065192
-0.028484 0.310121 0.057431
0.214275 0.333887 0.058327
0.420943 0.351004 0.061624
0.593758 0.349677 0.045876
0.754800 0.354342 0.029334
0.869916 0.362749 0.039459
0.952992 0.370625 0.058704
0.976348 0.376318 0.071855
0.981812 0.376160 0.079544
0.985821 0.377819 0.087051
0.988362 0.378993 0.093773
1.008905 0.382640 0.099497
-0.001030 0.393180 0.080626
0.006219 0.394168 0.080333
0.011050 0.393304 0.079221
0.013758 0.389013 0.077228
0.017095 0.384871 0.065234
0.084669 0.401099 0.058398
0.342444 0.429894 0.068643
0.535845 0.437864 0.067456
0.703420 0.429172 0.044314
0.847955 0.434988 0.030282
0.939695 0.445858 0.036713
0.977026 0.458385 0.052634
0.982632 0.456918 0.062880
0.986856 0.457212 0.070938
0.989805 0.456280 0.078305
1.011647 0.458636 0.083261
0.002209 0.487583 0.089158
0.007813 0.489002 0.088224
0.012773 0.488857 0.086107
0.016834 0.486147 0.084310
0.028079 0.479947 0.076390
0.017471 0.483220 0.063441
0.194823 0.510071 0.061216
0.468197 0.535017 0.066065
0.649889 0.536476 0.068837
0.810361 0.519908 0.050838
0.921679 0.526756 0.028080
0.976000 0.539565 0.036968
0.984122 0.538072 0.049826
0.989263 0.536017 0.058089
0.992182 0.532937 0.066114
1.014445 0.534551 0.074179
0.004255 0.584599 0.106809
0.009657 0.585996 0.106327
0.014596 0.585906 0.105225
0.019246 0.583787 0.103510
0.025625 0.579563 0.098929
0.045729 0.573371 0.072293
0.010466 0.589468 0.060548
0.345492 0.617339 0.072543
0.591562 0.641907 0.082307
0.772211 0.633779 0.074402
0.893190 0.612094 0.052336
0.971102 0.617172 0.058774
0.987718 0.618801 0.071244
0.992095 0.615475 0.074865
0.994049 0.610928 0.078691
1.016947 0.612586 0.083659
0.006236 0.672688 0.116016
0.011495 0.673515 0.115659
0.016399 0.673442 0.114909
0.021260 0.672238 0.113423
0.025046 0.669447 0.111717
0.043271 0.663972 0.094369
0.060767 0.671631 0.070322
0.175070 0.697811 0.077283
0.497271 0.722970 0.081752
0.730862 0.744259 0.088404
0.867748 0.726095 0.100114
0.955671 0.704361 0.093776
0.989483 0.699919 0.093868
0.993430 0.698429 0.095389
0.995700 0.693798 0.096404
1.018949 0.694337 0.098494
0.007885 0.745674 0.122515
0.013141 0.746043 0.122247
0.017944 0.745974 0.121213
0.022804 0.745082 0.119793
0.027342 0.742756 0.118329
0.035723 0.740082 0.112454
0.065460 0.742794 0.094035
0.061448 0.760651 0.083805
0.391317 0.783162 0.078794
0.657833 0.806191 0.105549
0.838606 0.814085 0.126928
0.936116 0.793119 0.118441
0.985728 0.778819 0.109234
0.992309 0.772358 0.110786
0.995654 0.767309 0.114325
1.019503 0.766261 0.116771
0.008998 0.783144 0.132517
0.014294 0.784934 0.132489
0.019149 0.786367 0.131798
0.024080 0.787793 0.130801
0.029053 0.788432 0.129980
0.032458 0.788853 0.129380
0.057912 0.791821 0.116990
0.075138 0.804268 0.092406
0.249917 0.823927 0.095773
0.558531 0.844309 0.118199
0.781731 0.863544 0.137253
0.908426 0.857074 0.136140
0.978507 0.841601 0.127890
0.992132 0.836463 0.130711
0.995578 0.832189 0.133854
1.019971 0.830290 0.136419
0.009312 0.792490 0.135903
0.014743 0.794463 0.136039
0.019618 0.795867 0.135667
0.024620 0.797476 0.135475
0.029493 0.798684 0.134404
0.033702 0.799990 0.133699
0.049002 0.802798 0.128579
0.081054 0.814255 0.100516
0.139709 0.833693 0.096899
0.470306 0.854863 0.119442
0.707097 0.877538 0.133341
0.868815 0.893679 0.147200
0.961237 0.882097 0.146397
0.993264 0.879303 0.146334
0.995978 0.877689 0.149393
1.020228 0.876007 0.152051
0.009698 0.802111 0.139392
0.014970 0.803330 0.138890
0.019797 0.805011 0.138751
0.024758 0.806334 0.138498
0.029829 0.808037 0.138386
0.034418 0.809337 0.138311
0.043489 0.811112 0.136289
0.078941 0.819953 0.107185
0.103651 0.836864 0.097828
0.408965 0.856330 0.115209
0.659127 0.878265 0.130188
0.834075 0.896951 0.148823
0.943440 0.892762 0.151227
0.991169 0.887696 0.148542
0.996154 0.890179 0.154052
1.020088 0.889787 0.156449
0.009111 0.823288 0.143918
-0.012998 0.824335 0.143080
-0.033770 0.825282 0.142920
-0.055757 0.826573 0.143466
-0.078798 0.828053 0.143931
-0.104315 0.829752 0.144349
-0.132345 0.832044 0.142218
-0.157268 0.839877 0.109014
-0.175101 0.855303 0.089515
0.354388 0.873853 0.114016
0.627597 0.894919 0.129561
0.813565 0.914321 0.150105
0.936486 0.918010 0.155983
0.991445 0.910374 0.152738
0.997136 0.912937 0.158458
1.021593 0.913320 0.161002
0.004505 -0.200119 0.146468
0.031931 -0.200320 0.148474
0.132564 -0.200537 0.146278
0.248261 -0.200659 0.121025
0.346582 -0.200694 0.085839
0.455122 -0.200528 0.082700
0.572960 -0.199852 0.098326
0.695089 -0.200597 0.115502
0.812924 -0.198549 0.129954
0.898555 -0.197233 0.136309
0.923942 -0.202213 0.140064
0.933804 -0.207608 0.142539
0.942852 -0.210015 0.145226
0.951290 -0.208755 0.147669
0.959398 -0.206568 0.149766
0.982315 -0.204770 0.150229
-0.005820 0.038675 0.131185
-0.018834 0.036713 0.126189
0.106187 0.032961 0.125211
0.227752 0.037265 0.097598
0.326839 0.045577 0.073863
0.443630 0.058991 0.082871
0.568199 0.077597 0.101316
0.689632 0.094143 0.117439
0.803265 0.121898 0.134014
0.891835 0.145948 0.149934
0.925049 0.153749 0.158741
0.936973 0.155224 0.161675
0.947281 0.161167 0.165403
0.956730 0.168575 0.169545
0.963221 0.175197 0.173475
0.985180 0.178954 0.175230
-0.003064 0.080578 0.107452
-0.015748 0.079064 0.103009
0.047704 0.078046 0.094979
0.186001 0.087449 0.081525
0.327115 0.090760 0.066097
0.454002 0.095760 0.075813
0.568012 0.105524 0.092481
0.679409 0.116153 0.110906
0.793609 0.138363 0.133844
0.887471 0.159153 0.150649
0.931204 0.170363 0.161752
0.942032 0.173087 0.164851
0.950920 0.178953 0.168266
0.960212 0.184767 0.171003
0.966640 0.191983 0.175207
0.986844 0.195908 0.177778
-0.001839 0.127453 0.081875
-0.007025 0.125898 0.077640
-0.014967 0.123146 0.071273
0.120201 0.127722 0.066258
0.277343 0.138866 0.040403
0.435617 0.142846 0.029337
0.575380 0.146986 0.052814
0.693052 0.156649 0.082405
0.795680 0.176482 0.115036
0.882312 0.197321 0.143894
0.935358 0.209787 0.161244
0.945134 0.205620 0.165576
0.953522 0.207231 0.169515
0.962625 0.208711 0.172893
0.968419 0.212197 0.176853
0.988295 0.215448 0.179316
-0.001561 0.176814 0.059598
0.005563 0.175493 0.056575
-0.012862 0.172926 0.055590
0.054204 0.175717 0.055576
0.200487 0.189036 0.060560
0.379564 0.201194 0.044440
0.544305 0.208123 0.037003
0.686593 0.214002 0.056900
0.810664 0.220898 0.070426
0.894645 0.236957 0.104077
0.950030 0.254909 0.136382
0.959912 0.255304 0.147568
0.966210 0.256714 0.154426
0.972165 0.258910 0.160939
0.976158 0.261285 0.166163
0.996289 0.262912 0.168087
-0.001285 0.239178 0.069892
0.004285 0.239369 0.069255
-0.005994 0.236958 0.068327
-0.022088 0.234145 0.064496
0.116196 0.244905 0.063594
0.299884 0.265184 0.067938
0.485970 0.272990 0.051900
0.654347 0.279245 0.045116
0.795214 0.285969 0.054460
0.895194 0.293724 0.061918
0.960696 0.307197 0.092615
0.973220 0.310016 0.109629
0.977559 0.310221 0.118109
0.982492 0.311868 0.126155
0.985423 0.313581 0.133181
1.004754 0.315617 0.136638
-0.001181 0.315238 0.081736
0.004855 0.315329 0.081302
0.008914 0.313307 0.080588
-0.006513 0.308761 0.078047
-0.028558 0.311065 0.072259
0.207864 0.333838 0.071532
0.419703 0.352446 0.074711
0.595177 0.351261 0.057899
0.766736 0.356974 0.040155
0.878296 0.364299 0.050797
0.956054 0.372769 0.070078
0.978323 0.380517 0.085640
0.982831 0.379834 0.094184
0.986359 0.382486 0.103961
0.988502 0.383980 0.111512
1.008943 0.386203 0.115234
-0.001207 0.396793 0.093987
0.005903 0.397643 0.094177
0.010849 0.396578 0.094127
0.013563 0.392561 0.092453
0.019172 0.387091 0.080095
0.075292 0.401289 0.072150
0.335780 0.429827 0.080989
0.532581 0.438730 0.079558
0.704878 0.430197 0.056113
0.856418 0.438734 0.040831
0.945162 0.449442 0.047997
0.978823 0.463204 0.068084
0.983644 0.461002 0.078821
0.987673 0.461707 0.087368
0.990619 0.460678 0.095522
1.011864 0.461148 0.100689
0.001882 0.490604 0.102102
0.007516 0.491709 0.100948
0.012558 0.491523 0.099643
0.016641 0.489064 0.098451
0.028159 0.482636 0.090443
0.019679 0.484288 0.077182
0.188490 0.510265 0.075886
0.462771 0.535059 0.079637
0.647082 0.536616 0.079319
0.809726 0.520053 0.059389
0.927338 0.530715 0.036464
0.978342 0.544636 0.052060
0.985533 0.541958 0.065335
0.990484 0.540370 0.075843
0.992969 0.537329 0.085330
1.014644 0.536616 0.091841
0.004023 0.586810 0.118734
0.009399 0.588014 0.118145
0.014441 0.588052 0.117423
0.019075 0.585997 0.116007
0.025464 0.582261 0.111886
0.045739 0.575109 0.087302
-0.014867 0.589978 0.075474
0.338771 0.617410 0.083759
0.587819 0.641830 0.093289
0.770390 0.634078 0.084994
0.892796 0.611748 0.063150
0.973290 0.621874 0.072601
0.989527 0.623650 0.084875
0.992881 0.621102 0.089238
0.994830 0.616256 0.093398
1.017102 0.614760 0.097330
0.006001 0.674386 0.128556
0.011318 0.675095 0.127967
0.016319 0.675039 0.127312
0.021155 0.673823 0.125740
0.024959 0.671236 0.123895
0.043071 0.666034 0.109187
0.061548 0.672368 0.083289
0.165712 0.697697 0.088099
0.492405 0.722968 0.093377
0.728332 0.744465 0.100194
0.866989 0.726411 0.110928
0.955875 0.703887 0.103069
0.990332 0.704069 0.106025
0.994063 0.704687 0.108691
0.996430 0.699711 0.110007
1.019103 0.696423 0.111081
0.007769 0.746656 0.133841
0.013000 0.747336 0.133244
0.017981 0.747017 0.132202
0.022755 0.746131 0.130776
0.027284 0.743983 0.129193
0.035548 0.741583 0.123906
0.065536 0.743694 0.104894
0.059070 0.760621 0.092418
0.384711 0.783363 0.091226
0.655013 0.806538 0.116975
0.838057 0.814971 0.137144
0.935884 0.793531 0.128195
0.985842 0.778867 0.119955
0.992404 0.772887 0.122698
0.995750 0.768200 0.126819
1.019637 0.767309 0.129699
0.008810 0.784403 0.140889
0.014142 0.786037 0.140694
0.019233 0.787740 0.140016
0.024057 0.788927 0.138626
0.029021 0.789675 0.138043
0.032518 0.790067 0.138015
0.057830 0.793058 0.126658
0.076310 0.804921 0.103644
0.241851 0.824371 0.109779
0.556062 0.844615 0.129278
0.780839 0.864010 0.147441
0.908334 0.857767 0.146378
0.978686 0.842366 0.138478
0.992437 0.837179 0.141998
0.995725 0.832999 0.145663
1.020136 0.831138 0.148852
0.009218 0.793662 0.143598
0.014633 0.795521 0.143856
0.019735 0.796933 0.143730
0.024645 0.798616 0.143370
0.029528 0.799743 0.142561
0.033715 0.801203 0.142021
0.048951 0.804132 0.137550
0.081572 0.815091 0.111921
0.130748 0.834167 0.109275
0.467023 0.855195 0.129960
0.705687 0.878079 0.142994
0.868016 0.894254 0.158367
0.961289 0.882511 0.157234
0.993231 0.880006 0.157537
0.995937 0.878423 0.160851
1.020425 0.876798 0.163483
0.009610 0.803121 0.147234
0.014870 0.804476 0.146566
0.020009 0.806164 0.146840
0.024863 0.807720 0.146512
0.029886 0.809159 0.146569
0.034455 0.810465 0.145764
0.043523 0.812566 0.144630
0.079199 0.820779 0.117985
0.101754 0.837191 0.107811
0.403820 0.856629 0.125924
0.658336 0.878795 0.140087
0.833422 0.897516 0.159494
0.943212 0.893735 0.162326
0.991170 0.888519 0.159471
0.995923 0.891160 0.165091
1.020225 0.890686 0.167534
0.009942 0.824160 0.147738
0.005750 0.825203 0.146065
-0.029218 0.826421 0.145368
-0.058111 0.827738 0.145340
-0.086432 0.829302 0.146773
-0.110871 0.830882 0.148682
-0.133988 0.833424 0.148979
-0.154197 0.840728 0.117602
-0.170072 0.855821 0.098172
0.350580 0.874232 0.122658
0.627537 0.895469 0.138241
0.813554 0.914961 0.159598
0.936461 0.918727 0.166152
0.991536 0.911160 0.162853
0.997192 0.913721 0.168876
1.021843 0.914251 0.171625
-0.004540 -0.200439 0.228796
0.012492 -0.200673 0.238760
0.093061 -0.201035 0.240150
0.234518 -0.201413 0.248513
0.390912 -0.201871 0.225890
0.491269 -0.201940 0.176842
0.581790 -0.202274 0.150427
0.685004 -0.203229 0.149503
0.793067 -0.204643 0.163529
0.881051 -0.203727 0.173277
0.911353 -0.208633 0.172982
0.923274 -0.212923 0.171502
0.934882 -0.215265 0.172060
0.945462 -0.214850 0.172540
0.954636 -0.212316 0.172938
0.977484 -0.210528 0.173187
-0.003640 0.038497 0.223536
-0.011732 0.033887 0.217387
0.059315 0.024975 0.218302
0.199364 0.028116 0.225682
0.374372 0.024767 0.200001
0.470191 0.039395 0.153509
0.564206 0.053105 0.135905
0.673488 0.072451 0.146926
0.784397 0.095663 0.162664
0.879286 0.127705 0.177996
0.917839 0.139707 0.182453
0.932228 0.144905 0.182443
0.944708 0.151199 0.184178
0.954595 0.161180 0.186534
0.961021 0.168487 0.188952
0.983458 0.173359 0.191025
-0.002320 0.088226 0.201737
-0.009716 0.085505 0.197478
0.011408 0.080198 0.191195
0.156218 0.074808 0.187271
0.334243 0.071136 0.149449
0.452261 0.069207 0.118398
0.560093 0.083824 0.127987
0.672289 0.097162 0.142527
0.789821 0.120813 0.161136
0.884688 0.149222 0.176633
0.930946 0.164893 0.184349
0.941559 0.169505 0.183461
0.950081 0.176664 0.185934
0.959087 0.184547 0.188857
0.965237 0.191998 0.192351
0.985898 0.195584 0.194363
-0.001460 0.144184 0.180205
-0.004610 0.140939 0.174459
-0.019094 0.137878 0.166360
0.083684 0.132918 0.154522
0.268619 0.144811 0.136230
0.429389 0.154175 0.128361
0.575020 0.160437 0.129899
0.703662 0.171372 0.144360
0.808322 0.188192 0.162056
0.892319 0.204553 0.174892
0.940597 0.213876 0.182745
0.948546 0.208534 0.179774
0.955654 0.209822 0.181768
0.962649 0.212217 0.184518
0.968780 0.216377 0.187708
0.988597 0.220084 0.190364
-0.001251 0.200592 0.149489
0.004418 0.197667 0.144753
-0.009742 0.192991 0.136129
0.023845 0.185749 0.123971
0.187374 0.192740 0.118105
0.385070 0.206972 0.094499
0.573247 0.210015 0.074223
0.711134 0.213522 0.081978
0.816559 0.223969 0.097319
0.895313 0.241852 0.128801
0.950052 0.259478 0.154673
0.960488 0.260208 0.165126
0.966336 0.261550 0.171070
0.971751 0.263976 0.176722
0.975564 0.267410 0.182427
0.995784 0.269470 0.184583
-0.001153 0.256029 0.122500
0.004539 0.254170 0.118408
0.003404 0.249696 0.111869
-0.019001 0.242366 0.100268
0.103425 0.246679 0.093268
0.291464 0.265683 0.094583
0.486773 0.273711 0.072057
0.666244 0.280707 0.056275
0.804490 0.285381 0.061242
0.899914 0.293132 0.072923
0.961507 0.309588 0.109609
0.973467 0.313764 0.127680
0.977400 0.313414 0.135707
0.981679 0.314829 0.143287
0.984822 0.317439 0.151213
1.004273 0.319810 0.154904
-0.001174 0.321411 0.105053
0.004648 0.320796 0.102936
0.008855 0.317735 0.098948
0.004285 0.312220 0.093716
-0.027613 0.311204 0.085524
0.199651 0.332780 0.084565
0.415622 0.352674 0.088585
0.593583 0.352324 0.072474
0.774791 0.358271 0.051840
0.885844 0.364417 0.060205
0.958494 0.373980 0.081766
0.979581 0.385314 0.102177
0.983351 0.383931 0.110846
0.986355 0.385118 0.119302
0.988728 0.387178 0.126937
1.009095 0.389627 0.130774
-0.001209 0.399389 0.107211
0.005531 0.400014 0.107096
0.010494 0.399273 0.107061
