apk/assets/luts/Lut2.cube
LUT_3D_SIZE 6
-0.071809 0.035063 0.029306
0.117430 0.062110 0.056171
0.365310 0.087047 -0.073766
0.640029 0.071219 -0.114977
0.786705 0.051232 -0.129740
0.883906 0.033540 -0.136300
0.061536 0.113423 0.075975
0.136244 0.118060 0.080150
0.392273 0.170408 -0.060615
0.646917 0.205833 -0.120187
0.792525 0.210068 -0.133330
0.883105 0.204838 -0.137781
0.090437 0.256290 0.148236
0.155933 0.269462 0.124593
0.446558 0.341827 0.065442
0.704523 0.414320 -0.117856
0.843880 0.427290 -0.136968
0.914032 0.418805 -0.138589
0.082672 0.483295 0.207488
0.132970 0.515563 0.155405
0.435221 0.492725 0.094161
0.707678 0.579327 -0.001761
0.865502 0.587644 -0.104250
0.933251 0.568196 -0.094089
0.069791 0.713830 0.250863
0.112245 0.737035 0.198172
0.479272 0.735989 0.097419
0.687390 0.722197 0.023543
0.868958 0.732651 -0.000216
0.942846 0.691236 0.005579
-0.015208 0.874230 0.263113
0.063968 0.886402 0.214691
0.446404 0.900410 0.095894
0.671652 0.874054 0.059122
0.845632 0.878025 0.014911
0.946783 0.843145 0.039040
-0.128960 0.050091 0.073428
0.082932 0.071185 0.110499
0.378377 0.087493 0.120409
0.692937 0.063778 0.074614
0.837662 0.040803 0.040755
0.923567 0.021907 -0.034211
-0.119584 0.119499 0.116204
0.107736 0.136195 0.138159
0.387305 0.176888 0.133485
0.690288 0.224987 0.103705
0.845100 0.243202 0.084100
0.925192 0.245003 0.075458
-0.075256 0.267849 0.190098
0.117846 0.304732 0.209780
0.432308 0.359918 0.150822
0.715240 0.444865 0.111612
0.863756 0.460860 0.090686
0.932648 0.447485 0.083006
0.044227 0.505909 0.282897
0.091819 0.556932 0.294684
0.442353 0.570640 0.171076
0.719029 0.612917 0.151694
0.876828 0.618204 0.120746
0.942253 0.593994 0.111025
0.053868 0.731062 0.332205
0.079930 0.767165 0.339849
0.436864 0.794447 0.178264
0.698838 0.767376 0.159195
0.879895 0.761650 0.156390
0.950703 0.715071 0.144691
-0.074336 0.882809 0.330747
0.045892 0.903019 0.341476
0.388627 0.923895 0.183399
0.658652 0.907282 0.174160
0.847440 0.903391 0.165581
0.955189 0.865143 0.193740
-0.132511 0.063481 0.108095
-0.104738 0.106497 0.142910
0.264733 0.119725 0.247030
0.618174 0.095591 0.341898
0.823299 0.047851 0.334639
0.927378 0.017995 0.292400
-0.125533 0.125192 0.144528
0.033443 0.170773 0.200197
0.303557 0.177139 0.315793
0.672901 0.158647 0.342172
0.864231 0.145191 0.302636
0.945832 0.139995 0.256815
-0.122548 0.263511 0.253643
-0.085744 0.327301 0.318819
0.337501 0.411757 0.424557
0.717173 0.439267 0.372472
0.882012 0.448489 0.343882
0.950161 0.440599 0.322872
-0.136036 0.519058 0.389525
-0.101041 0.562852 0.422660
0.394161 0.660459 0.450552
0.725614 0.660158 0.428597
0.885913 0.650177 0.389195
0.950400 0.623092 0.361013
-0.126698 0.746481 0.458297
-0.094176 0.776360 0.476857
0.384369 0.837045 0.460588
0.702886 0.828622 0.446900
0.890678 0.804872 0.456085
0.958791 0.757132 0.428407
-0.132883 0.893367 0.448782
-0.102169 0.910298 0.461559
0.380831 0.941601 0.458864
0.651245 0.945982 0.464757
0.846443 0.931951 0.465706
0.963942 0.903574 0.505317
-0.126574 0.106118 0.138263
-0.114544 0.131090 0.169664
0.197481 0.161660 0.413091
0.509812 0.123366 0.450766
0.729720 0.099395 0.513863
0.879935 0.077477 0.503473
-0.123077 0.146658 0.177809
-0.046657 0.208887 0.254942
0.222641 0.254589 0.511672
0.560923 0.198056 0.511099
0.797143 0.176976 0.544382
0.920681 0.156663 0.502072
-0.123818 0.284225 0.311826
-0.103728 0.378857 0.430736
0.269754 0.485182 0.600325
0.670770 0.466650 0.637904
0.885968 0.458682 0.585230
0.964967 0.450463 0.528988
-0.139662 0.497637 0.479372
-0.122032 0.567984 0.544979
0.313369 0.674083 0.665215
0.700264 0.718140 0.712645
0.898442 0.717309 0.672083
0.964217 0.705355 0.652071
-0.141930 0.734474 0.577426
-0.124451 0.772226 0.598634
0.321248 0.841981 0.645266
0.728540 0.866515 0.712240
0.899453 0.852324 0.720251
0.964854 0.826619 0.695055
-0.141887 0.894716 0.567150
-0.123036 0.912152 0.575945
0.335794 0.946645 0.609164
0.722162 0.959900 0.718208
0.871924 0.952854 0.729686
0.969929 0.938334 0.747596
-0.122596 0.140901 0.180371
-0.114227 0.167714 0.217565
0.110308 0.288405 0.513767
0.482721 0.154452 0.537275
0.688358 0.120227 0.634541
0.826146 0.101941 0.646624
-0.119287 0.187033 0.233949
-0.054666 0.263995 0.332318
0.128406 0.367722 0.614607
0.545327 0.230010 0.651937
0.746953 0.211302 0.694125
0.871351 0.195468 0.673802
-0.128161 0.339381 0.405589
-0.105152 0.455773 0.562784
0.226562 0.548880 0.725751
0.613249 0.503276 0.840419
0.838240 0.508403 0.783299
0.937468 0.486083 0.722937
-0.141599 0.540369 0.597513
-0.121690 0.618915 0.697876
0.275003 0.693029 0.803304
0.678813 0.735971 0.844358
0.888728 0.747141 0.833098
0.971470 0.738072 0.792313
-0.141930 0.726850 0.700083
-0.133764 0.774188 0.739465
0.289905 0.842579 0.810004
0.702896 0.869126 0.843185
0.908333 0.883629 0.863982
0.972818 0.880965 0.851389
-0.141930 0.882106 0.688748
-0.135934 0.905983 0.693848
0.293748 0.946029 0.725371
0.711635 0.962731 0.811268
0.904571 0.968196 0.872561
0.975181 0.958889 0.877494
-0.118070 0.195567 0.253021
-0.110354 0.231107 0.305219
0.075266 0.371577 0.558164
0.435660 0.202459 0.784464
0.660138 0.165493 0.711907
0.821458 0.121300 0.774212
-0.113316 0.253249 0.324130
-0.028123 0.348255 0.453717
0.097096 0.449927 0.694715
0.452660 0.284669 0.876628
0.715172 0.253701 0.789907
0.859603 0.220204 0.820024
-0.135350 0.443272 0.567893
-0.059481 0.526326 0.676917
0.216046 0.585792 0.832753
0.551885 0.546801 0.945639
0.798501 0.539815 0.888613
0.916725 0.524808 0.885886
-0.141930 0.595775 0.735196
-0.109093 0.665758 0.838858
0.255088 0.702160 0.888470
0.656051 0.743134 0.930668
0.860499 0.767363 0.933890
0.945857 0.769181 0.921610
-0.141930 0.732920 0.817670
-0.120035 0.775846 0.882863
0.276245 0.804523 0.925508
0.662346 0.851143 0.936849
0.900193 0.896709 0.954973
0.969068 0.899535 0.945976
-0.141930 0.890269 0.844655
-0.121455 0.916409 0.864129
0.277720 0.946560 0.897302
0.669698 0.959937 0.921623
0.905305 0.973013 0.953328
0.982717 0.975294 0.961960
