apk/assets/luts/Lut20.cube
LUT_3D_SIZE 6
-0.009929 -0.005337 0.000918
0.259595 0.028000 0.004959
0.632450 0.116874 0.042396
0.950281 0.150028 0.070741
0.970532 0.150743 0.072400
1.001281 0.149552 0.072209
0.146265 0.176614 0.013411
0.205222 0.162058 0.013498
0.561263 0.165181 0.036802
0.907891 0.173194 0.065352
0.970595 0.157864 0.071783
1.001346 0.152406 0.071989
0.399057 0.445598 0.023275
0.379246 0.425737 0.020235
0.501781 0.406846 -0.015803
0.839679 0.366393 0.053074
0.980800 0.323262 0.056285
1.013381 0.312537 0.057136
0.676104 0.713943 0.049751
0.660178 0.699228 0.047377
0.645755 0.670181 0.142916
0.779439 0.652676 -0.056773
1.000411 0.584378 0.030500
1.039709 0.573614 0.030516
0.919892 0.945672 0.098217
0.912283 0.938797 0.098289
0.873948 0.921102 0.097727
0.918281 0.893362 0.335123
0.990129 0.890154 0.154011
1.041742 0.878511 0.095516
0.930012 0.956161 0.099357
0.929393 0.956153 0.099358
0.916726 0.956109 0.097868
0.932231 0.954197 0.294338
0.993900 0.966185 0.799784
1.037551 0.993283 0.667330
-0.236038 -0.240646 0.100677
-0.224415 -0.241920 0.359866
0.627216 -0.236585 0.164969
0.945117 -0.207937 0.144621
0.967906 -0.213913 -0.124129
0.999058 -0.222888 -0.120115
-0.035482 0.191375 0.122026
0.167397 0.159804 0.139963
0.556296 0.161809 0.113327
0.901797 0.175728 0.107308
0.970325 0.156517 0.083574
1.001238 0.152628 0.080134
0.388211 0.440767 0.021578
0.371156 0.420334 0.020324
0.495516 0.401130 -0.015820
0.835351 0.361572 0.052996
0.980378 0.318983 0.056741
1.012924 0.308409 0.057581
0.671226 0.709413 0.049299
0.655604 0.694931 0.046926
0.640836 0.666041 0.139493
0.775466 0.648702 -0.056275
1.000311 0.580407 0.030527
1.039418 0.569451 0.030591
0.917460 0.943418 0.098268
0.909975 0.936584 0.098228
0.872197 0.919092 0.098684
0.914633 0.890431 0.331551
0.989066 0.886526 0.133612
1.042032 0.874417 0.081654
0.929994 0.956072 0.093641
0.929867 0.956063 -0.065073
0.916965 0.956141 0.076538
0.930743 0.954078 0.287436
0.995935 0.964698 0.786740
1.037573 0.993277 0.666691
-0.231057 -0.204944 0.364822
-0.228158 -0.178591 0.460285
0.223144 -0.239721 0.896172
0.975583 -0.242114 0.381447
0.998545 -0.246793 0.357515
1.038373 -0.253872 0.351748
0.078038 0.224749 0.364177
0.066722 0.218779 0.405968
0.315460 0.089077 0.781402
0.936095 0.024220 0.339970
0.994814 0.097658 0.340430
1.030803 0.107262 0.332894
0.029268 0.457696 0.338442
-0.024626 0.438520 0.322736
0.460661 0.404520 0.376980
0.827880 0.372444 0.333363
0.974554 0.342506 0.302242
1.005264 0.331978 0.291455
0.622102 0.707310 0.141060
0.610344 0.692472 0.130109
0.610447 0.662001 0.212092
0.770070 0.641619 0.109727
0.998810 0.574146 0.159953
1.035857 0.562349 0.149372
0.904177 0.940203 0.084440
0.897760 0.933165 0.086427
0.864135 0.913980 0.093996
0.906020 0.883967 0.322765
0.986545 0.878563 0.080764
1.041952 0.866293 0.049151
0.927746 0.956588 -0.103584
0.928325 0.956415 -0.118707
0.923308 0.956126 -0.206135
0.927296 0.954158 0.246587
0.998605 0.961538 0.758577
1.036012 0.993348 0.662211
-0.211234 -0.243745 0.777738
-0.045020 -0.243609 0.908313
0.463663 -0.240748 0.929440
0.886040 -0.225200 0.921930
0.933440 -0.228020 0.899884
0.968165 -0.239449 0.883048
0.119810 0.143686 0.813576
0.165770 0.154079 0.804197
0.362919 0.168397 0.858252
0.788233 0.185143 0.889740
0.976686 0.058379 0.852165
1.015653 0.045138 0.828256
0.133021 0.427956 0.711931
0.130858 0.413097 0.692290
0.223840 0.383959 0.811621
0.722237 0.351188 0.882362
0.999468 0.296057 0.597186
1.039436 0.288226 0.576610
0.100542 0.713584 0.597916
0.094750 0.699799 0.581774
0.197473 0.693296 0.577854
0.742769 0.652894 0.620843
0.994451 0.610662 0.579392
1.029750 0.599390 0.567708
0.741343 0.947728 0.365377
0.757134 0.939282 0.348961
0.764133 0.918568 0.342212
0.865740 0.888043 0.474313
0.986246 0.870183 0.474148
1.042067 0.858473 0.487922
0.862010 0.963922 0.234026
0.866399 0.963127 0.145865
0.869520 0.961366 -0.102174
0.896129 0.959807 0.301602
1.000853 0.962323 0.658105
1.040169 0.993831 0.762303
0.052035 -0.253833 0.736477
0.206894 -0.253721 0.908797
0.552634 -0.253258 0.964448
0.953317 -0.251983 0.969349
0.998093 -0.252866 0.958888
1.036613 -0.255129 0.952926
0.122302 0.066972 0.922348
0.183405 0.065046 0.945041
0.501447 0.039002 0.969825
0.887720 -0.017247 0.964650
0.997146 -0.011613 0.950472
1.036678 -0.005253 0.949038
0.132052 0.335200 0.923966
0.129847 0.315823 0.924018
0.404095 0.350578 0.958732
0.793298 0.310571 0.967822
1.000123 0.269850 0.954761
1.042104 0.258112 0.954864
0.145973 0.626228 0.923631
0.144936 0.610412 0.923732
0.293982 0.616822 0.952679
0.690301 0.629158 0.961484
0.995985 0.598063 0.940132
1.026116 0.589067 0.931581
0.164071 0.927796 0.875755
0.163153 0.921932 0.865025
0.189500 0.915042 0.850852
0.549789 0.917610 0.855905
0.975128 0.884016 0.854365
1.042266 0.876629 0.848514
0.205880 0.978573 0.792270
0.215450 0.981600 0.765212
0.216692 0.986688 0.721215
0.551128 0.998585 0.720544
0.951180 0.997903 0.776541
1.043174 0.998831 0.902781
0.105140 -0.242863 0.723292
0.216617 -0.242863 0.897818
0.552556 -0.244743 0.956290
0.954116 -0.256167 0.960034
1.000296 -0.260072 0.948467
1.036641 -0.261468 0.947181
0.122293 0.060490 0.923439
0.181017 0.057468 0.945344
0.495519 0.032359 0.969606
0.880558 -0.016280 0.963622
0.997155 -0.009276 0.950492
1.036704 0.006728 0.949069
0.131871 0.329441 0.923937
0.129298 0.310288 0.923763
0.398997 0.344674 0.958527
0.787042 0.304563 0.967738
1.000166 0.262747 0.954697
1.042032 0.250931 0.954783
0.145570 0.619781 0.923665
0.144559 0.603748 0.923666
0.288577 0.609645 0.951863
0.686429 0.620981 0.966743
1.002389 0.587683 0.956298
1.042785 0.574843 0.956429
0.167484 0.918341 0.921674
0.166530 0.908279 0.921617
0.197948 0.894710 0.934285
0.553526 0.894711 0.964801
0.970945 0.876420 0.972819
1.042749 0.873894 0.963669
0.169851 0.944501 0.914784
0.169851 0.944501 0.914784
0.169037 0.944644 0.915025
0.467212 0.985184 0.955416
0.901985 0.995694 0.970142
1.042108 1.000009 1.000028
