apk/assets/luts/Lut20.cube
LUT_3D_SIZE 16
-0.009929 -0.005337 0.000918
0.032010 -0.004544 0.001454
0.146657 0.006870 0.003079
0.259595 0.028000 0.004959
0.378831 0.062630 0.023346
0.504434 0.093788 0.035396
0.632450 0.116874 0.042396
0.751259 0.133786 0.051664
0.855700 0.144611 0.062395
0.950281 0.150028 0.070741
0.971443 0.150775 0.072474
0.970532 0.150743 0.072400
0.970532 0.150743 0.072400
0.970532 0.150743 0.072400
0.969294 0.150784 0.072400
1.001281 0.149552 0.072209
-0.012126 0.009377 0.001601
-0.016588 -0.012871 0.001339
0.124472 -0.015008 0.002891
0.239036 0.015088 0.002834
0.359822 0.055361 0.020598
0.486054 0.089070 0.034220
0.615735 0.113722 0.041423
0.738077 0.131868 0.050528
0.844192 0.143680 0.061320
0.945171 0.149781 0.070351
0.971729 0.150786 0.072491
0.970532 0.150743 0.072400
0.970532 0.150743 0.072400
0.970532 0.150743 0.072400
0.969294 0.150784 0.072400
1.001281 0.149552 0.072209
0.072311 0.092266 0.007841
0.066457 0.086311 0.007167
0.112981 0.084303 0.005300
0.212396 0.084121 0.007773
0.332126 0.092532 0.019956
0.459608 0.106727 0.032091
0.589841 0.119928 0.039602
0.715851 0.131139 0.048529
0.824618 0.142753 0.059036
0.929972 0.148704 0.069203
0.972157 0.149990 0.072592
0.970527 0.150192 0.072437
0.970521 0.150372 0.072428
0.970523 0.150484 0.072412
0.969286 0.150590 0.072418
1.001277 0.149361 0.072225
0.146265 0.176614 0.013411
0.140887 0.171128 0.013181
0.148228 0.165090 0.013857
0.205222 0.162058 0.013498
0.308961 0.160098 0.014124
0.431534 0.161639 0.028667
0.561263 0.165181 0.036802
0.689782 0.170134 0.045612
0.802624 0.173304 0.055657
0.907891 0.173194 0.065352
0.973261 0.168572 0.071142
0.970730 0.161028 0.071509
0.970595 0.157864 0.071783
0.970612 0.154840 0.072069
0.969356 0.153707 0.072184
1.001346 0.152406 0.071989
0.224648 0.264666 0.015290
0.220529 0.260379 0.015170
0.214386 0.251782 0.014811
0.238396 0.245310 0.033529
0.303413 0.241320 0.017042
0.409203 0.236738 0.013629
0.532223 0.233942 0.032566
0.661060 0.229235 0.043187
0.779765 0.224558 0.052128
0.885373 0.220123 0.061031
0.973737 0.214128 0.067577
0.972079 0.204526 0.068180
0.971507 0.199639 0.068471
0.971564 0.195684 0.068725
0.970208 0.193776 0.068874
1.001667 0.191973 0.068680
0.309778 0.354447 0.017070
0.305996 0.350589 0.016891
0.298202 0.342735 0.015771
0.299445 0.333536 0.024987
0.335925 0.327477 0.063033
0.402679 0.323107 0.014027
0.510289 0.315535 0.008486
0.632071 0.308933 0.038401
0.755544 0.297243 0.050344
0.863392 0.283727 0.055569
0.963458 0.272780 0.061659
0.976283 0.261551 0.063451
0.975210 0.254997 0.064179
0.974703 0.250264 0.064597
0.973289 0.247866 0.064803
1.005887 0.245681 0.064660
0.399057 0.445598 0.023275
0.395211 0.441813 0.022852
0.388331 0.435074 0.022238
0.379246 0.425737 0.020235
0.389722 0.416769 0.060818
0.436252 0.410412 0.101887
0.501781 0.406846 -0.015803
0.610288 0.394812 -0.008783
0.730215 0.383821 0.039920
0.839679 0.366393 0.053074
0.945182 0.346948 0.054508
0.982717 0.331976 0.055417
0.980800 0.323262 0.056285
0.980409 0.317734 0.056902
0.978746 0.314908 0.057217
1.013381 0.312537 0.057136
0.490438 0.536389 0.030730
0.486797 0.532827 0.030480
0.481087 0.527087 0.030194
0.471761 0.518306 0.028089
0.462339 0.508361 0.038913
0.485040 0.499692 0.110868
0.539438 0.492856 0.137279
0.599373 0.490039 -0.029371
0.707087 0.473024 -0.015686
0.819410 0.456814 0.033804
0.923483 0.435527 0.049421
0.985230 0.416410 0.050306
0.986396 0.405379 0.050781
0.985814 0.399147 0.051104
0.984255 0.396046 0.051312
1.020750 0.393529 0.051254
0.583227 0.626312 0.039632
0.579751 0.622975 0.039491
0.574560 0.617962 0.039114
0.566068 0.609856 0.037766
0.549650 0.600572 0.031644
0.552080 0.589956 0.086609
0.585148 0.582283 0.162741
0.643620 0.572937 0.174244
0.692517 0.572375 -0.043097
0.798371 0.548578 -0.021331
0.903074 0.527580 0.028771
0.984776 0.507510 0.037530
0.993036 0.494655 0.040643
0.991745 0.488249 0.042021
0.990301 0.485051 0.042772
1.028868 0.482748 0.042789
0.676104 0.713943 0.049751
0.672685 0.710812 0.049466
0.667979 0.706401 0.048702
0.660178 0.699228 0.047377
0.647279 0.690511 0.044799
0.631590 0.680475 0.054326
0.645755 0.670181 0.142916
0.684550 0.661163 0.215042
0.746331 0.648767 0.216248
0.779439 0.652676 -0.056773
0.879643 0.623320 -0.026245
0.980125 0.598242 0.028938
1.000411 0.584378 0.030500
0.999611 0.578012 0.030461
0.998051 0.574928 0.030521
1.039709 0.573614 0.030516
0.767092 0.798369 0.059563
0.763743 0.795243 0.059188
0.759488 0.791252 0.058361
0.752758 0.785307 0.057145
0.744338 0.777173 0.056468
0.720150 0.768263 0.050311
0.717978 0.756833 0.110666
0.741185 0.748384 0.198237
0.781556 0.736187 0.265300
0.841782 0.720746 0.254564
0.866053 0.727680 -0.062506
0.957023 0.699483 -0.027296
1.002147 0.681725 0.034267
1.000089 0.673329 0.032531
0.999346 0.670185 0.031818
1.041875 0.668673 0.031679
0.851698 0.879738 0.087495
0.848826 0.876845 0.085700
0.844976 0.873012 0.083166
0.839589 0.867859 0.078961
0.832514 0.860450 0.074498
0.816690 0.852304 0.068255
0.797832 0.842670 0.072530
0.805881 0.831531 0.174379
0.833320 0.822072 0.255230
0.872845 0.807601 0.316489
0.921494 0.795332 0.269710
0.943126 0.804415 -0.074047
0.998298 0.789980 -0.031006
1.000206 0.780778 0.043419
0.999282 0.777671 0.046118
1.042145 0.775984 0.046618
0.919892 0.945672 0.098217
0.918020 0.944114 0.098245
0.915514 0.941638 0.098296
0.912283 0.938797 0.098289
0.907127 0.933803 0.098053
0.900376 0.928105 0.097111
0.873948 0.921102 0.097727
0.869989 0.911816 0.163508
0.887237 0.904049 0.259976
0.918281 0.893362 0.335123
0.957245 0.878682 0.383947
0.989418 0.871752 0.323670
0.990129 0.890154 0.154011
1.000548 0.883241 0.085177
0.999642 0.880150 0.099361
1.041742 0.878511 0.095516
0.918283 0.944132 0.097773
0.918393 0.944157 0.097774
0.918500 0.944256 0.097777
0.918546 0.944390 0.097785
0.918849 0.944536 0.097804
0.919326 0.944715 0.097816
0.904916 0.944738 0.093731
0.896555 0.943447 0.108092
0.911371 0.940121 0.225253
0.942377 0.939804 0.311732
0.980672 0.933002 0.390352
1.002224 0.929801 0.472647
0.988976 0.952791 0.726982
0.993268 0.967959 0.554186
0.991771 0.965349 0.546757
1.031290 0.962377 0.542161
0.918287 0.944041 0.097774
0.918287 0.944041 0.097774
0.918287 0.944041 0.097774
0.918287 0.944041 0.097774
0.918257 0.944041 0.097774
0.918642 0.944043 0.097838
0.909561 0.944192 0.096080
0.896103 0.943982 0.094410
0.907405 0.941151 0.204027
0.936720 0.942640 0.293565
0.975801 0.938519 0.374217
1.001699 0.936415 0.448345
0.989983 0.955581 0.814217
0.996031 0.981462 0.662774
0.995330 0.981073 0.661545
1.036401 0.979682 0.661683
0.930012 0.956161 0.099357
0.929962 0.956161 0.099337
0.929795 0.956160 0.099347
0.929393 0.956153 0.099358
0.928456 0.956129 0.099310
0.927284 0.956083 0.099276
0.916726 0.956109 0.097868
0.899184 0.956051 0.095538
0.905924 0.953124 0.202582
0.932231 0.954197 0.294338
0.973635 0.953327 0.377095
1.002776 0.950746 0.453172
0.993900 0.966185 0.799784
0.996592 0.994708 0.675098
0.996287 0.994639 0.667190
1.037551 0.993283 0.667330
-0.236105 -0.242725 -0.022089
-0.236070 -0.242729 0.020546
-0.211079 -0.242728 -0.016519
-0.071054 -0.242432 -0.019787
0.306412 -0.239910 0.011171
0.466343 -0.234649 0.029428
0.612375 -0.228029 0.036104
0.741720 -0.220490 0.039531
0.851963 -0.213265 0.031869
0.949323 -0.208591 -0.034531
0.971272 -0.208650 -0.067371
0.969643 -0.210410 -0.121632
0.969516 -0.215020 -0.160007
0.969561 -0.221025 -0.160523
0.968198 -0.223616 -0.149553
1.000023 -0.223657 -0.148750
-0.015495 0.013261 -0.002141
-0.024120 -0.013036 0.008465
0.122087 -0.016725 0.007255
0.237912 0.013252 0.003391
0.358378 0.054517 0.021356
0.484480 0.088798 0.034555
0.614313 0.113504 0.041314
0.736878 0.131712 0.050411
0.843237 0.143607 0.061206
0.944601 0.149774 0.070314
0.971778 0.150789 0.072496
0.970532 0.150743 0.072400
0.970532 0.150743 0.072400
0.970532 0.150743 0.072400
0.969294 0.150784 0.072400
1.001281 0.149552 0.072209
0.068515 0.090884 0.008460
0.062838 0.084620 0.007513
0.110802 0.082488 0.006154
0.210764 0.082205 0.008057
0.330386 0.090946 0.019675
0.458128 0.105529 0.032016
0.588437 0.118947 0.039537
0.714672 0.130947 0.048441
0.823686 0.142581 0.058940
0.929081 0.148532 0.069161
0.972217 0.150018 0.072592
0.970526 0.150215 0.072434
0.970519 0.150395 0.072425
0.970521 0.150511 0.072418
0.969286 0.150597 0.072416
1.001277 0.149372 0.072224
0.144877 0.175025 0.013355
0.139616 0.169629 0.013107
0.146618 0.163576 0.013649
0.203566 0.160664 0.013329
0.307575 0.158912 0.014074
0.430252 0.160527 0.028628
0.560072 0.164214 0.036733
0.688725 0.169401 0.045544
0.801628 0.172613 0.055586
0.906928 0.172630 0.065312
0.973285 0.168011 0.071192
0.970744 0.160514 0.071555
0.970737 0.157380 0.071835
0.970612 0.154289 0.072126
0.969359 0.153464 0.072196
1.001347 0.152152 0.072006
0.223405 0.263306 0.015251
0.219389 0.259142 0.015155
0.213197 0.250592 0.014784
0.236946 0.244092 0.033152
0.301917 0.240010 0.016986
0.407855 0.235626 0.013674
0.530979 0.232829 0.032523
0.659861 0.228242 0.043108
0.778663 0.223694 0.052075
0.884539 0.219360 0.060986
0.973162 0.213514 0.067633
0.972062 0.203892 0.068214
0.971504 0.198952 0.068525
0.971432 0.195026 0.068776
0.970142 0.193124 0.068912
1.001635 0.191355 0.068740
0.308601 0.353264 0.017010
0.304865 0.349350 0.016841
0.297057 0.341625 0.015732
0.298218 0.332384 0.024629
0.334545 0.326302 0.062534
0.401289 0.321967 0.014078
0.509120 0.314354 0.008731
0.630942 0.307914 0.038369
0.754411 0.296243 0.050265
0.862286 0.282888 0.055518
0.962710 0.271991 0.061729
0.976470 0.260808 0.063500
0.975053 0.254219 0.064239
0.974738 0.249444 0.064635
0.973220 0.247130 0.064854
1.005799 0.244858 0.064727
0.397873 0.444498 0.023147
0.394010 0.440713 0.022747
0.387406 0.434058 0.022196
0.378046 0.424530 0.020162
0.388493 0.415706 0.060092
0.434967 0.409279 0.101370
0.500488 0.405612 -0.015667
0.609062 0.393830 -0.008651
0.729105 0.382706 0.039992
0.838758 0.365393 0.053073
0.944285 0.346028 0.054558
0.982726 0.330972 0.055512
0.980832 0.322286 0.056392
0.980352 0.316793 0.056988
0.978715 0.314043 0.057318
1.013277 0.311563 0.057245
0.489328 0.535270 0.030627
0.485628 0.531725 0.030435
0.480028 0.526037 0.030114
0.470720 0.517248 0.027927
0.461217 0.507388 0.038442
0.483911 0.498625 0.110144
0.538076 0.491711 0.136825
0.598188 0.489007 -0.029260
0.706020 0.471994 -0.015592
0.818509 0.455883 0.034002
0.922632 0.434557 0.049542
0.984882 0.415408 0.050377
0.986389 0.404293 0.050850
0.985644 0.398047 0.051184
0.984385 0.395064 0.051363
1.020673 0.392456 0.051329
0.582168 0.625276 0.039592
0.578646 0.621891 0.039419
0.573481 0.616894 0.039014
0.565038 0.608822 0.037640
0.548704 0.599502 0.031580
0.550931 0.589003 0.085883
0.583926 0.581260 0.162089
0.642314 0.571914 0.173769
0.691553 0.571340 -0.042974
0.797379 0.547587 -0.021272
0.902056 0.526714 0.028808
0.984428 0.506527 0.037719
0.992960 0.493619 0.040871
0.991557 0.487014 0.042280
0.990148 0.484055 0.042952
1.028727 0.481744 0.043033
0.675097 0.713009 0.049684
0.671551 0.709777 0.049349
0.666889 0.705359 0.048480
0.659164 0.698242 0.047254
0.646359 0.689581 0.044863
0.630501 0.679627 0.053676
0.644699 0.669188 0.142126
0.683266 0.660387 0.214338
0.745064 0.647853 0.215760
0.778567 0.651559 -0.056653
0.878692 0.622394 -0.026189
0.979280 0.597328 0.028902
1.000415 0.583397 0.030488
0.999445 0.576957 0.030499
0.998123 0.573876 0.030534
1.039645 0.572535 0.030552
0.766038 0.797363 0.059443
0.762795 0.794324 0.059060
0.758362 0.790525 0.058136
0.751730 0.784363 0.057025
0.743365 0.776162 0.056480
0.719272 0.767253 0.050062
0.716961 0.756074 0.109789
0.739804 0.747465 0.197415
0.780440 0.735170 0.264682
0.840870 0.720031 0.254157
0.865085 0.726848 -0.062407
0.956303 0.698531 -0.027240
1.002187 0.680572 0.034104
1.000091 0.672048 0.032350
0.999344 0.669022 0.031644
1.041871 0.667529 0.031493
0.850862 0.878835 0.086946
0.847850 0.875833 0.085139
0.844234 0.872188 0.082430
0.838787 0.867023 0.078352
0.831590 0.859612 0.074078
0.816002 0.851431 0.067905
0.796833 0.841730 0.071947
0.804842 0.830580 0.173638
0.832355 0.821213 0.254466
0.871735 0.806699 0.315919
0.920459 0.794467 0.269326
0.942323 0.803443 -0.073781
0.998353 0.789031 -0.030692
1.000214 0.779433 0.043734
0.999282 0.776093 0.046190
1.042142 0.774519 0.046669
0.919299 0.945218 0.098221
0.917449 0.943211 0.098269
0.915051 0.941288 0.098317
0.911709 0.938151 0.098278
0.906624 0.933451 0.098008
0.899793 0.927506 0.097047
0.873441 0.920627 0.097967
0.869070 0.911121 0.162990
0.886650 0.903228 0.259336
0.917329 0.892625 0.334198
0.956255 0.877794 0.383052
0.989097 0.870803 0.321538
0.989922 0.889175 0.148509
1.000435 0.882193 0.080926
0.999643 0.879139 0.095660
1.041842 0.877503 0.092112
0.918325 0.944093 0.097773
0.918436 0.944208 0.097774
0.918443 0.944302 0.097777
0.918586 0.944350 0.097787
0.918815 0.944612 0.097807
0.919268 0.944811 0.097821
0.905078 0.944567 0.093829
0.896326 0.943357 0.107407
0.910850 0.939949 0.224438
0.941873 0.939632 0.311042
0.980034 0.932933 0.389831
1.002262 0.929322 0.470866
0.988922 0.952233 0.724196
0.993247 0.967211 0.550118
0.991749 0.964650 0.542349
1.031273 0.961535 0.537568
0.918287 0.944041 0.097774
0.918287 0.944041 0.097774
0.918287 0.944041 0.097774
0.918288 0.944041 0.097774
0.918258 0.944040 0.097774
0.918635 0.944043 0.097835
0.909704 0.944200 0.096147
0.896092 0.944002 0.093937
0.907303 0.941186 0.202987
0.936503 0.942663 0.292745
0.975236 0.938430 0.373562
1.001706 0.936577 0.447408
0.990562 0.955350 0.811518
0.996004 0.981398 0.663647
0.995274 0.981117 0.661648
1.036402 0.979722 0.661825
0.930013 0.956158 0.098975
0.930000 0.956159 0.097061
0.929867 0.956160 0.095448
0.929385 0.956159 0.096845
0.928459 0.956144 0.098236
0.927230 0.956097 0.098215
0.917075 0.956118 0.096753
0.899275 0.956054 0.094323
0.905865 0.953141 0.201250
0.932038 0.954214 0.293481
0.973188 0.953306 0.376313
1.002776 0.950665 0.452147
0.994225 0.965698 0.796307
0.996445 0.994646 0.675880
0.996296 0.994644 0.667168
1.037554 0.993282 0.667329
-0.236089 -0.242473 -0.016510
-0.236240 -0.242452 0.092520
-0.232821 -0.242611 0.178145
-0.065914 -0.242720 0.091019
0.324945 -0.242018 0.076939
0.471889 -0.236859 0.086228
0.610747 -0.228303 0.088605
0.738642 -0.219784 0.083371
0.848989 -0.212724 0.068382
0.948078 -0.208374 0.022822
0.971277 -0.208500 -0.061275
0.969692 -0.210280 -0.119390
0.969398 -0.214887 -0.158578
0.969509 -0.220945 -0.159834
0.968166 -0.223592 -0.149282
1.000023 -0.223635 -0.148440
0.007817 0.029139 0.030733
-0.018642 0.021995 0.043900
0.055499 -0.014802 0.136459
0.241627 -0.017554 0.067561
0.368725 0.032501 0.063037
0.487604 0.082102 0.074986
0.612473 0.114990 0.077912
0.733992 0.134389 0.076342
0.840975 0.144821 0.071898
0.943002 0.150711 0.076984
0.971589 0.151358 0.076629
0.970544 0.151033 0.074565
0.970522 0.150858 0.073287
0.970536 0.150724 0.072319
0.969298 0.150778 0.072354
1.001284 0.149546 0.072163
-0.025938 0.104810 0.058598
-0.029613 0.097659 0.050955
0.084847 0.083337 0.063593
0.213817 0.072188 0.050598
0.333305 0.082382 0.050681
0.457280 0.101743 0.053968
0.586026 0.117504 0.052533
0.712347 0.131082 0.054949
0.821786 0.142742 0.063506
0.927124 0.148551 0.071488
0.972194 0.150094 0.072858
0.970521 0.150238 0.072330
0.970523 0.150423 0.072383
0.970524 0.150529 0.072402
0.969285 0.150613 0.072420
1.001276 0.149380 0.072227
0.116926 0.178206 0.020119
0.113762 0.172759 0.017994
0.133374 0.163562 0.023137
0.198928 0.158578 0.028077
0.304278 0.156552 0.022932
0.427238 0.158343 0.034070
0.557452 0.162444 0.040452
0.686372 0.167898 0.047221
0.799764 0.171275 0.055751
0.905176 0.171435 0.065116
0.973390 0.167057 0.071203
0.970745 0.159546 0.071639
0.970681 0.156402 0.071929
0.970586 0.153780 0.072174
0.969355 0.153154 0.072228
1.001407 0.151879 0.072041
0.218280 0.261395 0.013669
0.214776 0.256954 0.013708
0.209035 0.248462 0.013953
0.233312 0.241711 0.034840
0.298898 0.237505 0.018632
0.405277 0.233309 0.014225
0.528607 0.230610 0.032261
0.657710 0.226188 0.042840
0.777093 0.222055 0.051959
0.882878 0.217850 0.060946
0.972235 0.212323 0.067671
0.972062 0.202772 0.068268
0.971620 0.197965 0.068594
0.971427 0.194115 0.068824
0.970040 0.192233 0.068972
1.001600 0.190463 0.068793
0.306017 0.350901 0.016766
0.302346 0.346998 0.016618
0.294702 0.339258 0.015597
0.295703 0.330067 0.023775
0.331913 0.324016 0.061625
0.399012 0.319834 0.014099
0.506903 0.312455 0.008920
0.628987 0.306078 0.038340
0.753006 0.294584 0.050147
0.861055 0.281422 0.055484
0.961749 0.270799 0.061802
0.976320 0.259691 0.063648
0.974946 0.253085 0.064336
0.974519 0.248403 0.064732
0.973065 0.246102 0.064963
1.005693 0.243872 0.064823
0.395753 0.442407 0.022900
0.391960 0.438537 0.022608
0.385367 0.432042 0.022097
0.376257 0.422574 0.020024
0.386374 0.413811 0.058991
0.432741 0.407482 0.100604
0.498511 0.403927 -0.015484
0.607287 0.392073 -0.008405
0.727554 0.381160 0.040124
0.837530 0.364014 0.053098
0.943272 0.344709 0.054625
0.982548 0.329873 0.055627
0.980645 0.321046 0.056516
0.980184 0.315611 0.057132
0.978780 0.312660 0.057459
1.013150 0.310317 0.057380
0.487549 0.533521 0.030526
0.483960 0.530066 0.030374
0.478246 0.524424 0.029987
0.469024 0.515741 0.027706
0.459551 0.505806 0.037714
0.482098 0.497166 0.109127
0.536231 0.490308 0.136139
0.596608 0.487513 -0.029086
0.704559 0.470598 -0.015464
0.817191 0.454673 0.034198
0.921499 0.433324 0.049655
0.984701 0.414175 0.050482
0.986198 0.402872 0.050920
0.985546 0.396762 0.051253
0.984271 0.393503 0.051465
1.020516 0.391052 0.051403
0.580676 0.623777 0.039531
0.577026 0.620354 0.039315
0.572029 0.615518 0.038789
0.563643 0.607545 0.037485
0.547289 0.598062 0.031450
0.549406 0.587650 0.084941
0.582248 0.579996 0.161154
0.640676 0.570640 0.173173
0.689918 0.570035 -0.042835
0.796173 0.546324 -0.021204
0.900951 0.525542 0.028818
0.983847 0.505192 0.037987
0.992835 0.492265 0.041149
0.991765 0.485790 0.042550
0.989954 0.482625 0.043254
1.028609 0.480397 0.043302
0.673674 0.711695 0.049539
0.670217 0.708227 0.049145
0.665385 0.704143 0.048182
0.657808 0.697038 0.047110
0.645065 0.688109 0.044971
0.629142 0.678229 0.052840
0.643245 0.667973 0.141146
0.681723 0.659095 0.213496
0.743386 0.646645 0.215239
0.777313 0.650361 -0.056506
0.877585 0.621234 -0.026126
0.978099 0.596128 0.028853
1.000470 0.582000 0.030516
0.999509 0.575695 0.030506
0.998178 0.572556 0.030546
1.039556 0.571246 0.030557
0.764746 0.796178 0.059309
0.761608 0.793116 0.058872
0.756935 0.789149 0.057833
0.750359 0.783114 0.056908
0.742209 0.775065 0.056500
0.718166 0.766113 0.049809
0.715566 0.754876 0.108739
0.738388 0.746362 0.196421
0.779081 0.733953 0.263926
0.839333 0.718865 0.253611
0.863976 0.725565 -0.062277
0.955446 0.697156 -0.027176
1.002235 0.679244 0.033889
1.000095 0.670498 0.032114
0.999352 0.667517 0.031444
1.041847 0.665990 0.031269
0.849613 0.877602 0.086222
0.846710 0.874618 0.084417
0.843083 0.871111 0.081442
0.837685 0.865872 0.077602
0.830463 0.858398 0.073538
0.815268 0.850386 0.067457
0.795713 0.840746 0.071198
0.803679 0.829393 0.172722
0.830981 0.820348 0.253461
0.870464 0.805723 0.315167
0.919233 0.793328 0.268830
0.941319 0.802217 -0.073405
0.998100 0.787716 -0.030168
1.000219 0.777976 0.044159
0.999279 0.774697 0.046339
1.042139 0.773079 0.046787
0.918673 0.944470 0.098244
0.916502 0.942588 0.098276
0.914317 0.940497 0.098304
0.910933 0.937551 0.098259
0.905770 0.932723 0.097947
0.899276 0.926816 0.097001
0.872954 0.919936 0.098262
0.868217 0.910338 0.162170
0.885578 0.902475 0.258537
0.916078 0.891603 0.333008
0.954984 0.876832 0.382029
0.988569 0.869511 0.318822
0.989599 0.888042 0.141490
1.000595 0.880779 0.074568
0.999637 0.877667 0.091032
1.041945 0.876045 0.087471
0.918378 0.944150 0.097773
0.918417 0.944181 0.097775
0.918495 0.944352 0.097789
0.918637 0.944398 0.097790
0.918866 0.944544 0.097812
0.919194 0.944800 0.097814
0.905263 0.944702 0.093929
0.896392 0.943220 0.106495
0.910328 0.939726 0.223307
0.941354 0.939539 0.310145
0.979348 0.932675 0.388948
1.002312 0.928902 0.468329
0.988911 0.951584 0.720803
0.993285 0.966476 0.544911
0.991754 0.963725 0.536243
1.031250 0.960595 0.531567
0.918287 0.944041 0.097774
0.918287 0.944041 0.097774
0.918287 0.944041 0.097774
0.918287 0.944041 0.097774
0.918259 0.944040 0.097775
0.918627 0.944043 0.097826
0.910017 0.944204 0.096199
0.896106 0.944068 0.093507
0.906966 0.941230 0.201557
0.935940 0.942555 0.291700
0.974684 0.938780 0.372766
1.001711 0.936582 0.446215
0.991081 0.954819 0.807451
0.995917 0.981476 0.664638
0.995282 0.981160 0.661778
1.036403 0.979770 0.661972
0.930009 0.956141 0.097184
0.930004 0.956137 0.092434
0.929957 0.956138 0.077769
0.929591 0.956149 0.069278
0.928505 0.956158 0.083303
0.926956 0.956140 0.092936
0.916989 0.956177 0.091930
0.899175 0.956143 0.088333
0.905530 0.953093 0.197727
0.931524 0.954210 0.291319
0.972819 0.953347 0.374950
1.002851 0.950673 0.450498
0.995047 0.965219 0.791847
0.996414 0.994599 0.676809
0.996284 0.994546 0.667066
1.037616 0.993278 0.667180
-0.236038 -0.240646 0.100677
-0.236084 -0.240273 0.131873
-0.236545 -0.239111 0.269847
-0.224415 -0.241920 0.359866
0.320790 -0.242725 0.194668
0.499526 -0.242416 0.153053
0.627216 -0.236585 0.164969
0.741928 -0.223808 0.165546
0.847524 -0.213620 0.158542
0.945117 -0.207937 0.144621
0.969535 -0.207657 0.121745
0.967895 -0.209335 -0.019043
0.967906 -0.213913 -0.124129
0.967984 -0.220052 -0.131837
0.966862 -0.222763 -0.120916
0.999058 -0.222888 -0.120115
0.011818 0.057069 0.093875
0.006034 0.051740 0.093128
-0.029476 0.057141 0.234419
0.090085 0.030122 0.320800
0.369342 -0.013299 0.168278
0.510290 0.025627 0.137185
0.625297 0.088409 0.151445
0.736339 0.133968 0.159192
0.839102 0.156369 0.162496
0.939922 0.167345 0.161866
0.970065 0.165887 0.149960
0.969072 0.162487 0.135929
0.969198 0.160992 0.129365
0.969280 0.159711 0.123418
0.968182 0.159129 0.120446
1.000023 0.158126 0.119895
0.026200 0.109759 0.116130
0.022218 0.104168 0.108376
-0.029702 0.099434 0.187864
0.127247 0.070268 0.248638
0.352956 0.028492 0.140545
0.477287 0.058728 0.122018
0.593800 0.100620 0.131292
0.712313 0.134572 0.138460
0.818964 0.152603 0.140277
0.923326 0.160199 0.137583
0.971122 0.160075 0.127655
0.969564 0.157494 0.114579
0.969695 0.156616 0.109500
0.969653 0.155717 0.104269
0.968581 0.155268 0.101513
1.000305 0.154134 0.101057
-0.035482 0.191375 0.122026
-0.035969 0.186228 0.116824
-0.009978 0.175985 0.118992
0.167397 0.159804 0.139963
0.308911 0.145713 0.115646
0.430872 0.150466 0.112202
0.556296 0.161809 0.113327
0.683085 0.170888 0.113323
0.796263 0.175759 0.111278
0.901797 0.175728 0.107308
0.972406 0.170007 0.100153
0.970137 0.160436 0.087808
0.970325 0.156517 0.083574
0.970430 0.154492 0.081163
0.969209 0.153837 0.080330
1.001238 0.152628 0.080134
0.169923 0.269080 0.056644
0.166952 0.264404 0.053116
0.167656 0.255045 0.047550
0.214715 0.244052 0.081668
0.290482 0.237764 0.080088
0.399410 0.232981 0.075680
0.524270 0.229682 0.083294
0.653933 0.225814 0.081247
0.773731 0.221921 0.078679
0.880181 0.217298 0.076788
0.970972 0.211267 0.075544
0.971711 0.201392 0.071424
0.971403 0.196314 0.070128
0.971360 0.192560 0.069660
0.969944 0.190620 0.069597
1.001489 0.188884 0.069421
0.289049 0.352038 0.022048
0.285761 0.347881 0.020694
0.279224 0.339857 0.014258
0.284561 0.329775 0.042938
0.323753 0.322403 0.085922
0.395174 0.317828 0.035181
0.503348 0.310457 0.028554
0.625699 0.303525 0.049122
0.750323 0.292032 0.055513
0.858732 0.279155 0.056992
0.959778 0.268644 0.061428
0.976095 0.257689 0.063681
0.974664 0.251069 0.064421
0.974367 0.246502 0.064839
0.973117 0.244226 0.065074
1.005497 0.242030 0.064947
0.388211 0.440767 0.021578
0.384828 0.436723 0.021226
0.379165 0.430082 0.020438
0.371156 0.420334 0.020324
0.381980 0.411069 0.061971
0.428657 0.404603 0.102308
0.495516 0.401130 -0.015820
0.604333 0.389516 -0.009535
0.724706 0.378760 0.039899
0.835351 0.361572 0.052996
0.941487 0.342537 0.054712
0.982350 0.327745 0.055819
0.980378 0.318983 0.056741
0.979961 0.313578 0.057342
0.978565 0.310740 0.057687
1.012924 0.308409 0.057581
0.484027 0.530905 0.029767
0.480633 0.527404 0.029689
0.475195 0.521616 0.029394
