apk/assets/luts/Lut2.cube
LUT_3D_SIZE 16
-0.071809 0.035063 0.029306
-0.051812 0.032932 0.036724
0.042539 0.029886 0.039505
0.117430 0.062110 0.056171
0.172716 0.073312 0.062853
0.266740 0.083524 -0.037270
0.365310 0.087047 -0.073766
0.462055 0.084735 -0.090692
0.555183 0.079100 -0.104125
0.640029 0.071219 -0.114977
0.702983 0.063691 -0.122118
0.746892 0.057529 -0.126337
0.786705 0.051232 -0.129740
0.823526 0.044899 -0.132524
0.856531 0.038762 -0.134733
0.883906 0.033540 -0.136300
-0.070155 0.041205 0.034787
-0.049555 0.041008 0.038867
0.043189 0.041697 0.042013
0.118390 0.067234 0.063578
0.173412 0.076496 0.070191
0.266944 0.084897 0.005328
0.364580 0.088148 -0.070133
0.460072 0.088919 -0.088822
0.552249 0.085631 -0.102854
0.637036 0.079891 -0.114083
0.700913 0.073851 -0.121515
0.744637 0.068663 -0.125835
0.784283 0.063346 -0.129284
0.820952 0.058112 -0.132115
0.854134 0.053190 -0.134359
0.881706 0.049287 -0.135969
-0.035225 0.075527 0.062863
0.040468 0.072836 0.062184
0.061313 0.068363 0.060283
0.123909 0.076252 0.070718
0.179707 0.085149 0.077848
0.272974 0.097329 0.053117
0.369347 0.115837 -0.061212
0.461280 0.130202 -0.086485
0.549288 0.136804 -0.101878
0.632072 0.139899 -0.113528
0.697833 0.139798 -0.121350
0.740793 0.138040 -0.125618
0.779266 0.135584 -0.128928
0.814971 0.132972 -0.131629
0.847810 0.130148 -0.133796
0.875760 0.127757 -0.135357
0.061536 0.113423 0.075975
0.071931 0.113944 0.076710
0.080493 0.114946 0.078826
0.136244 0.118060 0.080150
0.195084 0.129271 0.083763
0.291478 0.151206 0.066341
0.392273 0.170408 -0.060615
0.484839 0.186081 -0.094038
0.568958 0.197398 -0.109677
0.646917 0.205833 -0.120187
0.713346 0.210630 -0.127266
0.756356 0.210931 -0.130831
0.792525 0.210068 -0.133330
0.825868 0.208761 -0.135277
0.856616 0.207024 -0.136769
0.883105 0.204838 -0.137781
0.081678 0.145792 0.104873
0.082524 0.146656 0.106352
0.103792 0.148152 0.108133
0.141985 0.147604 0.103379
0.208655 0.166693 0.086687
0.313009 0.198326 0.085444
0.420947 0.228032 0.021263
0.513897 0.249816 -0.095661
0.593834 0.265157 -0.114354
0.667184 0.277254 -0.125308
0.731769 0.285720 -0.132138
0.775550 0.288530 -0.135375
0.809045 0.289089 -0.137203
0.839591 0.288808 -0.138474
0.867745 0.287922 -0.139325
0.892317 0.286131 -0.139812
0.087054 0.195143 0.126540
0.089345 0.196622 0.126890
0.110232 0.199818 0.125248
0.151853 0.199631 0.116451
0.209756 0.203600 0.106798
0.323691 0.247549 0.083591
0.440979 0.287131 0.070079
0.539203 0.315407 -0.062098
0.618479 0.333835 -0.112041
0.688409 0.347519 -0.125929
0.750141 0.357196 -0.133461
0.795741 0.361013 -0.137183
0.827161 0.361584 -0.138718
0.854764 0.360936 -0.139570
0.880248 0.359515 -0.140051
0.902702 0.357157 -0.140197
0.090437 0.256290 0.148236
0.093403 0.258262 0.147866
0.111507 0.264178 0.142719
0.155933 0.269462 0.124593
0.220914 0.260526 0.117200
0.312887 0.285689 0.096824
0.446558 0.341827 0.065442
0.552520 0.376998 0.039809
0.635225 0.399406 -0.078041
0.704523 0.414320 -0.117856
0.764870 0.424309 -0.129105
0.812766 0.428026 -0.134750
0.843880 0.427290 -0.136968
0.869867 0.425088 -0.138239
0.893247 0.421986 -0.139012
0.914032 0.418805 -0.138589
0.093415 0.327774 0.169344
0.095209 0.330094 0.168616
0.107215 0.338247 0.160563
0.150218 0.349323 0.129531
0.232140 0.338426 0.119428
0.316666 0.338657 0.107990
0.425504 0.377474 0.070756
0.551825 0.431364 0.036318
0.640932 0.457450 -0.027245
0.711917 0.474423 -0.081565
0.772691 0.485248 -0.116392
0.822475 0.489436 -0.127500
0.854950 0.487913 -0.132116
0.880718 0.484341 -0.134731
0.903048 0.479862 -0.136260
0.922687 0.476179 -0.132748
0.091385 0.404647 0.189126
0.091779 0.407380 0.188297
0.099010 0.417347 0.179348
0.141165 0.432850 0.139340
0.238431 0.428000 0.119694
0.334020 0.414339 0.108951
0.420195 0.424490 0.084112
0.529568 0.467961 0.039995
0.637475 0.510307 -0.000829
0.712097 0.527141 -0.024010
0.774859 0.538035 -0.081604
0.825979 0.541630 -0.110972
0.861069 0.539583 -0.122502
0.887353 0.534934 -0.127851
0.909273 0.528519 -0.130647
0.928683 0.524745 -0.108633
0.082672 0.483295 0.207488
0.082959 0.486262 0.206657
0.089609 0.497352 0.198136
0.132970 0.515563 0.155405
0.240134 0.519292 0.123167
0.354506 0.504861 0.106244
0.435221 0.492725 0.094161
0.520772 0.512979 0.063022
0.619516 0.551867 0.014473
0.707678 0.579327 -0.001761
0.774582 0.588549 -0.014738
0.827550 0.591068 -0.073112
0.865502 0.587644 -0.104250
0.892573 0.581101 -0.115536
0.914267 0.573125 -0.120879
0.933251 0.568196 -0.094089
0.075621 0.560796 0.224379
0.076053 0.563617 0.223463
0.082769 0.574500 0.215383
0.126545 0.593234 0.172085
0.237085 0.603526 0.130671
0.367729 0.594985 0.105586
0.457738 0.574734 0.096834
0.534667 0.576119 0.074497
0.609324 0.595696 0.027054
0.693663 0.624526 0.009333
0.769925 0.641006 -0.002045
0.827696 0.639844 -0.010456
0.869088 0.634673 -0.038900
0.896964 0.626850 -0.078642
0.918451 0.617046 -0.103712
0.936947 0.609953 -0.077240
0.073509 0.638486 0.239814
0.073986 0.640903 0.238856
0.079833 0.650398 0.231105
0.120693 0.667013 0.187496
0.229466 0.679958 0.138961
0.372166 0.678083 0.105129
0.473950 0.657311 0.098643
0.550416 0.643515 0.082995
0.618415 0.652347 0.036881
0.682940 0.666963 0.017376
0.758591 0.685834 0.006859
0.823993 0.690769 -0.001657
0.869897 0.681198 -0.009663
0.900366 0.670650 -0.023226
0.922329 0.659543 -0.040246
0.940167 0.651031 -0.028963
0.069791 0.713830 0.250863
0.070176 0.715765 0.249767
0.074857 0.723539 0.242236
0.112245 0.737035 0.198172
0.216554 0.749706 0.144762
0.366237 0.752513 0.102997
0.479272 0.735989 0.097419
0.561993 0.716889 0.087887
0.628349 0.715387 0.069731
0.687390 0.722197 0.023543
0.751075 0.732672 0.011260
0.815513 0.738178 0.005127
0.868958 0.732651 -0.000216
0.901203 0.717577 -0.004141
0.924790 0.702485 -0.008567
0.942846 0.691236 0.005579
0.062914 0.781768 0.257530
0.063245 0.783474 0.256369
0.066994 0.789579 0.249073
0.100726 0.800131 0.205561
0.199271 0.811292 0.149319
0.352057 0.816574 0.100517
0.474131 0.805676 0.095003
0.564759 0.788269 0.087381
0.630169 0.778071 0.075523
0.688515 0.779296 0.032779
0.747840 0.784750 0.013920
0.809168 0.789394 0.008359
0.863673 0.784281 0.005386
0.902244 0.771451 0.003160
0.926479 0.751678 0.001187
0.944353 0.735816 0.018768
0.038086 0.834592 0.261661
0.040804 0.835887 0.260520
0.052386 0.840825 0.253841
0.088062 0.849543 0.210831
0.182813 0.859399 0.153531
0.335138 0.866049 0.099600
0.461638 0.860719 0.094043
0.556466 0.847668 0.087089
0.624925 0.835987 0.073369
0.682587 0.831290 0.039817
0.740061 0.833293 0.020242
0.800088 0.837551 0.011759
0.857541 0.836330 0.009080
0.900447 0.825195 0.008791
0.928416 0.807723 0.008696
0.945123 0.788269 0.028170
-0.015208 0.874230 0.263113
-0.011749 0.875258 0.262106
0.003425 0.879298 0.256483
0.063968 0.886402 0.214691
0.169589 0.894825 0.158306
0.319510 0.901921 0.101105
0.446404 0.900410 0.095894
0.542243 0.890865 0.089861
0.613835 0.881386 0.078710
0.671652 0.874054 0.059122
0.727385 0.872284 0.036954
0.785944 0.875248 0.021359
0.845632 0.878025 0.014911
0.895798 0.873243 0.015082
0.927480 0.858247 0.017949
0.946783 0.843145 0.039040
-0.089069 0.039072 0.040513
-0.074892 0.039055 0.041505
0.041310 0.039347 0.042458
0.116148 0.066316 0.065137
0.171882 0.075998 0.072463
0.267131 0.084772 0.039242
0.368506 0.087090 -0.061654
0.468770 0.084772 -0.084268
0.564515 0.078767 -0.100469
0.650541 0.070437 -0.112883
0.713836 0.062511 -0.120793
0.757314 0.056119 -0.125352
0.796296 0.049645 -0.128970
0.832313 0.043119 -0.131911
0.864519 0.036777 -0.134223
0.891125 0.031335 -0.135863
-0.086127 0.045578 0.045262
-0.071580 0.044755 0.044840
0.044064 0.044895 0.046263
0.116892 0.068001 0.067895
0.172108 0.077150 0.076563
0.266928 0.086348 0.058395
0.368464 0.092710 -0.048211
0.468805 0.095401 -0.077735
0.564730 0.093635 -0.096303
0.651569 0.089175 -0.110038
0.717023 0.083811 -0.118831
0.760516 0.079137 -0.123724
0.799230 0.074201 -0.127536
0.834801 0.069315 -0.130614
0.866827 0.064582 -0.133054
0.893452 0.060933 -0.134793
-0.058567 0.082237 0.066379
-0.026713 0.081418 0.067286
0.065604 0.080309 0.070191
0.123299 0.086427 0.075284
0.178350 0.095769 0.080411
0.272827 0.110005 0.072574
0.374214 0.127213 -0.031765
0.471844 0.139644 -0.076175
0.564058 0.145913 -0.096323
0.648910 0.148383 -0.110325
0.716116 0.147319 -0.119395
0.759305 0.144689 -0.124170
0.797034 0.141272 -0.127768
0.831775 0.137587 -0.130645
0.863396 0.133629 -0.132928
0.890263 0.130212 -0.134565
0.051406 0.114278 0.077656
0.067560 0.115186 0.080828
0.078271 0.116707 0.086221
0.134659 0.120606 0.085880
0.192848 0.132950 0.085785
0.290939 0.157014 0.079944
0.396535 0.177885 -0.030609
0.494054 0.193845 -0.085796
0.581970 0.205008 -0.105494
0.662271 0.212768 -0.117924
0.729917 0.216431 -0.126000
0.773007 0.215748 -0.129950
0.808436 0.213923 -0.132619
0.840939 0.211560 -0.134675
0.870434 0.208753 -0.136215
0.895997 0.205701 -0.137257
0.081260 0.146680 0.107495
0.082683 0.148063 0.110067
0.101919 0.149755 0.111716
0.141429 0.149925 0.106872
0.206215 0.168260 0.092116
0.311723 0.202384 0.086635
0.423188 0.233916 0.057691
0.519794 0.256381 -0.086484
0.602633 0.271625 -0.109938
0.677858 0.282880 -0.122973
0.743382 0.290059 -0.130871
0.787553 0.291834 -0.134547
0.820735 0.291374 -0.136563
0.850762 0.290036 -0.137940
0.878303 0.288076 -0.138841
0.902270 0.285341 -0.139350
0.086663 0.196270 0.130226
0.088525 0.198567 0.132256
0.109039 0.202168 0.130327
0.150626 0.204342 0.119411
0.208224 0.205210 0.111648
0.322025 0.249879 0.089428
0.441575 0.292008 0.072726
0.542362 0.321563 -0.033335
0.623544 0.339985 -0.105529
0.694616 0.352878 -0.122506
0.756861 0.361529 -0.131550
0.802826 0.364341 -0.136040
0.834187 0.364135 -0.137877
0.861691 0.362710 -0.138903
0.886931 0.360468 -0.139515
0.909057 0.357435 -0.139671
0.088669 0.257796 0.153290
0.092013 0.261087 0.155252
0.110657 0.267429 0.149156
0.152201 0.275596 0.127383
0.220391 0.264911 0.120416
0.312450 0.288478 0.104159
0.446437 0.345527 0.072407
0.554122 0.382550 0.047563
0.638178 0.405490 -0.060409
0.708040 0.419901 -0.111416
0.768694 0.429031 -0.125492
0.817004 0.431615 -0.132688
0.848220 0.430255 -0.135524
0.874066 0.427299 -0.137162
0.897379 0.423673 -0.138144
0.917706 0.420350 -0.137525
0.091592 0.329636 0.175610
0.093682 0.333794 0.177939
0.106198 0.342250 0.168019
0.142703 0.355574 0.132501
0.230340 0.344936 0.122537
0.317696 0.343777 0.112047
0.426376 0.381355 0.082693
0.552916 0.435832 0.046225
0.643050 0.463221 0.014989
0.714096 0.480258 -0.064792
0.774942 0.490347 -0.109244
0.824914 0.493625 -0.123424
0.857439 0.491640 -0.129314
0.883364 0.487403 -0.132655
0.905681 0.482309 -0.134609
0.925033 0.478749 -0.130404
0.090173 0.406908 0.196374
0.090136 0.412059 0.199424
0.097809 0.422024 0.188137
0.130613 0.438861 0.144782
0.234415 0.435548 0.123825
0.335037 0.421544 0.112424
0.421861 0.429363 0.092829
0.530730 0.471924 0.060009
0.639292 0.515173 0.032876
0.714049 0.532743 0.006867
0.776891 0.543508 -0.065008
0.827579 0.546543 -0.102365
0.862729 0.544002 -0.117060
0.889239 0.538854 -0.123961
0.911137 0.531945 -0.127514
0.930189 0.527751 -0.100883
0.081447 0.485803 0.215479
0.081190 0.491765 0.219279
0.088551 0.502681 0.208559
0.120863 0.521210 0.165085
0.234056 0.526966 0.129703
0.354227 0.513278 0.110345
0.437073 0.498949 0.099136
0.522383 0.517370 0.075481
0.621142 0.556259 0.045705
0.709544 0.584144 0.032288
0.776410 0.593691 0.018213
0.828953 0.596073 -0.054685
0.866952 0.592282 -0.093808
0.893937 0.585487 -0.108361
0.915531 0.577219 -0.115110
0.934377 0.571602 -0.085208
0.074593 0.563273 0.232800
0.074655 0.569342 0.237010
0.082340 0.579940 0.226882
0.114202 0.598325 0.185269
0.229452 0.610501 0.139605
0.365843 0.603780 0.110315
0.459692 0.583049 0.102081
0.537006 0.582046 0.083976
0.611081 0.600263 0.053887
0.695404 0.629070 0.041933
0.771743 0.645525 0.031938
0.829236 0.644298 0.023065
0.870335 0.639176 -0.011815
0.898158 0.631084 -0.061937
0.919526 0.621072 -0.093634
0.937797 0.613369 -0.068457
0.072710 0.640680 0.248330
0.072936 0.646168 0.252696
0.079799 0.655355 0.243020
0.108765 0.671464 0.203230
0.220806 0.685794 0.149824
0.368185 0.685765 0.110043
0.474270 0.665356 0.103909
0.552035 0.649611 0.090541
0.621091 0.658292 0.060683
0.684841 0.671568 0.047337
0.760359 0.690288 0.039839
0.825482 0.694911 0.032022
0.871357 0.685178 0.023159
0.901574 0.674555 0.006908
0.923296 0.663504 -0.013849
0.940927 0.654413 -0.009726
0.069094 0.715607 0.259338
0.069232 0.720241 0.263729
0.075177 0.727782 0.254264
0.101713 0.740625 0.215744
0.208014 0.754265 0.157410
0.360237 0.758476 0.108250
0.477970 0.743106 0.102973
0.563242 0.723881 0.094125
0.629908 0.720498 0.079994
0.689443 0.727335 0.051512
0.753063 0.737366 0.043221
0.817052 0.742448 0.038422
0.870268 0.736346 0.033284
0.902296 0.721242 0.029154
0.925947 0.706055 0.024148
0.943716 0.694496 0.031686
0.062244 0.783265 0.265755
0.062316 0.787119 0.270029
0.067590 0.792930 0.260868
0.092081 0.803010 0.224495
0.191581 0.814566 0.163651
0.344712 0.820733 0.106238
0.471147 0.811536 0.101015
0.564994 0.794335 0.094053
0.630852 0.783210 0.084479
0.689710 0.783769 0.058441
0.749426 0.789236 0.045705
0.810867 0.793720 0.041559
0.865148 0.788112 0.039115
0.903337 0.774828 0.036973
0.927517 0.754939 0.034726
0.945253 0.738755 0.046034
0.035040 0.835723 0.269454
0.038579 0.838874 0.273709
0.052250 0.843723 0.265122
0.080747 0.851946 0.230292
0.176035 0.861818 0.169172
0.326820 0.869069 0.105802
0.457495 0.865498 0.100527
0.555192 0.852777 0.094330
0.624750 0.841080 0.084575
0.682831 0.835550 0.064294
0.740758 0.837190 0.051417
0.801150 0.841375 0.044933
0.858891 0.840165 0.042941
0.901826 0.828814 0.042881
0.929506 0.810901 0.042794
0.946058 0.790918 0.056394
-0.019273 0.875191 0.270456
-0.015396 0.877800 0.274798
0.004128 0.881588 0.267086
0.058912 0.888381 0.234096
0.163622 0.896782 0.174945
0.310803 0.904052 0.107702
0.441806 0.904240 0.102677
0.539905 0.895045 0.097329
0.612762 0.885939 0.089433
0.671189 0.878123 0.077251
0.727300 0.875724 0.063612
0.786345 0.878615 0.053223
0.846404 0.881310 0.048410
0.896954 0.876698 0.048821
0.928600 0.861475 0.051430
0.947941 0.845970 0.067532
-0.115022 0.045877 0.052304
-0.108041 0.048968 0.060543
0.029316 0.051868 0.070140
0.107513 0.066438 0.071077
0.165237 0.076286 0.078108
0.265755 0.085426 0.083898
0.375358 0.087932 0.078951
0.484963 0.084709 0.062052
0.588205 0.077316 -0.020940
0.678199 0.067687 -0.066376
0.743118 0.058693 -0.083985
0.786123 0.051640 -0.093998
0.823828 0.044605 -0.101876
0.858078 0.037559 -0.109991
0.888345 0.030708 -0.116489
0.913162 0.024709 -0.120865
-0.113432 0.049832 0.058250
-0.105462 0.053517 0.067036
0.041002 0.060475 0.078504
0.109174 0.073981 0.080287
0.165733 0.082683 0.084532
0.265403 0.092116 0.084975
0.374962 0.096443 0.082439
0.483595 0.095926 0.069571
0.585539 0.092182 0.041389
0.675318 0.086694 -0.049485
0.741978 0.080538 -0.070542
0.784971 0.075382 -0.080996
0.822474 0.069852 -0.088982
0.856384 0.064316 -0.096892
0.886838 0.058789 -0.103303
0.911773 0.054369 -0.107729
-0.098468 0.084156 0.079760
-0.087630 0.087413 0.085686
0.065232 0.095356 0.096876
0.115905 0.104657 0.101784
0.171188 0.112737 0.102055
0.270799 0.126351 0.087318
0.382560 0.138620 0.086094
0.490558 0.147511 0.078778
0.589858 0.154256 0.065984
0.678432 0.159550 0.048102
0.748494 0.161479 0.019076
0.791951 0.161023 -0.033180
0.828361 0.159291 -0.044106
0.860844 0.157047 -0.050876
0.890107 0.154383 -0.055676
0.914597 0.152114 -0.059030
-0.066911 0.116702 0.091616
-0.043080 0.117952 0.097309
0.077200 0.121644 0.108364
0.123901 0.127538 0.111853
0.181267 0.137887 0.108507
0.282460 0.160312 0.089874
0.395911 0.183225 0.084375
0.501880 0.201991 0.074636
0.596953 0.215914 0.060120
0.682327 0.226082 0.039496
0.753350 0.231788 -0.025703
0.797510 0.232375 -0.041028
0.832296 0.231315 -0.048127
0.863271 0.229478 -0.052796
0.891197 0.227155 -0.056047
0.915042 0.224547 -0.058238
0.064076 0.148860 0.116561
0.075963 0.150303 0.119023
0.084294 0.154190 0.123731
0.131941 0.158871 0.124814
0.194430 0.172021 0.118705
0.301365 0.206011 0.107783
0.419482 0.239915 0.080230
0.523574 0.265390 0.067770
0.612696 0.283093 0.050124
0.692610 0.295842 0.017136
0.760888 0.303605 -0.040748
0.806628 0.305452 -0.049589
0.839602 0.304724 -0.053777
0.868634 0.302863 -0.056459
0.895044 0.300218 -0.058200
0.917683 0.296918 -0.059057
0.080096 0.199253 0.141735
0.084844 0.201395 0.143930
0.089150 0.208652 0.146179
0.138376 0.217118 0.141353
0.202286 0.216053 0.130185
0.312841 0.254669 0.118663
0.436225 0.298174 0.092490
0.542800 0.331007 0.059168
0.629079 0.352054 0.039412
0.703786 0.366518 -0.027157
0.768466 0.375613 -0.045436
0.816265 0.378209 -0.052369
0.848032 0.377326 -0.055175
0.875236 0.374947 -0.057071
0.899919 0.371568 -0.058478
0.921240 0.367710 -0.058783
0.085313 0.262359 0.169295
0.085511 0.265405 0.171368
0.088857 0.276958 0.170246
0.135468 0.290719 0.156560
0.213287 0.285817 0.140406
0.307278 0.300471 0.127650
0.441757 0.352731 0.107877
0.553348 0.392267 0.073838
0.640995 0.417590 0.030738
0.713157 0.433494 -0.023652
0.775303 0.443283 -0.039206
0.824758 0.446077 -0.047501
0.856374 0.444487 -0.051514
0.882508 0.440990 -0.054306
0.905578 0.436486 -0.056325
0.925289 0.432423 -0.055636
0.079492 0.335628 0.196331
0.079108 0.339437 0.198609
0.082854 0.354403 0.194118
0.122682 0.371294 0.170520
0.217877 0.370209 0.147024
0.313926 0.365761 0.132054
0.427153 0.394819 0.117256
0.552762 0.446113 0.097248
0.645719 0.475291 0.066063
0.718343 0.493561 0.015469
0.780044 0.503982 -0.022599
0.830508 0.507073 -0.036645
0.863584 0.504981 -0.043314
0.889448 0.500385 -0.047665
0.911609 0.494668 -0.050646
0.930421 0.490484 -0.046992
0.075331 0.414297 0.221188
0.073870 0.418983 0.223952
0.078627 0.436697 0.219118
0.108864 0.454977 0.191125
0.215865 0.461030 0.153802
0.325967 0.449795 0.133388
0.427002 0.451735 0.121509
0.534429 0.486186 0.107036
0.642353 0.527635 0.094773
0.718377 0.545822 0.072618
0.781360 0.556778 0.016187
0.832236 0.559820 -0.016193
0.867947 0.557069 -0.030201
0.894299 0.551511 -0.037539
0.916104 0.544397 -0.041936
0.934599 0.538781 -0.021373
0.071085 0.494341 0.243382
0.071181 0.499694 0.246616
0.080264 0.519264 0.244011
0.099303 0.537638 0.217299
0.209757 0.550518 0.163990
0.335397 0.542637 0.134303
0.441327 0.527971 0.124281
0.530007 0.537602 0.111586
0.626001 0.571069 0.104120
0.714327 0.597404 0.095211
0.781044 0.606683 0.081851
0.833352 0.608746 0.024293
0.871402 0.604797 -0.007827
0.898293 0.597805 -0.022346
0.919629 0.589321 -0.028917
0.937795 0.582118 -0.007960
0.068859 0.571935 0.262457
0.068659 0.577389 0.265818
0.076295 0.596895 0.265152
0.093777 0.614203 0.240651
0.200988 0.630751 0.176132
0.336721 0.630192 0.136542
0.458766 0.614037 0.128529
0.543286 0.605338 0.116828
0.618609 0.619094 0.105853
0.700776 0.644140 0.102811
0.776873 0.658503 0.095402
0.833897 0.656569 0.086155
0.874701 0.651063 0.057444
0.902225 0.642678 0.016915
0.923163 0.632510 -0.008942
0.940991 0.623435 0.005736
0.068396 0.648420 0.278541
0.068256 0.653320 0.281845
0.074735 0.670753 0.282402
0.089630 0.685558 0.259702
0.191411 0.702224 0.189091
0.331035 0.706799 0.139778
0.466326 0.693684 0.130407
0.556018 0.675801 0.121312
0.627777 0.678745 0.110071
0.691531 0.689031 0.102786
0.765908 0.705115 0.101935
0.830340 0.707082 0.095636
0.875744 0.696584 0.086864
0.905364 0.685759 0.072854
0.926821 0.674502 0.056018
0.944036 0.664083 0.053349
0.065073 0.722066 0.289503
0.064840 0.726213 0.292617
0.070786 0.740610 0.293849
0.084520 0.752365 0.272697
0.180799 0.766875 0.200257
0.319503 0.773921 0.143250
0.463565 0.766322 0.130034
0.562096 0.748295 0.122980
0.632598 0.739356 0.114530
0.694393 0.744715 0.106049
0.758817 0.753380 0.102136
0.822074 0.756005 0.100988
0.874486 0.747588 0.096863
0.906390 0.731544 0.092503
0.929500 0.716071 0.087057
0.946669 0.703733 0.086654
0.053602 0.788521 0.295085
0.052164 0.791761 0.297870
0.058023 0.803255 0.299941
0.076289 0.812219 0.281040
0.167956 0.824010 0.208791
0.303130 0.831712 0.146104
0.451884 0.828851 0.129129
0.558133 0.814237 0.123594
0.630276 0.801433 0.117330
0.690766 0.799087 0.110794
0.752345 0.803483 0.104755
0.815476 0.807605 0.102729
0.869628 0.800209 0.102414
0.907260 0.785101 0.101112
0.931139 0.764297 0.098451
0.948386 0.747284 0.102491
0.017964 0.839869 0.297250
0.019815 0.842693 0.299841
0.031773 0.852330 0.302235
0.065624 0.859620 0.285319
0.156344 0.869230 0.214919
0.286264 0.877217 0.148933
0.435612 0.878429 0.129617
0.545805 0.868093 0.124743
0.620367 0.856997 0.119992
0.680746 0.849814 0.115237
0.740580 0.849628 0.109982
0.802828 0.853292 0.105925
0.862244 0.852056 0.105455
0.905695 0.839773 0.106920
0.933002 0.820221 0.107620
0.949478 0.798965 0.115773
-0.036757 0.878506 0.296558
-0.033710 0.880703 0.299077
-0.005578 0.888692 0.301861
0.053351 0.894740 0.286870
0.148305 0.902710 0.219237
0.272937 0.910210 0.151527
0.419553 0.913842 0.132504
0.528171 0.907031 0.128181
0.605105 0.898826 0.124476
0.666616 0.890868 0.120997
0.724760 0.886898 0.117187
0.785135 0.888344 0.112801
0.847299 0.891345 0.110071
0.899769 0.887182 0.111326
0.931978 0.871491 0.114834
0.951194 0.854468 0.128339
-0.128960 0.050091 0.073428
-0.126702 0.052882 0.079185
-0.064338 0.057190 0.094605
0.082932 0.071185 0.110499
0.150789 0.078701 0.114773
0.258749 0.086051 0.123660
0.378377 0.087493 0.120409
0.494477 0.082940 0.106744
0.601340 0.074259 0.090444
0.692937 0.063778 0.074614
0.758642 0.054485 0.060789
0.800866 0.047585 0.050276
0.837662 0.040803 0.040755
0.870526 0.034132 0.032532
0.899810 0.027606 -0.007948
0.923567 0.021907 -0.034211
-0.128302 0.053864 0.079329
-0.125620 0.055426 0.084895
-0.057516 0.065386 0.098642
0.085809 0.082901 0.114205
0.152633 0.087517 0.117927
0.259945 0.092654 0.124817
0.380285 0.092840 0.122065
0.495799 0.088263 0.107662
0.601545 0.081283 0.091298
0.693079 0.074942 0.076110
0.760482 0.069604 0.062677
0.802490 0.065840 0.052499
0.838966 0.061739 0.042818
0.871450 0.057761 0.032872
0.900249 0.053897 0.025792
0.923981 0.050929 0.014721
-0.124525 0.075284 0.097911
-0.121159 0.081958 0.101561
0.021343 0.098526 0.112585
0.095638 0.111779 0.124986
0.157015 0.114811 0.126837
0.262031 0.121738 0.129591
0.381863 0.128076 0.126124
0.496909 0.131863 0.115517
0.600918 0.136531 0.102407
0.692145 0.144154 0.090221
0.763694 0.149454 0.078692
0.806850 0.151754 0.070409
0.842402 0.152298 0.063133
0.873904 0.152086 0.056346
0.901981 0.151293 0.049831
0.925277 0.150482 0.043591
-0.119584 0.119499 0.116204
-0.117310 0.121132 0.118573
0.049555 0.127224 0.127026
0.107736 0.136195 0.138159
0.161715 0.142058 0.138103
0.266297 0.156879 0.137778
0.387305 0.176888 0.133485
0.500582 0.195842 0.125292
0.601010 0.211808 0.114875
0.690288 0.224987 0.103705
0.764446 0.235474 0.093976
0.810681 0.240717 0.088282
0.845100 0.243202 0.084100
0.875249 0.244411 0.080592
0.902241 0.244898 0.077655
0.925192 0.245003 0.075458
-0.115336 0.150848 0.130416
-0.112902 0.152363 0.132270
0.061954 0.159284 0.141050
0.115793 0.170703 0.154455
0.172551 0.179125 0.150445
0.280966 0.204911 0.143017
0.406430 0.236515 0.134556
0.518157 0.263935 0.124431
0.613660 0.285309 0.113636
0.698987 0.301740 0.102952
0.771080 0.312769 0.093796
0.819684 0.317036 0.087878
0.852989 0.317691 0.084079
0.881373 0.316920 0.081094
0.906696 0.315275 0.078683
0.928383 0.313078 0.077308
-0.102737 0.202294 0.157135
-0.099560 0.204326 0.159184
0.072281 0.214287 0.168011
0.120243 0.230015 0.179908
0.188343 0.235277 0.165252
0.295721 0.259891 0.153880
0.422915 0.298955 0.140331
0.535639 0.333447 0.126891
0.627603 0.358170 0.114949
0.706956 0.376112 0.104466
0.775015 0.387985 0.095987
0.825641 0.392551 0.089736
0.858482 0.392117 0.085815
0.885820 0.389772 0.082564
0.909866 0.386174 0.079862
0.930466 0.382282 0.079312
-0.075256 0.267849 0.190098
-0.074913 0.270786 0.192523
0.075410 0.283862 0.200761
0.117846 0.304732 0.209780
0.195726 0.317402 0.181753
0.297178 0.319004 0.164657
0.432308 0.359918 0.150822
0.547186 0.398457 0.135708
0.639539 0.426131 0.122052
0.715240 0.444865 0.111612
0.779741 0.457091 0.103217
0.831088 0.461776 0.095698
0.863756 0.460860 0.090686
