apk/assets/luts/Lut3.cube
LUT_3D_SIZE 6
0.016157 0.016163 0.016156
0.101115 0.044808 0.040472
0.341760 0.093006 0.059911
0.608483 0.139400 0.068744
0.801026 0.186474 0.075653
0.834343 0.196565 0.076861
0.072454 0.078663 0.072748
0.088449 0.086280 0.074633
0.313881 0.119850 0.054736
0.606619 0.163112 0.060127
0.816496 0.209101 0.068356
0.842769 0.214489 0.070432
0.212562 0.235338 0.218598
0.229164 0.254654 0.234083
0.303848 0.294524 0.247718
0.641503 0.390332 0.126566
0.872855 0.408791 0.008568
0.894715 0.395933 0.000866
0.423889 0.472893 0.432043
0.442902 0.492017 0.449223
0.532115 0.558862 0.507318
0.616114 0.582162 0.481462
0.879880 0.685816 0.388537
0.932846 0.677822 0.318039
0.588689 0.653784 0.597575
0.615520 0.679722 0.620501
0.732459 0.773419 0.697813
0.815779 0.826061 0.749811
0.862892 0.832481 0.714519
0.901988 0.855186 0.718292
0.654456 0.725891 0.662881
0.672486 0.741849 0.676863
0.786345 0.831600 0.751178
0.886557 0.902086 0.825329
0.919429 0.914159 0.822142
0.920048 0.901748 0.790576
0.041026 0.039600 0.045210
0.102786 0.051034 0.066808
0.351409 0.078146 0.063386
0.607526 0.132225 0.070872
0.800495 0.185334 0.076030
0.835730 0.195137 0.077665
0.078547 0.083778 0.083478
0.085660 0.084810 0.081248
0.321913 0.114081 0.056396
0.618190 0.157206 0.063582
0.823145 0.211707 0.068304
0.847938 0.219334 0.069131
0.213341 0.235336 0.221277
0.229555 0.254007 0.236828
0.304288 0.296919 0.254628
0.645721 0.387247 0.139099
0.878455 0.410142 0.020356
0.899344 0.400150 0.003574
0.423233 0.471624 0.432739
0.440086 0.489566 0.448843
0.530321 0.559074 0.509878
0.619666 0.587042 0.489362
0.884516 0.687506 0.390749
0.933183 0.679444 0.329871
0.580633 0.645834 0.591867
0.605799 0.670929 0.614049
0.725988 0.769762 0.697459
0.820755 0.831299 0.756399
0.868067 0.839004 0.724140
0.903878 0.859476 0.726777
0.641024 0.712228 0.652104
0.657557 0.727405 0.665624
0.776364 0.824133 0.747464
0.887203 0.902724 0.827233
0.920989 0.915994 0.826290
0.921707 0.904164 0.795654
0.119815 0.117932 0.153143
0.111413 0.106759 0.142575
0.293215 0.127719 0.194584
0.607496 0.091852 0.118736
0.813984 0.139810 0.097329
0.854381 0.156166 0.093226
0.135600 0.140513 0.163823
0.128594 0.129607 0.153186
0.252792 0.141854 0.191191
0.621526 0.118250 0.129366
0.839164 0.166832 0.104755
0.867105 0.177390 0.093700
0.230897 0.250316 0.252243
0.240909 0.261342 0.262816
0.268387 0.272563 0.271316
0.650735 0.330630 0.208200
0.892765 0.375009 0.154498
0.916113 0.381454 0.149700
0.417940 0.461273 0.436778
0.429803 0.474585 0.448758
0.473634 0.514476 0.483248
0.611283 0.588586 0.515753
0.891367 0.654619 0.387283
0.931981 0.645554 0.361248
0.555593 0.616593 0.573340
0.569503 0.631961 0.587806
0.645542 0.703990 0.652857
0.816081 0.831154 0.766097
0.877341 0.852634 0.753983
0.913289 0.874974 0.761241
0.606647 0.673913 0.624660
0.611990 0.679511 0.630764
0.693449 0.755478 0.700801
0.878095 0.897923 0.829903
0.928482 0.924976 0.848422
0.929514 0.914684 0.818283
0.209917 0.207858 0.275377
0.198884 0.195190 0.263433
0.183858 0.171934 0.236967
0.539315 0.194358 0.322649
0.777150 0.132197 0.242193
0.837372 0.127398 0.218722
0.223260 0.225209 0.279680
0.217304 0.218080 0.273444
0.196330 0.187673 0.246093
0.529575 0.208886 0.334809
0.801937 0.144681 0.262045
0.846040 0.143203 0.241983
0.301353 0.323444 0.350629
0.309096 0.331849 0.359075
0.294939 0.308022 0.338240
0.509792 0.333737 0.405437
0.883979 0.315251 0.331908
0.915783 0.326005 0.318139
0.421091 0.458062 0.458728
0.430860 0.468632 0.469500
0.445999 0.483583 0.482595
0.532670 0.539556 0.533934
0.891613 0.583051 0.437977
0.940052 0.590093 0.425303
0.559862 0.614220 0.592388
0.571788 0.626868 0.605092
0.600738 0.656711 0.631259
0.717569 0.755534 0.722568
0.886349 0.866582 0.798911
0.926680 0.884328 0.794242
0.608552 0.669607 0.639641
0.612699 0.673458 0.644633
0.641806 0.702999 0.671636
0.776830 0.820032 0.781757
0.936169 0.936493 0.886135
0.947823 0.937199 0.870685
0.254167 0.252355 0.341039
0.247399 0.244360 0.335030
0.231891 0.224552 0.318833
0.303833 0.265929 0.344368
0.723036 0.232237 0.401582
0.787971 0.192326 0.355034
0.274631 0.276070 0.357628
0.272276 0.273160 0.355582
0.249576 0.244730 0.334001
0.308605 0.273359 0.354022
0.735847 0.243569 0.417449
0.782962 0.209151 0.379589
0.365947 0.388229 0.440950
0.370945 0.393516 0.446332
0.356739 0.370946 0.429067
0.355845 0.344886 0.411651
0.744125 0.354672 0.508353
0.803653 0.323093 0.488768
0.444368 0.478689 0.506435
0.452769 0.487631 0.515608
0.467225 0.500791 0.529672
0.473150 0.493759 0.528958
0.752176 0.579432 0.647304
0.913643 0.552534 0.604339
0.549106 0.595405 0.602168
0.558672 0.605568 0.612571
0.576197 0.623526 0.630073
0.615309 0.659203 0.663240
0.790511 0.794791 0.792514
0.949928 0.849125 0.800548
0.610164 0.663543 0.661730
0.611562 0.664500 0.663816
0.631417 0.684734 0.683091
0.695899 0.746094 0.735048
0.865821 0.886174 0.868855
0.960661 0.953782 0.919961
0.259372 0.257576 0.348793
0.253858 0.251101 0.343948
0.239511 0.232972 0.330348
0.259825 0.239547 0.338106
0.675188 0.294382 0.457530
0.764544 0.228544 0.403502
0.276040 0.276813 0.362635
0.276613 0.277334 0.362970
0.256428 0.252205 0.344771
0.272431 0.251918 0.347991
0.699574 0.284929 0.454556
0.760830 0.239353 0.416639
0.365309 0.385691 0.444173
0.370672 0.391800 0.449107
0.361805 0.375809 0.437374
0.347077 0.341682 0.414020
0.688735 0.387957 0.525035
0.765390 0.343199 0.506873
0.446522 0.479611 0.516205
0.452998 0.486692 0.522001
0.468244 0.500734 0.535914
0.475829 0.496997 0.538907
0.628292 0.590525 0.619041
0.825743 0.567636 0.659634
0.535496 0.578611 0.596187
0.542573 0.586402 0.602845
0.555039 0.599224 0.615037
0.586778 0.627448 0.644144
0.703012 0.717174 0.734298
0.909588 0.838178 0.859005
0.589376 0.638567 0.647267
0.591001 0.640242 0.648858
0.604027 0.653500 0.661677
0.637190 0.686082 0.693139
0.714809 0.755507 0.760799
0.933474 0.938054 0.931159
