apk/assets/luts/Lut3.cube
LUT_3D_SIZE 16
0.016157 0.016163 0.016156
0.025486 0.021599 0.021487
0.056661 0.032371 0.031440
0.101115 0.044808 0.040472
0.164509 0.062247 0.048557
0.246915 0.078323 0.054988
0.341760 0.093006 0.059911
0.437053 0.108408 0.063356
0.525764 0.124830 0.065778
0.608483 0.139400 0.068744
0.687567 0.156922 0.071390
0.750284 0.172741 0.073617
0.801026 0.186474 0.075653
0.823594 0.192774 0.076663
0.829102 0.194745 0.076752
0.834343 0.196565 0.076861
0.023521 0.023194 0.022589
0.026241 0.023958 0.022833
0.051969 0.033067 0.030707
0.090797 0.043693 0.038802
0.147528 0.059175 0.046756
0.220691 0.076213 0.052987
0.310069 0.090988 0.057979
0.404645 0.106997 0.061377
0.497120 0.123993 0.063712
0.585424 0.139607 0.066498
0.668828 0.157422 0.069056
0.740736 0.174435 0.071669
0.795064 0.189526 0.073480
0.825996 0.198106 0.074816
0.831708 0.199813 0.075043
0.836868 0.201581 0.075177
0.047335 0.047472 0.043782
0.047675 0.046010 0.041316
0.060905 0.051837 0.039768
0.085873 0.057927 0.041452
0.144343 0.065728 0.046683
0.214988 0.079494 0.052271
0.305980 0.094426 0.057110
0.403180 0.110883 0.060349
0.498880 0.128769 0.062479
0.589685 0.145507 0.064913
0.675564 0.164178 0.067290
0.750255 0.181054 0.070323
0.802856 0.196268 0.071911
0.828433 0.203750 0.072876
0.834166 0.205207 0.073213
0.839422 0.206648 0.073475
0.072454 0.078663 0.072748
0.069121 0.074516 0.068844
0.072892 0.076989 0.070424
0.088449 0.086280 0.074633
0.137700 0.095971 0.053035
0.215554 0.106545 0.054215
0.313881 0.119850 0.054736
0.417876 0.133896 0.055803
0.516001 0.148895 0.057441
0.606619 0.163112 0.060127
0.691697 0.179877 0.062912
0.765907 0.195884 0.066217
0.816496 0.209101 0.068356
0.832752 0.213728 0.069035
0.837877 0.214033 0.069779
0.842769 0.214489 0.070432
0.108605 0.118407 0.112231
0.107737 0.117707 0.110737
0.111037 0.121668 0.113604
0.116828 0.127456 0.117302
0.138448 0.138301 0.120203
0.204448 0.154065 0.078375
0.303088 0.171407 0.070968
0.421299 0.186717 0.054576
0.533332 0.198386 0.046130
0.630593 0.211728 0.041773
0.716033 0.228126 0.041378
0.789024 0.244676 0.043072
0.837451 0.257852 0.044434
0.848171 0.259596 0.045833
0.852295 0.258281 0.047774
0.856207 0.255979 0.050163
0.154029 0.169388 0.159075
0.154602 0.170147 0.159448
0.159000 0.175217 0.163717
0.167364 0.185212 0.170862
0.179288 0.192247 0.175861
0.209542 0.206659 0.177325
0.290704 0.230367 0.132219
0.410049 0.256596 0.101062
0.533579 0.277343 0.071928
0.642078 0.288474 0.038985
0.733069 0.297212 0.022218
0.808373 0.309700 0.011316
0.857215 0.323127 0.001369
0.868349 0.323142 0.000866
0.872941 0.319071 0.000866
0.876582 0.314262 0.007739
0.212562 0.235338 0.218598
0.214051 0.237166 0.219798
0.219805 0.243806 0.225292
0.229164 0.254654 0.234083
0.242973 0.266192 0.244399
0.263416 0.276099 0.248910
0.303848 0.294524 0.247718
0.391316 0.329004 0.220846
0.526387 0.367014 0.147932
0.641503 0.390332 0.126566
0.739125 0.398057 0.079169
0.819710 0.401755 0.030796
0.872855 0.408791 0.008568
0.887819 0.407757 0.003841
0.891862 0.402619 0.001596
0.894715 0.395933 0.000866
0.287999 0.320474 0.294555
0.290352 0.323279 0.296647
0.298238 0.332306 0.304250
0.307481 0.342747 0.313208
0.327090 0.360012 0.329199
0.349210 0.374240 0.340984
0.374171 0.384016 0.340971
0.416061 0.402792 0.338404
0.494650 0.439173 0.330104
0.631764 0.470954 0.219914
0.736597 0.491667 0.196307
0.823192 0.498168 0.156670
0.882237 0.500194 0.114814
0.902135 0.497764 0.093821
0.905962 0.490598 0.079334
0.909112 0.481952 0.062726
0.362250 0.404082 0.369279
0.364641 0.406737 0.371615
0.371285 0.413987 0.378119
0.378971 0.421906 0.385213
0.400715 0.440706 0.402208
0.429807 0.462587 0.421582
0.454970 0.474795 0.428980
0.478789 0.480844 0.422899
0.520284 0.496245 0.412196
0.594829 0.528993 0.401632
0.717036 0.564042 0.323599
0.822425 0.588098 0.267287
0.889292 0.598104 0.245961
0.914559 0.597391 0.229668
0.918440 0.589425 0.217170
0.921662 0.578710 0.199537
0.423889 0.472893 0.432043
0.427416 0.476544 0.435297
0.434877 0.484214 0.442220
0.442902 0.492017 0.449223
0.464486 0.510776 0.465734
0.502503 0.540205 0.491001
0.532115 0.558862 0.507318
0.552491 0.565183 0.508245
0.574388 0.568792 0.498452
0.616114 0.582162 0.481462
0.684819 0.613468 0.473793
0.788339 0.655813 0.440308
0.879880 0.685816 0.388537
0.920148 0.694920 0.358778
0.927863 0.688248 0.338176
0.932846 0.677822 0.318039
0.481310 0.536132 0.490002
0.486191 0.540917 0.494244
0.494689 0.549409 0.501878
0.503187 0.557686 0.509189
0.521933 0.574294 0.523709
0.567681 0.610686 0.554239
0.606197 0.637351 0.576917
0.628287 0.648710 0.586916
0.646158 0.652990 0.584882
0.666479 0.655093 0.572105
0.706437 0.666646 0.552857
0.767663 0.698057 0.551082
0.841314 0.745524 0.569514
0.883930 0.773716 0.580136
0.894184 0.774499 0.569612
0.902951 0.768327 0.545030
0.536452 0.596538 0.545255
0.542462 0.602351 0.550384
0.551864 0.611632 0.558691
0.561157 0.620644 0.566676
0.577251 0.635119 0.579336
0.625216 0.674165 0.611747
0.673178 0.708982 0.639805
0.702289 0.727594 0.658067
0.722518 0.737656 0.667783
0.738679 0.740941 0.663632
0.755503 0.740382 0.646928
0.790237 0.750882 0.629848
0.840506 0.782568 0.639127
0.881121 0.816633 0.664659
0.890531 0.822749 0.667439
0.893889 0.821188 0.661884
0.588689 0.653784 0.597575
0.595633 0.660449 0.603444
0.605661 0.670267 0.612185
0.615520 0.679722 0.620501
0.629397 0.692315 0.631390
0.677156 0.731913 0.664069
0.732459 0.773419 0.697813
0.769693 0.799189 0.722256
0.796213 0.816294 0.741341
0.815779 0.826061 0.749811
0.828239 0.827086 0.742689
0.838791 0.823451 0.724120
0.862892 0.832481 0.714519
0.891863 0.852007 0.722340
0.900254 0.857147 0.723814
0.901988 0.855186 0.718292
0.632023 0.701405 0.640518
0.639559 0.708459 0.646899
0.649057 0.717685 0.655014
0.656844 0.724759 0.661202
0.670745 0.736920 0.671700
0.720996 0.778021 0.705846
0.775490 0.818952 0.739357
0.816309 0.848074 0.767114
0.847909 0.869854 0.791608
0.871944 0.885378 0.808921
0.887180 0.892464 0.812682
0.895306 0.892216 0.804038
0.900448 0.888170 0.787852
0.909971 0.889285 0.777349
0.912273 0.887755 0.771352
0.911703 0.883997 0.764500
0.650202 0.721221 0.658632
0.655995 0.726450 0.663225
0.662065 0.731858 0.667937
0.668380 0.737281 0.672690
0.681629 0.748670 0.682495
0.733325 0.790416 0.717043
0.784391 0.828531 0.748161
0.825291 0.857898 0.776030
0.858248 0.881066 0.801996
0.884372 0.898657 0.822149
0.901505 0.908208 0.829999
0.911433 0.910948 0.825857
0.915042 0.907268 0.811765
0.917010 0.901249 0.794097
0.918201 0.899507 0.788327
0.918639 0.899039 0.786678
0.654456 0.725891 0.662881
0.660130 0.731003 0.667431
0.666224 0.736333 0.672146
0.672486 0.741849 0.676863
0.685231 0.752729 0.686278
0.736745 0.794456 0.720819
0.786345 0.831600 0.751178
0.826536 0.860443 0.778095
0.859769 0.883915 0.804143
0.886557 0.902086 0.825329
0.904706 0.912837 0.835621
0.915444 0.916811 0.833975
0.919429 0.914159 0.822142
0.919377 0.906679 0.803524
0.920020 0.902623 0.792726
0.920048 0.901748 0.790576
0.023288 0.020487 0.020638
0.038519 0.026195 0.026289
0.067045 0.034059 0.033770
0.105046 0.043935 0.041082
0.164828 0.060493 0.048682
0.245379 0.076921 0.055032
0.340184 0.091479 0.060103
0.434666 0.106988 0.063522
0.523449 0.122516 0.066227
0.605816 0.137935 0.068940
0.685365 0.155893 0.071477
0.748831 0.172026 0.073694
0.800283 0.185955 0.075743
0.823954 0.192363 0.076882
0.829700 0.194154 0.077086
0.834897 0.196002 0.077186
0.024074 0.023677 0.023124
0.029137 0.024683 0.023718
0.054908 0.033001 0.031272
0.091340 0.042777 0.038829
0.146117 0.057726 0.046617
0.218351 0.074425 0.052962
0.307823 0.089217 0.058131
0.403066 0.105057 0.061709
0.496007 0.122276 0.064124
0.584830 0.137474 0.067124
0.668175 0.155571 0.069640
0.740282 0.173996 0.071792
0.795045 0.189002 0.073699
0.826633 0.197934 0.074982
0.832234 0.199867 0.075101
0.837374 0.201702 0.075208
0.046664 0.046833 0.043342
0.046499 0.045165 0.040914
0.060408 0.049729 0.037166
0.084912 0.055757 0.041230
0.143017 0.063575 0.046405
0.213465 0.077730 0.052265
0.304666 0.092876 0.057269
0.402621 0.108914 0.060788
0.498637 0.127102 0.062944
0.590025 0.143337 0.065681
0.675435 0.162787 0.067803
0.750354 0.180691 0.070472
0.803329 0.195720 0.072210
0.828933 0.203396 0.073110
0.834545 0.205102 0.073317
0.839729 0.206561 0.073568
0.071144 0.077059 0.071523
0.068082 0.073178 0.067857
0.071809 0.075736 0.069514
0.086927 0.084971 0.073898
0.136581 0.094486 0.053735
0.215074 0.105141 0.054350
0.313568 0.118107 0.054780
0.418120 0.132115 0.056226
0.516953 0.146933 0.058167
0.606961 0.161520 0.060789
0.692100 0.178445 0.063550
0.766565 0.194932 0.066777
0.817099 0.208658 0.068653
0.833461 0.213490 0.069262
0.838481 0.214094 0.069843
0.843210 0.214461 0.070529
0.107916 0.117555 0.111668
0.106980 0.116710 0.110248
0.110359 0.120759 0.113217
0.116107 0.126676 0.116949
0.137321 0.137498 0.120078
0.204066 0.153061 0.078560
0.302970 0.170040 0.072142
0.421379 0.185378 0.055235
0.533587 0.197276 0.046230
0.631584 0.210053 0.042431
0.717557 0.226103 0.042807
0.790090 0.243562 0.043975
0.838846 0.256498 0.045789
0.849655 0.258113 0.047251
0.853881 0.256928 0.049039
0.857851 0.254789 0.051255
0.153460 0.168596 0.158819
0.153903 0.169178 0.159106
0.158256 0.174180 0.163332
0.166830 0.184440 0.170720
0.178193 0.191453 0.175748
0.208621 0.206113 0.177576
0.290869 0.229315 0.130780
0.410000 0.255315 0.103129
0.533619 0.275624 0.073675
0.642297 0.286950 0.040547
0.733431 0.296051 0.022429
0.809395 0.308688 0.011302
0.858910 0.321608 0.001304
0.869600 0.322278 0.000866
0.873688 0.318869 0.000866
0.877452 0.314006 0.008158
0.211964 0.234475 0.218405
0.213234 0.236021 0.219454
0.218917 0.242583 0.224871
0.228386 0.253647 0.233629
0.241670 0.265169 0.243926
0.262179 0.275389 0.249117
0.303166 0.294198 0.248241
0.391721 0.328235 0.219289
0.526146 0.365808 0.150962
0.641567 0.388532 0.128678
0.739497 0.396479 0.081432
0.820407 0.400730 0.033968
0.873823 0.407922 0.010468
0.888333 0.406950 0.004669
0.892321 0.402073 0.001987
0.895298 0.395486 0.000866
0.286871 0.318922 0.293956
0.289696 0.322298 0.296406
0.297470 0.331187 0.303893
0.306686 0.341744 0.312808
0.325522 0.358620 0.328424
0.347593 0.373211 0.340763
0.373259 0.383679 0.341585
0.415651 0.402763 0.339233
0.494556 0.438951 0.330467
0.632008 0.470018 0.220163
0.736806 0.490423 0.198322
0.823637 0.496573 0.157964
0.883090 0.498762 0.116384
0.902362 0.496367 0.096182
0.906269 0.489450 0.082039
0.909379 0.480761 0.065666
0.361344 0.402790 0.368925
0.363831 0.405669 0.371179
0.370288 0.412828 0.377615
0.377697 0.420664 0.384609
0.398757 0.439013 0.401205
0.427624 0.460923 0.420732
0.453863 0.474371 0.429496
0.478447 0.480979 0.423918
0.520166 0.496518 0.413474
0.594765 0.529243 0.402954
0.717481 0.563602 0.323459
0.822524 0.586790 0.269285
0.889766 0.596674 0.247609
0.914567 0.595942 0.231651
0.918492 0.587979 0.219185
0.921687 0.577508 0.202007
0.422906 0.471656 0.431505
0.426232 0.475204 0.434629
0.433318 0.482588 0.441305
0.441009 0.490214 0.448165
0.462117 0.508673 0.464469
0.499404 0.537809 0.489581
0.530551 0.557991 0.507227
0.552150 0.565271 0.509049
0.574390 0.569208 0.499707
0.616104 0.582694 0.483106
0.685033 0.614137 0.475560
0.788956 0.655628 0.439906
0.881127 0.684951 0.386372
0.920924 0.693714 0.357192
0.928335 0.686665 0.337205
0.932761 0.676366 0.319474
0.479439 0.534214 0.488823
0.484251 0.538928 0.493005
0.492259 0.547048 0.500275
0.500594 0.555231 0.507608
0.519140 0.571816 0.522136
0.563900 0.607805 0.552501
0.603869 0.635788 0.576221
0.627865 0.648700 0.587467
0.646378 0.653497 0.586046
0.666613 0.655623 0.573481
0.706696 0.667445 0.554657
0.768191 0.698869 0.552746
0.842157 0.746124 0.570463
0.884810 0.773875 0.580147
0.894810 0.774070 0.568564
0.903837 0.767841 0.543504
0.533633 0.593688 0.543238
0.539750 0.599676 0.548520
0.548820 0.608721 0.556635
0.557708 0.617405 0.564364
0.573435 0.631687 0.576884
0.620932 0.670854 0.609572
0.670204 0.706980 0.638811
0.701566 0.727276 0.658252
0.722681 0.738101 0.668689
0.739138 0.741638 0.665005
0.756132 0.741301 0.648687
0.790845 0.751965 0.631981
0.841331 0.783726 0.641140
0.881761 0.817670 0.666665
0.890807 0.823336 0.669013
0.894216 0.821675 0.663173
0.585357 0.650495 0.595076
0.592133 0.657032 0.600832
0.601714 0.666547 0.609305
0.611288 0.675802 0.617488
0.624944 0.688306 0.628379
0.672391 0.728077 0.661491
0.728567 0.770740 0.696406
0.768474 0.798542 0.722196
0.796240 0.816544 0.741962
0.816253 0.826707 0.750970
0.829047 0.828080 0.744335
0.839678 0.824657 0.726213
0.863881 0.833815 0.716879
0.892673 0.853198 0.724473
0.900749 0.858072 0.725837
0.902420 0.856228 0.720440
0.628233 0.697604 0.637584
0.635549 0.704582 0.643866
0.644137 0.712910 0.651265
0.651599 0.719806 0.657373
0.665590 0.732184 0.668137
0.715772 0.773847 0.702989
0.771198 0.815927 0.737710
0.814749 0.847163 0.766842
0.847632 0.869880 0.791915
0.872196 0.885756 0.809694
0.887759 0.893073 0.813926
0.895997 0.892994 0.805540
0.901218 0.889112 0.789604
0.910667 0.890218 0.779193
0.912812 0.888728 0.773345
0.912225 0.884974 0.766559
0.645509 0.716554 0.654870
0.651176 0.721736 0.659514
0.656815 0.726735 0.663892
0.662863 0.732039 0.668558
0.676114 0.743581 0.678602
0.727580 0.785696 0.713782
0.779716 0.825135 0.746094
0.823496 0.856653 0.775426
0.857549 0.880664 0.801919
0.884102 0.898573 0.822474
0.901752 0.908461 0.830841
0.911846 0.911429 0.827051
0.915529 0.907831 0.813130
0.917507 0.901995 0.795640
0.918771 0.900317 0.789991
0.919231 0.899861 0.788437
0.649785 0.721233 0.659199
0.655468 0.726377 0.663739
0.660982 0.731346 0.668119
0.667012 0.736576 0.672777
0.679522 0.747514 0.682181
0.731212 0.789820 0.717594
0.781753 0.828163 0.749035
0.824515 0.859107 0.777413
0.859025 0.883417 0.804001
0.886279 0.901996 0.825604
0.904824 0.913027 0.836378
0.915764 0.917238 0.835140
0.919993 0.914905 0.823785
0.919867 0.907486 0.805352
0.920589 0.903338 0.794304
0.920634 0.902577 0.792283
0.029243 0.027390 0.028462
0.042907 0.030238 0.033646
0.075215 0.037177 0.042153
0.121008 0.043997 0.043789
0.171824 0.056384 0.049800
0.249916 0.072836 0.055986
0.342917 0.088558 0.060851
0.435479 0.105112 0.064016
0.523312 0.120244 0.066859
0.605318 0.136942 0.069214
0.684858 0.155355 0.071605
0.748873 0.171537 0.073889
0.800411 0.185695 0.075863
0.824259 0.192202 0.077006
0.830079 0.193847 0.077273
0.835400 0.195438 0.077491
0.030011 0.029509 0.030052
0.035083 0.029845 0.031721
0.069080 0.035876 0.038736
0.104112 0.042221 0.041058
0.151113 0.054704 0.047361
0.219287 0.071960 0.053303
0.308206 0.087638 0.058434
0.403629 0.103690 0.062072
0.497033 0.120441 0.064717
0.585225 0.136749 0.067381
0.668708 0.155087 0.069868
0.741112 0.173667 0.072026
0.795714 0.188870 0.073863
0.826966 0.197725 0.075131
0.832603 0.199539 0.075293
0.837896 0.201177 0.075503
0.049015 0.050380 0.050024
0.046904 0.047520 0.046696
0.062231 0.049463 0.040445
0.091544 0.052888 0.042705
0.146340 0.060965 0.046642
0.215450 0.075858 0.052578
0.306611 0.091315 0.057681
0.404856 0.107469 0.061285
0.501054 0.125909 0.063460
0.592655 0.142033 0.066380
0.678275 0.161441 0.068667
0.752354 0.180993 0.070635
0.805057 0.195935 0.072393
0.829721 0.203149 0.073341
0.835274 0.205118 0.073435
0.840393 0.206918 0.073527
0.071819 0.077249 0.073089
0.068935 0.073633 0.069398
0.072440 0.076252 0.071140
0.086198 0.084865 0.075229
0.136657 0.093845 0.057622
0.216870 0.104648 0.054917
0.316474 0.117622 0.054932
0.421532 0.131530 0.056520
0.520468 0.146375 0.058610
0.610477 0.161266 0.061238
0.695157 0.178486 0.063911
0.769232 0.195952 0.066719
0.819360 0.209880 0.068495
0.834914 0.214370 0.069117
0.840006 0.215459 0.069503
0.844611 0.216225 0.069965
0.108558 0.118108 0.112733
0.107788 0.117434 0.111494
0.111172 0.121382 0.114673
0.116810 0.127412 0.118427
0.137123 0.137803 0.121438
0.205520 0.153395 0.081048
0.305546 0.170465 0.074580
0.423978 0.186119 0.056456
0.536235 0.198032 0.046153
0.634758 0.210669 0.042379
0.721012 0.226623 0.042985
0.793203 0.245132 0.043549
0.841630 0.257012 0.046096
0.852472 0.258685 0.047530
0.856879 0.257860 0.049122
0.860642 0.256401 0.050888
0.154099 0.169155 0.159820
0.154652 0.169866 0.160221
0.159146 0.174996 0.164655
0.167755 0.185255 0.172160
0.178533 0.192208 0.177183
0.209263 0.207101 0.179286
0.293410 0.230253 0.130973
0.412424 0.256196 0.106429
0.536118 0.276478 0.076571
0.644724 0.288217 0.042861
0.735917 0.297630 0.022278
0.812139 0.310486 0.010693
0.861587 0.322609 0.000866
0.871850 0.323288 0.000866
0.875709 0.320750 0.000866
0.879089 0.316880 0.006153
0.212710 0.235106 0.219565
0.214029 0.236711 0.220664
0.219899 0.243444 0.226336
0.229581 0.254798 0.235240
0.242565 0.266461 0.245580
0.263192 0.276880 0.251249
0.304854 0.296123 0.250683
0.394244 0.329848 0.220405
0.528264 0.367433 0.155075
0.643723 0.389448 0.132596
0.741674 0.397907 0.085878
0.822524 0.402331 0.038649
0.875860 0.409752 0.013562
0.889371 0.408969 0.006611
0.893378 0.404131 0.003140
0.896753 0.398132 0.000866
0.287776 0.319700 0.295405
0.290487 0.322955 0.297731
0.298693 0.332407 0.305583
0.307744 0.342747 0.314292
0.326065 0.359442 0.329631
0.348325 0.374505 0.342641
0.374907 0.385818 0.344332
0.417878 0.405119 0.342068
0.496602 0.440856 0.332767
0.634214 0.471277 0.222863
0.738536 0.491324 0.202272
0.825704 0.497582 0.161764
0.884891 0.500129 0.121363
0.902924 0.497772 0.102465
0.906960 0.491154 0.088957
0.910319 0.483000 0.073577
0.361844 0.403046 0.370028
0.364358 0.406033 0.372333
0.370957 0.413499 0.378773
0.378191 0.421266 0.385673
0.399050 0.439534 0.402238
0.427941 0.461649 0.422026
0.454686 0.475735 0.431532
0.480253 0.483110 0.426635
0.522189 0.498782 0.416354
0.596697 0.531257 0.405611
0.719737 0.565046 0.325352
0.824289 0.588136 0.273400
0.891129 0.597715 0.251640
0.914980 0.597085 0.236584
0.918851 0.589432 0.224677
0.922067 0.579139 0.208243
0.423223 0.471818 0.432264
0.426311 0.475171 0.435207
0.433306 0.482620 0.441915
0.440764 0.490136 0.448677
0.462124 0.508959 0.465323
0.498945 0.537887 0.490352
0.531070 0.559013 0.508848
0.553763 0.567149 0.511412
0.576261 0.571340 0.502436
0.618086 0.585006 0.486236
0.687002 0.616381 0.478583
0.790938 0.657732 0.442789
0.882846 0.686466 0.388877
0.921273 0.694926 0.361163
0.928386 0.687904 0.341765
0.932995 0.678016 0.324318
0.478891 0.533668 0.488918
0.483342 0.538147 0.492895
0.491571 0.546489 0.500387
0.499658 0.554499 0.507535
0.518677 0.571618 0.522573
0.562861 0.607379 0.552894
0.603873 0.636377 0.577379
0.629198 0.650373 0.589462
0.648396 0.655684 0.588603
0.668802 0.658097 0.576557
0.708823 0.670047 0.557988
0.770326 0.701517 0.556146
0.843968 0.748511 0.573911
0.885699 0.775583 0.583516
0.894818 0.775332 0.572076
0.903743 0.769175 0.547461
0.532190 0.592313 0.542579
0.537899 0.597931 0.547552
0.547168 0.607247 0.555897
0.555732 0.615680 0.563406
0.572062 0.630592 0.576540
0.619318 0.669938 0.609477
0.669535 0.707097 0.639731
0.702807 0.728770 0.660136
0.724821 0.740279 0.671229
0.741654 0.744261 0.668025
0.758478 0.743845 0.651934
0.793164 0.754754 0.635656
0.843597 0.786634 0.645141
0.882932 0.819777 0.670248
0.891341 0.824926 0.672148
0.894692 0.823264 0.666331
0.582982 0.648209 0.593443
0.589642 0.654743 0.599244
0.599371 0.664431 0.607873
0.608445 0.673260 0.615728
0.622962 0.686664 0.627416
0.670512 0.726941 0.661161
0.727225 0.770308 0.696944
0.769172 0.799697 0.723856
0.798306 0.818668 0.744346
0.818691 0.829204 0.753875
0.831524 0.830668 0.747565
0.842127 0.827345 0.729542
0.866232 0.836672 0.720748
0.893978 0.855380 0.728085
0.901449 0.859690 0.728858
0.903157 0.857796 0.723513
0.625138 0.694556 0.635314
0.632473 0.701716 0.641739
0.640293 0.709191 0.648485
0.647426 0.715803 0.654310
0.662426 0.729271 0.666133
0.712899 0.771512 0.701770
0.769083 0.814554 0.737507
0.814621 0.847434 0.767768
0.848702 0.870977 0.793433
0.873370 0.886852 0.811221
0.889136 0.894460 0.815851
0.897371 0.894418 0.807524
0.902593 0.890652 0.791807
0.911591 0.891455 0.781214
0.913517 0.890023 0.775885
0.913033 0.886494 0.769347
0.641171 0.712099 0.651423
0.646739 0.717223 0.656003
0.652248 0.722285 0.660443
0.657833 0.727233 0.664736
0.672563 0.740163 0.676039
0.724250 0.782861 0.712006
0.776529 0.822760 0.745015
0.822358 0.855912 0.775446
0.857726 0.880795 0.802482
0.884481 0.898871 0.823188
0.902240 0.908893 0.831728
0.912341 0.911869 0.828025
0.916224 0.908419 0.814161
0.918064 0.902499 0.796823
0.919289 0.901098 0.791684
0.919762 0.900663 0.790135
0.645296 0.716671 0.655595
0.650960 0.721846 0.660196
0.656466 0.726849 0.664607
0.661909 0.731656 0.668828
0.675736 0.743752 0.679451
0.728388 0.787450 0.716186
0.778748 0.825927 0.747977
0.823494 0.858420 0.777577
0.859278 0.883637 0.804686
0.886679 0.902277 0.826309
0.905254 0.913431 0.837227
0.916295 0.917704 0.836130
0.920452 0.915434 0.824960
0.920421 0.908130 0.806718
0.921108 0.904133 0.795968
0.921170 0.903402 0.794008
0.041026 0.039600 0.045210
0.043632 0.041206 0.046048
0.055063 0.049554 0.053436
0.102786 0.051034 0.066808
0.181420 0.052436 0.053216
0.259292 0.063888 0.058066
0.351409 0.078146 0.063386
0.442777 0.094756 0.066883
0.527400 0.113241 0.069024
0.607526 0.132225 0.070872
0.685177 0.153569 0.072242
0.749137 0.170826 0.074170
0.800495 0.185334 0.076030
0.824655 0.191998 0.077149
0.830447 0.193639 0.077411
0.835730 0.195137 0.077665
0.040367 0.039995 0.044364
0.041045 0.039636 0.043119
0.051624 0.046154 0.049627
0.092462 0.047273 0.059451
0.158849 0.050911 0.049601
0.225582 0.064798 0.054754
0.313742 0.080893 0.060035
0.408561 0.097817 0.063742
0.500790 0.115700 0.066285
0.586933 0.134377 0.068252
0.669400 0.154254 0.070236
0.741910 0.173354 0.072246
0.796464 0.188668 0.074061
0.827335 0.197540 0.075268
0.832943 0.199365 0.075418
0.838219 0.200889 0.075664
0.057630 0.060201 0.062816
0.053118 0.054812 0.056970
0.055759 0.054999 0.056799
0.089337 0.054302 0.062534
0.152151 0.055647 0.048890
0.221964 0.069073 0.053899
0.313083 0.085049 0.059262
0.411320 0.101580 0.063094
0.506971 0.120042 0.065598
0.596021 0.138901 0.067718
0.680038 0.160446 0.069254
0.753743 0.180609 0.070992
0.806258 0.195751 0.072657
0.830159 0.202837 0.073550
0.835750 0.204860 0.073628
0.840854 0.206626 0.073733
0.078547 0.083778 0.083478
0.074586 0.079254 0.078957
0.075987 0.079505 0.079137
0.085660 0.084810 0.081248
0.138869 0.090137 0.068842
0.221043 0.100656 0.059091
0.321913 0.114081 0.056396
0.428538 0.127477 0.057973
0.528449 0.141731 0.060778
0.618190 0.157206 0.063582
0.701029 0.176617 0.065513
0.773318 0.196835 0.066961
0.823145 0.211707 0.068304
0.837752 0.216093 0.068825
0.843012 0.217782 0.068970
0.847938 0.219334 0.069131
0.110776 0.119999 0.116429
0.109787 0.118994 0.115150
0.113015 0.122659 0.118383
0.117488 0.127374 0.121623
0.134823 0.136630 0.125163
0.206013 0.151450 0.095421
0.310769 0.167146 0.083277
0.429415 0.182769 0.062699
0.541392 0.195780 0.047953
0.640359 0.208761 0.043607
0.727121 0.224941 0.044747
0.799636 0.243524 0.046033
0.846938 0.256074 0.048013
0.857642 0.258158 0.049108
0.862255 0.258164 0.050157
0.866355 0.257853 0.051268
0.155299 0.169939 0.162328
0.155727 0.170480 0.162658
0.159969 0.175232 0.167037
0.168287 0.184943 0.174710
0.176551 0.191341 0.179209
0.207183 0.206602 0.182816
0.297479 0.228347 0.131077
0.415826 0.253129 0.116187
0.539657 0.273193 0.085413
0.648126 0.286306 0.050751
0.739292 0.297148 0.023788
0.816707 0.310294 0.010103
0.865612 0.322601 0.000866
0.876388 0.323101 0.000866
0.880924 0.320555 0.000866
0.884959 0.317162 0.007862
0.213341 0.235336 0.221277
0.214595 0.236810 0.222398
0.220151 0.243085 0.228027
0.229555 0.254007 0.236828
0.240524 0.265302 0.246293
0.260782 0.276186 0.253755
0.304288 0.296919 0.254628
0.397567 0.329387 0.217963
0.529726 0.365614 0.164342
0.645721 0.387247 0.139099
0.743908 0.396858 0.093602
0.824916 0.402488 0.047266
0.878455 0.410142 0.020356
0.891088 0.409364 0.012748
0.895545 0.405306 0.008187
0.899344 0.400150 0.003574
0.288222 0.319810 0.296664
0.290886 0.322955 0.299016
0.298671 0.331847 0.306627
0.307722 0.342230 0.315310
0.323767 0.357626 0.329275
0.345983 0.373442 0.343462
0.374305 0.386729 0.347605
0.418930 0.406936 0.345736
