apk/assets/luts/Lut4.cube
#Created by: Fabian Raducan
#Copyright: (C) Copyright 2017 Welovepresets.com - Fabian Raducan
TITLE "WLP_CINEMATIC_26_F"
#LUT size
LUT_3D_SIZE 8
#data domain
#LUT data points
DOMAIN_MIN 0.000000 0.000000 0.000000
DOMAIN_MAX 0.903226 0.903226 0.903226
0.009552 0.014038 0.017395
0.233246 0.000000 0.016144
0.415894 0.000000 0.015228
0.592010 0.000000 0.013733
0.739258 0.000000 0.014099
0.849670 0.000000 0.016937
0.912323 0.000000 0.021606
0.962433 0.000000 0.027985
0.000000 0.146027 0.049377
0.192780 0.152283 0.014801
0.386627 0.140198 0.010773
0.569641 0.094849 0.009033
0.723846 0.050079 0.009827
0.838928 0.050079 0.014526
0.912323 0.050079 0.021027
0.962433 0.050079 0.029205
0.000000 0.283569 0.101776
0.176331 0.249298 0.071594
0.354675 0.288177 0.012085
0.538757 0.286224 0.005188
0.700745 0.255920 0.005157
0.822205 0.212341 0.012207
0.912323 0.163208 0.021454
0.962433 0.113525 0.032349
0.000000 0.425568 0.158142
0.152527 0.400757 0.116180
0.319458 0.378204 0.100922
0.512848 0.427185 0.007294
0.668976 0.421356 0.003510
0.798553 0.386261 0.012726
0.906311 0.350983 0.025330
0.962433 0.319305 0.039978
0.000000 0.561768 0.214966
0.124329 0.544006 0.182220
0.316986 0.509003 0.142975
0.461578 0.520508 0.113831
0.647247 0.551941 0.013367
0.772156 0.531799 0.022522
0.883911 0.501495 0.037445
0.962433 0.470825 0.057068
0.000000 0.677185 0.264221
0.138367 0.665894 0.241669
0.326660 0.646240 0.204346
0.488922 0.609161 0.205475
0.598236 0.648438 0.135010
0.755981 0.657562 0.051819
0.862030 0.632294 0.067993
0.960175 0.607361 0.084167
0.008301 0.774933 0.308197
0.244995 0.766754 0.296417
0.397827 0.753876 0.278259
0.506317 0.734863 0.257294
0.613556 0.725830 0.255402
0.718048 0.756775 0.171997
0.849274 0.751953 0.114899
0.940826 0.725677 0.126404
0.234436 0.860016 0.353577
0.353577 0.854736 0.349091
0.467560 0.846832 0.341553
0.547272 0.837372 0.320801
0.652008 0.820343 0.330200
0.722565 0.834442 0.302246
0.822998 0.852325 0.220062
0.929108 0.838837 0.192657
0.000000 0.026276 0.108032
0.155487 0.030121 0.126892
0.335541 0.015167 0.142792
0.535034 0.000000 0.153839
0.704041 0.000000 0.159027
0.829224 0.000000 0.157684
0.912323 0.000000 0.150269
0.962433 0.000000 0.143097
0.000000 0.101929 0.139282
0.124390 0.139771 0.138947
0.337219 0.146790 0.142761
0.535797 0.086761 0.139160
0.705536 0.050079 0.131989
0.828125 0.050079 0.130005
0.912323 0.050079 0.131317
0.962433 0.050079 0.134399
0.000000 0.221100 0.210205
0.084625 0.280334 0.198608
0.310272 0.287903 0.151123
0.512421 0.280792 0.131134
0.685303 0.247345 0.127167
0.812439 0.207855 0.128571
0.912323 0.168671 0.132080
0.962433 0.133240 0.137238
0.000000 0.420380 0.274475
0.050079 0.445282 0.255646
0.303436 0.406403 0.190125
0.486847 0.429718 0.135712
0.654266 0.420990 0.127014
0.789398 0.387207 0.130035
0.899963 0.355652 0.136139
0.962433 0.329102 0.143890
0.000000 0.576843 0.329163
0.050079 0.575714 0.303131
0.302582 0.546112 0.248871
0.460602 0.510864 0.223083
0.633270 0.556732 0.134918
0.762360 0.535889 0.139435
0.877625 0.506165 0.146790
0.962433 0.478363 0.157013
0.000000 0.694000 0.367920
0.050079 0.683838 0.341522
0.319641 0.664520 0.305054
0.473999 0.633759 0.270447
0.590881 0.644043 0.239471
0.747345 0.661987 0.161163
0.855347 0.637451 0.169098
0.955505 0.613525 0.178711
0.000000 0.785370 0.393280
0.155243 0.777557 0.377075
0.381714 0.764069 0.357452
0.502380 0.746552 0.327118
0.620605 0.721558 0.331818
0.711670 0.754761 0.268250
0.843323 0.755737 0.207001
0.935852 0.731293 0.214478
0.157898 0.866669 0.422150
0.310760 0.860992 0.415009
0.450592 0.852448 0.406250
0.550110 0.842438 0.388275
0.646912 0.827026 0.385071
0.723541 0.832458 0.370209
0.818024 0.851746 0.302429
0.924988 0.841827 0.270233
0.000000 0.032623 0.175049
0.050079 0.038269 0.181091
0.283722 0.058167 0.232483
0.447998 0.057983 0.247131
0.652557 0.000000 0.270020
0.799561 0.000000 0.270294
0.910400 0.000000 0.266632
0.962433 0.000000 0.265076
0.000000 0.104767 0.207855
0.050079 0.118988 0.209839
0.247894 0.158356 0.232483
0.447174 0.173248 0.253693
0.653046 0.115540 0.269348
0.796051 0.072266 0.267975
0.907410 0.057556 0.265625
0.962433 0.063812 0.265472
0.000000 0.191986 0.248871
0.050079 0.211243 0.250793
0.238220 0.254791 0.251648
0.460968 0.294769 0.265198
0.656433 0.257568 0.262756
0.795166 0.225922 0.257172
0.906219 0.193665 0.250244
0.962433 0.175720 0.248169
0.000000 0.320190 0.333466
0.050079 0.342865 0.337677
0.248749 0.395660 0.337006
0.448059 0.418427 0.284760
0.630615 0.422668 0.255859
0.774780 0.391785 0.252594
0.889526 0.367065 0.252441
0.962433 0.348816 0.254364
0.000000 0.489716 0.416565
0.050079 0.522247 0.408386
0.146973 0.566559 0.390472
0.446869 0.551025 0.325958
0.599304 0.557800 0.277374
0.745697 0.543854 0.261292
0.866943 0.515686 0.262177
0.962433 0.492645 0.265930
0.000000 0.656006 0.456940
0.050079 0.673859 0.449066
0.144409 0.691986 0.431335
0.468292 0.663879 0.377045
0.593506 0.634338 0.353119
0.732056 0.668945 0.279999
0.843872 0.646393 0.280792
0.947021 0.624054 0.284424
0.000000 0.784424 0.490540
0.050079 0.792694 0.484161
0.290283 0.780762 0.453796
0.503235 0.762054 0.422485
0.614288 0.737549 0.398438
0.704773 0.750732 0.369659
0.833405 0.761414 0.312012
0.927368 0.739716 0.314056
0.000000 0.878571 0.509857
0.168610 0.871796 0.497009
0.393402 0.862213 0.480927
0.547516 0.850403 0.466400
0.634552 0.837524 0.442810
0.726074 0.828674 0.444305
0.811066 0.850433 0.392151
0.918762 0.845795 0.355164
0.000000 0.033478 0.227020
0.050079 0.036133 0.232208
0.106232 0.042603 0.264374
0.408264 0.086334 0.337219
0.570160 0.090759 0.352661
0.734344 0.052124 0.373108
0.881897 0.000000 0.374786
0.962433 0.000000 0.368866
0.000000 0.103455 0.259918
0.050079 0.106201 0.260651
0.100189 0.117920 0.258759
0.382355 0.172394 0.333405
0.569824 0.192871 0.358582
0.736420 0.162750 0.376343
0.878510 0.126923 0.375580
0.962433 0.127899 0.370361
0.000000 0.181458 0.298309
0.050079 0.188507 0.299255
0.101563 0.206482 0.299652
0.324371 0.256653 0.323822
0.570007 0.309479 0.369324
0.740631 0.283295 0.381622
0.873749 0.267090 0.377747
0.962433 0.264618 0.373749
0.000000 0.280121 0.355804
0.050079 0.291443 0.357605
0.118927 0.317108 0.359772
0.345947 0.366333 0.362366
0.571075 0.440887 0.387604
0.741638 0.417969 0.386993
0.867615 0.406403 0.383850
0.962433 0.390076 0.375916
0.000000 0.409637 0.445770
0.050079 0.424988 0.448761
0.149109 0.455109 0.452789
0.402771 0.509125 0.458527
0.573914 0.561554 0.416168
0.721191 0.555511 0.389709
0.849945 0.533142 0.384705
0.954926 0.516693 0.382843
0.000000 0.535370 0.534058
0.050079 0.559692 0.532562
0.120850 0.610229 0.522339
0.388672 0.668518 0.504944
0.585266 0.667084 0.453491
0.701233 0.668396 0.415375
0.827026 0.658844 0.397888
0.934784 0.639099 0.396484
0.000000 0.713165 0.566315
0.050079 0.733032 0.562286
0.100189 0.761627 0.553894
0.410980 0.785400 0.537415
0.606598 0.762177 0.490295
0.703003 0.742950 0.468811
0.820129 0.767914 0.418152
0.916901 0.749451 0.415344
0.000000 0.854340 0.592438
0.050079 0.865051 0.588562
0.133636 0.876740 0.582092
0.480347 0.864319 0.551453
0.634613 0.849640 0.527679
0.726013 0.831207 0.514832
0.803345 0.847931 0.483734
0.910645 0.850586 0.444519
0.000000 0.031433 0.271637
0.050079 0.033264 0.275940
0.100189 0.034210 0.275543
0.209198 0.050446 0.347565
0.525482 0.112030 0.440918
0.684540 0.125793 0.459198
0.811951 0.126190 0.470490
0.954712 0.094757 0.476440
0.000000 0.097168 0.301453
0.050079 0.098816 0.304108
0.100189 0.099518 0.299438
0.169159 0.114899 0.331604
0.504242 0.189148 0.435303
0.683472 0.218262 0.464172
0.811066 0.214203 0.473755
0.953735 0.188782 0.477722
0.000000 0.172516 0.339233
0.050079 0.174316 0.340607
0.100189 0.177826 0.336426
0.155823 0.187592 0.329529
0.465485 0.268768 0.425201
0.681702 0.326172 0.472717
0.813904 0.315155 0.480103
0.951904 0.296417 0.480255
0.000000 0.261261 0.392822
0.050079 0.264557 0.392334
0.100189 0.273468 0.391052
0.174408 0.292908 0.388306
0.376251 0.333344 0.392548
0.678864 0.448090 0.485138
0.819946 0.430298 0.490051
0.945953 0.420746 0.486359
0.000000 0.368286 0.464294
0.050079 0.375061 0.465302
0.100189 0.390076 0.466309
0.222290 0.419861 0.467651
0.447479 0.472382 0.469513
0.680450 0.567139 0.501404
0.824982 0.552521 0.501495
0.936584 0.547272 0.499847
0.000000 0.486786 0.549194
0.050079 0.497192 0.551605
0.100189 0.518494 0.555084
0.300568 0.560791 0.559967
0.551025 0.631165 0.565063
0.685974 0.671661 0.528534
0.809814 0.667999 0.506683
0.922577 0.651855 0.501923
0.000000 0.593842 0.630646
0.050079 0.606018 0.632416
0.100189 0.635345 0.633362
0.332520 0.708649 0.621643
0.547729 0.769226 0.604645
0.697479 0.763824 0.557953
0.797791 0.768311 0.527771
0.905029 0.758972 0.514374
0.000000 0.755096 0.664917
0.050079 0.774109 0.662598
0.100189 0.807953 0.656921
0.250214 0.849609 0.646362
0.568695 0.867188 0.626190
0.714447 0.849823 0.589264
0.798187 0.842957 0.574219
0.900513 0.855927 0.536621
0.000000 0.029419 0.316620
0.050079 0.030823 0.320038
0.100189 0.032990 0.325165
0.150269 0.030945 0.324005
0.320129 0.054321 0.435303
0.641632 0.142609 0.548920
0.787842 0.169006 0.563873
0.902588 0.183502 0.570618
0.000000 0.091827 0.342926
0.050079 0.093170 0.345459
0.100189 0.093353 0.345917
0.150269 0.087463 0.329376
0.286011 0.117218 0.425232
0.625916 0.212280 0.543884
0.785614 0.252777 0.567291
0.899506 0.262238 0.572906
0.000000 0.164825 0.380005
0.050079 0.166382 0.382202
0.100189 0.164459 0.378082
0.150269 0.159363 0.362976
0.221130 0.175201 0.396332
0.598389 0.285339 0.534882
0.781830 0.350830 0.572540
0.894775 0.353241 0.576813
0.000000 0.249756 0.431366
0.050079 0.251526 0.433899
0.100189 0.249451 0.427185
0.150269 0.247955 0.414612
0.201141 0.248383 0.395905
0.549469 0.356232 0.519104
0.776978 0.459808 0.579590
0.892395 0.451843 0.583221
0.000000 0.350220 0.502350
0.050079 0.350830 0.502289
0.100189 0.351959 0.497406
0.150269 0.356049 0.488342
0.212433 0.367340 0.474060
0.435638 0.401215 0.467987
0.775269 0.567139 0.589600
0.901917 0.552521 0.592957
0.000000 0.454498 0.577454
0.050079 0.457184 0.577545
0.100189 0.464111 0.576996
0.150269 0.480927 0.575745
0.302979 0.514832 0.573486
0.558411 0.578339 0.570251
0.778107 0.672729 0.605530
0.905579 0.663574 0.605621
0.000000 0.557404 0.651947
0.050079 0.561340 0.654022
0.100189 0.573853 0.656647
0.150269 0.604492 0.659851
0.446838 0.667664 0.662415
0.677765 0.744781 0.667206
0.782623 0.766205 0.628601
0.892303 0.766083 0.612549
0.000000 0.655121 0.722412
0.050079 0.656250 0.723907
0.100189 0.660034 0.725830
0.150269 0.699219 0.725739
0.448303 0.804352 0.710297
0.668182 0.862030 0.695465
0.793060 0.850555 0.654327
0.885620 0.858917 0.632050
0.000000 0.033234 0.376556
0.050079 0.034485 0.379639
0.100189 0.036682 0.384399
0.150269 0.033112 0.376709
0.200378 0.032593 0.416595
0.450043 0.056061 0.552094
0.752594 0.191498 0.657806
0.880219 0.222076 0.665771
0.000000 0.095306 0.401001
0.050079 0.096649 0.403381
0.100189 0.098907 0.407257
0.150269 0.091919 0.395203
0.200378 0.085693 0.398529
0.421051 0.115906 0.541565
0.743225 0.254791 0.654694
0.876862 0.297424 0.667023
0.000000 0.166809 0.436279
0.050079 0.168152 0.438416
0.100189 0.170319 0.441803
0.150269 0.160767 0.426086
0.200378 0.139740 0.388153
0.363647 0.175507 0.521667
0.727325 0.321381 0.649261
0.871613 0.384277 0.668884
0.000000 0.249969 0.487183
0.050079 0.250702 0.488251
0.100189 0.252289 0.490631
0.150269 0.242523 0.474182
0.200378 0.221985 0.438263
0.253235 0.226349 0.474762
0.701630 0.387390 0.640411
0.867554 0.477051 0.673004
0.000000 0.348297 0.558807
0.050079 0.348846 0.559601
0.100189 0.349030 0.559937
0.150269 0.339722 0.543610
0.200378 0.323395 0.511139
0.250488 0.297485 0.461090
0.654297 0.446838 0.624512
0.865082 0.571991 0.679382
0.000000 0.448608 0.632416
0.050079 0.449524 0.634003
0.100189 0.449799 0.634369
0.150269 0.448242 0.627136
0.200378 0.447174 0.610840
0.250488 0.444519 0.578735
0.505432 0.473816 0.569031
0.864380 0.667847 0.688141
0.000000 0.540741 0.692444
0.050079 0.541901 0.694305
0.100189 0.542542 0.695160
0.150269 0.548645 0.694153
0.200378 0.568939 0.690857
0.393768 0.612183 0.683716
0.674194 0.687134 0.671326
0.869324 0.766541 0.704407
0.000000 0.633789 0.753906
0.050079 0.635071 0.756012
0.100189 0.636505 0.757874
0.150269 0.639740 0.761230
0.200378 0.675751 0.763336
0.574036 0.769867 0.759857
0.779694 0.848328 0.757477
0.869720 0.855408 0.726715
0.000000 0.078064 0.512360
0.050079 0.079803 0.515320
0.100189 0.082733 0.520081
0.150269 0.087067 0.527191
0.200378 0.062408 0.487946
0.250488 0.026855 0.602936
0.613922 0.073395 0.713501
0.856415 0.273529 0.766907
0.000000 0.143066 0.536652
0.050079 0.144592 0.539185
0.100189 0.147125 0.543335
0.150269 0.151062 0.549591
0.200378 0.124481 0.507141
0.250488 0.090149 0.585938
0.595673 0.129120 0.709412
0.852295 0.333191 0.765991
0.000000 0.215424 0.572357
0.050079 0.216919 0.574738
0.100189 0.219177 0.578339
0.150269 0.222687 0.583954
0.200378 0.196411 0.542999
0.250488 0.165771 0.556732
0.559601 0.184204 0.701660
0.845764 0.396149 0.764465
0.000000 0.295807 0.620544
0.050079 0.297272 0.622955
0.100189 0.299103 0.625885
0.150269 0.301941 0.630463
0.200378 0.281189 0.597900
0.250488 0.229340 0.518280
0.482086 0.234619 0.686768
0.836304 0.460632 0.762390
0.000000 0.383118 0.679199
0.050079 0.383392 0.679993
0.100189 0.381958 0.677917
0.150269 0.381104 0.676758
0.200378 0.373596 0.664642
0.250488 0.333221 0.600281
0.300568 0.282501 0.647980
0.821686 0.524811 0.759094
0.000000 0.467285 0.731812
0.050079 0.467773 0.733002
0.100189 0.467194 0.732330
0.150269 0.466248 0.731262
0.200378 0.463043 0.726593
0.250488 0.445099 0.693848
0.300568 0.387451 0.603821
0.794708 0.585236 0.752777
0.000000 0.548309 0.777374
0.050079 0.548950 0.778717
0.100189 0.548950 0.778870
0.150269 0.549011 0.779236
0.200378 0.548676 0.779022
0.250488 0.549286 0.766724
0.300568 0.545563 0.734009
0.705292 0.627167 0.733673
0.000000 0.626801 0.814636
0.050079 0.627472 0.815857
0.100189 0.627899 0.816467
0.150269 0.628723 0.817566
0.200378 0.629730 0.818878
0.250488 0.651459 0.816254
0.549652 0.731201 0.803894
0.811157 0.815308 0.786194
