apk/assets/luts/Lut4.cube
#Created by: Fabian Raducan
#Copyright: (C) Copyright 2017 Welovepresets.com - Fabian Raducan
TITLE "WLP_CINEMATIC_26_F"
#LUT size
LUT_3D_SIZE 5
#data domain
#LUT data points
DOMAIN_MIN 0.000000 0.000000 0.000000
DOMAIN_MAX 0.903226 0.903226 0.903226
0.009552 0.014038 0.017395
0.370941 0.000000 0.015411
0.671753 0.000000 0.013580
0.873260 0.000000 0.017914
0.962433 0.000000 0.027985
0.000000 0.247467 0.087616
0.313324 0.252991 0.013092
0.633087 0.228668 0.004944
0.853119 0.141876 0.014618
0.962433 0.087677 0.031128
0.000000 0.494690 0.186432
0.282318 0.444550 0.123810
0.584778 0.493011 0.006836
0.813934 0.453827 0.018707
0.962433 0.397614 0.046875
0.000000 0.703003 0.275421
0.312317 0.680023 0.234222
0.542511 0.645630 0.207520
0.780426 0.681824 0.066284
0.953979 0.639618 0.091827
0.234436 0.860016 0.353577
0.443939 0.848846 0.345215
0.599121 0.829742 0.322144
0.743134 0.839783 0.287628
0.929108 0.838837 0.192657
0.000000 0.031494 0.159912
0.251770 0.050659 0.206055
0.576935 0.000000 0.238586
0.836884 0.000000 0.241699
0.962433 0.000000 0.239227
0.000000 0.169281 0.221100
0.209900 0.225983 0.223358
0.583435 0.226593 0.231995
0.833923 0.148987 0.221893
0.962433 0.099640 0.217926
0.000000 0.427429 0.370972
0.102844 0.502686 0.346069
0.534546 0.496002 0.242371
0.796295 0.460846 0.224640
0.962433 0.416687 0.230194
0.000000 0.705109 0.444885
0.130981 0.713135 0.413635
0.539825 0.665771 0.343384
0.763184 0.690918 0.255676
0.943420 0.651825 0.261932
0.000000 0.874908 0.484985
0.371948 0.861816 0.463898
0.592468 0.842194 0.433136
0.742645 0.835999 0.414673
0.920532 0.844696 0.333252
0.000000 0.032562 0.249695
0.087677 0.036530 0.254242
0.467529 0.099213 0.388977
0.730988 0.102142 0.416931
0.962433 0.027710 0.422241
0.000000 0.156525 0.308105
0.087677 0.164612 0.307495
0.413605 0.242371 0.377533
0.732391 0.276550 0.426361
0.962433 0.244720 0.424225
0.000000 0.323822 0.408844
0.087677 0.346191 0.411804
0.396423 0.419586 0.416382
0.747437 0.493286 0.447357
0.953156 0.472443 0.438110
0.000000 0.539642 0.564270
0.087677 0.573242 0.568604
0.478058 0.686096 0.547089
0.719086 0.692047 0.473358
0.923645 0.673065 0.451538
0.000000 0.814941 0.629089
0.087677 0.847809 0.620941
0.524353 0.865662 0.588226
0.743561 0.834534 0.548218
0.905884 0.853241 0.490326
0.000000 0.029388 0.329132
0.087677 0.032288 0.336090
0.175323 0.034180 0.370148
0.669769 0.152618 0.575897
0.897369 0.192383 0.593292
0.000000 0.144257 0.380432
0.087677 0.147095 0.384949
0.175323 0.132355 0.352722
0.638367 0.273621 0.565369
0.888824 0.331421 0.595032
0.000000 0.295624 0.474854
0.087677 0.295654 0.473450
0.175323 0.290009 0.447296
0.555328 0.393219 0.538269
0.881042 0.503967 0.605835
0.000000 0.475830 0.605194
0.087677 0.481049 0.605896
0.175323 0.509460 0.602448
0.587097 0.604889 0.594604
0.897125 0.689026 0.629944
0.000000 0.650421 0.731171
0.087677 0.652771 0.734131
0.175323 0.708710 0.735931
0.695435 0.858948 0.711273
0.881104 0.859009 0.655853
0.000000 0.078064 0.512360
0.087677 0.081879 0.518707
0.175323 0.080658 0.516968
0.305634 0.024231 0.638336
0.856415 0.273529 0.766907
0.000000 0.196106 0.561401
0.087677 0.199463 0.566803
0.175323 0.193268 0.557037
0.263000 0.123962 0.601318
0.846710 0.377625 0.763672
0.000000 0.338654 0.648590
0.087677 0.339020 0.649597
0.175323 0.339691 0.650513
0.263000 0.258453 0.524384
0.829193 0.491425 0.760162
0.000000 0.487274 0.742828
0.087677 0.487885 0.744507
0.175323 0.486328 0.742737
0.263000 0.464386 0.700623
0.782806 0.597900 0.749573
0.000000 0.626801 0.814636
0.087677 0.627747 0.816254
0.175323 0.629181 0.818207
0.263000 0.665222 0.814301
0.811157 0.815308 0.786194
