apk/assets/luts/Lut4.cube
#Created by: Fabian Raducan
#Copyright: (C) Copyright 2017 Welovepresets.com - Fabian Raducan
TITLE "WLP_CINEMATIC_26_F"
#LUT size
LUT_3D_SIZE 32
#data domain
DOMAIN_MIN 0.0 0.0 0.0
DOMAIN_MAX 1.0 1.0 1.0
#LUT data points
0.009552 0.014038 0.017395
0.067139 0.009735 0.017090
0.133240 0.002869 0.016602
0.184845 0.000000 0.016388
0.233246 0.000000 0.016144
0.280029 0.000000 0.015930
0.325806 0.000000 0.015747
0.370941 0.000000 0.015411
0.415894 0.000000 0.015228
0.460602 0.000000 0.014862
0.504974 0.000000 0.014435
0.549042 0.000000 0.014069
0.592010 0.000000 0.013733
0.633453 0.000000 0.013550
0.671753 0.000000 0.013580
0.706818 0.000000 0.013763
0.739258 0.000000 0.014099
0.769440 0.000000 0.014587
0.797760 0.000000 0.015167
0.824402 0.000000 0.016022
0.849670 0.000000 0.016937
0.873260 0.000000 0.017914
0.887299 0.000000 0.019043
0.899811 0.000000 0.020264
0.912323 0.000000 0.021606
0.924866 0.000000 0.023010
0.937378 0.000000 0.024536
0.949921 0.000000 0.026276
0.962433 0.000000 0.027985
0.974945 0.000000 0.029938
0.987488 0.000000 0.032013
1.000000 0.000000 0.034515
0.003113 0.045502 0.023926
0.059601 0.049286 0.016724
0.122345 0.049927 0.015686
0.173859 0.044617 0.015259
0.222687 0.037628 0.014893
0.270294 0.029053 0.014496
0.316956 0.018951 0.014160
0.363007 0.012787 0.013794
0.408478 0.012512 0.013397
0.453461 0.012512 0.013153
0.498627 0.012512 0.012787
0.542725 0.012512 0.012573
0.585938 0.012512 0.012329
0.627747 0.012512 0.012268
0.666656 0.012512 0.012238
0.702271 0.012512 0.012543
0.735199 0.012512 0.013000
0.765717 0.012512 0.013580
0.794403 0.012512 0.014404
0.821381 0.012512 0.015228
0.846863 0.012512 0.016296
0.871521 0.012512 0.017426
0.887299 0.012512 0.018585
0.899811 0.012512 0.019897
0.912323 0.012512 0.021332
0.924866 0.012512 0.022919
0.937378 0.012512 0.024567
0.949921 0.012512 0.026276
0.962433 0.012512 0.028168
0.974945 0.012512 0.030212
0.987488 0.012512 0.032471
1.000000 0.012512 0.035034
0.000000 0.080597 0.031036
0.048431 0.073700 0.023895
0.111145 0.086945 0.015656
0.163574 0.089081 0.014343
0.212677 0.084778 0.013672
0.260986 0.076965 0.013214
0.308075 0.067261 0.012848
0.354797 0.056366 0.012482
0.401001 0.044586 0.012177
0.446777 0.031921 0.011993
0.492096 0.025391 0.011688
0.536469 0.025055 0.011536
0.580139 0.025055 0.011292
0.622406 0.025055 0.011108
0.661896 0.025055 0.011139
0.697968 0.025055 0.011475
0.731323 0.025055 0.011932
0.762268 0.025055 0.012665
0.791199 0.025055 0.013489
0.818390 0.025055 0.014587
0.844208 0.025055 0.015717
0.869080 0.025055 0.016907
0.887299 0.025055 0.018219
0.899811 0.025055 0.019714
0.912323 0.025055 0.021179
0.924866 0.025055 0.022858
0.937378 0.025055 0.024536
0.949921 0.025055 0.026428
0.962433 0.025055 0.028381
0.974945 0.025055 0.030548
0.987488 0.025055 0.032806
1.000000 0.025055 0.035583
0.000000 0.112640 0.038727
0.050995 0.098877 0.030518
0.094879 0.111450 0.021240
0.152557 0.119446 0.015167
0.203979 0.121857 0.013519
0.251129 0.119141 0.012726
0.299377 0.112122 0.012238
0.346466 0.103577 0.011902
0.393555 0.093628 0.011475
0.440002 0.081146 0.011169
0.485809 0.067841 0.010803
0.530609 0.053497 0.010468
0.574615 0.039825 0.010254
0.617340 0.037567 0.009979
0.657196 0.037567 0.010010
0.693756 0.037567 0.010315
0.727448 0.037567 0.010895
0.758728 0.037567 0.011719
0.787964 0.037567 0.012726
0.815430 0.037567 0.013885
0.841522 0.037567 0.015015
0.866669 0.037567 0.016418
0.887238 0.037567 0.017914
0.899811 0.037567 0.019440
0.912323 0.037567 0.021088
0.924866 0.037567 0.022858
0.937378 0.037567 0.024658
0.949921 0.037567 0.026581
0.962433 0.037567 0.028717
0.974945 0.037567 0.030914
0.987488 0.037567 0.033325
1.000000 0.037567 0.036133
0.000000 0.146027 0.049377
0.039673 0.134796 0.033936
0.092529 0.129913 0.034515
0.135864 0.145355 0.021362
0.192780 0.152283 0.014801
0.243744 0.154572 0.013123
0.290283 0.153595 0.011993
0.338745 0.147430 0.011353
0.386627 0.140198 0.010773
0.433777 0.131561 0.010284
0.479889 0.121613 0.009857
0.525269 0.109650 0.009430
0.569641 0.094849 0.009033
0.612671 0.079102 0.008820
0.652954 0.062408 0.008728
0.689789 0.051666 0.009186
0.723846 0.050079 0.009827
0.755402 0.050079 0.010712
0.784912 0.050079 0.011841
0.812592 0.050079 0.013092
0.838928 0.050079 0.014526
0.864258 0.050079 0.015961
0.886597 0.050079 0.017670
0.899811 0.050079 0.019287
0.912323 0.050079 0.021027
0.924866 0.050079 0.022888
0.937378 0.050079 0.024841
0.949921 0.050079 0.026855
0.962433 0.050079 0.029205
0.974945 0.050079 0.031525
0.987488 0.050079 0.034027
1.000000 0.050079 0.036957
0.000000 0.179199 0.061493
0.036926 0.169830 0.045074
0.096344 0.157715 0.043549
0.128143 0.163971 0.037262
0.176239 0.179016 0.021973
0.232422 0.185242 0.014465
0.283569 0.187714 0.012573
0.329254 0.187775 0.011292
0.377380 0.183014 0.010284
0.425018 0.176605 0.009583
0.471832 0.169098 0.009064
0.517639 0.160614 0.008484
0.562469 0.150726 0.007935
0.605988 0.139221 0.007629
0.646881 0.125275 0.007568
0.684204 0.108917 0.007935
0.718750 0.091766 0.008606
0.750732 0.074860 0.009644
0.780640 0.064789 0.010895
0.808655 0.062622 0.012329
0.835297 0.062622 0.013885
0.860962 0.062622 0.015503
0.885559 0.062622 0.017273
0.899811 0.062622 0.019012
0.912323 0.062622 0.020905
0.924866 0.062622 0.022980
0.937378 0.062622 0.025085
0.949921 0.062622 0.027283
0.962433 0.062622 0.029694
0.974945 0.062622 0.032227
0.987488 0.062622 0.034882
1.000000 0.062622 0.037933
0.000000 0.213104 0.074341
0.034027 0.204773 0.059662
0.082428 0.195404 0.047607
0.137268 0.184235 0.054840
0.165314 0.198120 0.040466
0.217255 0.213318 0.022461
0.272858 0.218933 0.013794
0.323242 0.221375 0.011902
0.368835 0.221649 0.010437
0.415649 0.218719 0.009308
0.463104 0.213013 0.008362
0.509491 0.206451 0.007538
0.554810 0.198975 0.006989
0.598907 0.190430 0.006348
0.640320 0.180450 0.006195
0.678192 0.168823 0.006561
0.713165 0.155579 0.007416
0.745544 0.140869 0.008575
0.775787 0.124329 0.009918
0.804199 0.107391 0.011505
0.831238 0.091187 0.013214
0.857239 0.079071 0.015015
0.882446 0.076050 0.016907
0.899811 0.075134 0.018860
0.912323 0.075134 0.020905
0.924866 0.075134 0.023163
0.937378 0.075134 0.025421
0.949921 0.075134 0.027863
0.962433 0.075134 0.030304
0.974945 0.075134 0.032898
0.987488 0.075134 0.035858
1.000000 0.075134 0.039124
0.000000 0.247467 0.087616
0.023254 0.240082 0.073944
0.078888 0.231812 0.060455
0.131561 0.222107 0.059082
0.171692 0.217133 0.061462
0.203796 0.232788 0.043701
0.257751 0.247162 0.023193
0.313324 0.252991 0.013092
0.362915 0.255249 0.011078
0.408447 0.255920 0.009521
0.453827 0.254669 0.007996
0.500793 0.249420 0.006866
0.546661 0.243500 0.005951
0.591217 0.236694 0.005280
0.633087 0.228668 0.004944
0.671478 0.219147 0.005402
0.706970 0.208405 0.006226
0.739777 0.196869 0.007507
0.770447 0.184479 0.009003
0.799225 0.171173 0.010803
0.826721 0.157135 0.012634
0.853119 0.141876 0.014618
0.878632 0.126404 0.016632
0.899689 0.111511 0.018829
0.912323 0.097839 0.021088
0.924866 0.091125 0.023407
0.937378 0.088409 0.025848
0.949921 0.087677 0.028442
0.962433 0.087677 0.031128
0.974945 0.087677 0.033936
0.987488 0.087677 0.036957
1.000000 0.087677 0.040131
0.000000 0.283569 0.101776
0.013336 0.276611 0.088745
0.077759 0.268951 0.076447
0.118774 0.260986 0.065765
0.176331 0.249298 0.071594
0.207001 0.252563 0.066711
0.244141 0.268707 0.046295
0.298676 0.281799 0.023865
0.354675 0.288177 0.012085
0.403534 0.290253 0.010132
0.448792 0.291016 0.008331
0.492432 0.291107 0.006378
0.538757 0.286224 0.005188
0.583679 0.280640 0.004242
0.626038 0.273621 0.003876
0.664886 0.265289 0.004242
0.700745 0.255920 0.005157
0.734070 0.245667 0.006470
0.765106 0.234955 0.008209
0.794281 0.223785 0.010132
0.822205 0.212341 0.012207
0.848938 0.200653 0.014435
0.874756 0.188629 0.016663
0.898743 0.176147 0.018982
0.912323 0.163208 0.021454
0.924866 0.149750 0.024017
0.937378 0.136749 0.026703
0.949921 0.124542 0.029449
0.962433 0.113525 0.032349
0.974945 0.105713 0.035309
0.987488 0.103302 0.038635
1.000000 0.101349 0.042267
0.000000 0.318359 0.115204
0.012848 0.312286 0.103210
0.074585 0.305481 0.092590
0.117371 0.298096 0.080383
0.166168 0.288208 0.076141
0.216980 0.275757 0.083923
0.242676 0.287811 0.070862
0.284027 0.304047 0.048126
0.338837 0.315735 0.024078
0.394745 0.322723 0.011108
0.442627 0.324646 0.009033
0.487366 0.325531 0.006989
0.530060 0.325836 0.005005
0.574677 0.322083 0.003540
0.617615 0.316010 0.002960
0.657074 0.308441 0.003265
0.693451 0.299866 0.004242
0.727173 0.290558 0.005737
0.758728 0.280670 0.007538
0.788422 0.270538 0.009613
0.816772 0.260223 0.011963
0.843964 0.249878 0.014282
0.870148 0.239563 0.016724
0.895416 0.229126 0.019348
0.912323 0.218781 0.021942
0.924866 0.208252 0.024750
0.937378 0.197876 0.027557
0.949921 0.187378 0.030609
0.962433 0.176880 0.033630
0.974945 0.166260 0.036896
0.987488 0.156555 0.040375
1.000000 0.148254 0.044220
0.000000 0.353668 0.129120
0.012512 0.348053 0.117828
0.060944 0.341705 0.107666
0.115753 0.334747 0.096191
0.154999 0.326324 0.084656
0.212433 0.314453 0.088409
0.251862 0.307159 0.091858
0.279297 0.323273 0.074127
0.324280 0.339630 0.049133
0.378662 0.349915 0.023956
0.434631 0.357544 0.009949
0.481506 0.359222 0.007751
0.525787 0.360138 0.005554
0.567383 0.360260 0.003448
0.608826 0.356964 0.002411
0.648712 0.349976 0.002625
0.685669 0.341827 0.003601
0.719910 0.332947 0.005219
0.751862 0.323578 0.007202
0.782104 0.313965 0.009491
0.811005 0.304321 0.011871
0.838623 0.294708 0.014404
0.865234 0.285126 0.017059
0.890869 0.275665 0.019867
0.912201 0.266327 0.022766
0.924866 0.257080 0.025696
0.937378 0.248016 0.028778
0.949921 0.239197 0.032013
0.962433 0.230591 0.035309
0.974945 0.222137 0.038757
0.987488 0.214355 0.042542
1.000000 0.207214 0.046661
0.000000 0.389008 0.143066
0.012512 0.383789 0.132507
0.043213 0.377777 0.122467
0.113342 0.371277 0.112488
0.154022 0.363373 0.099701
0.199554 0.353394 0.093262
0.255035 0.340332 0.100861
0.285095 0.342102 0.096771
0.316589 0.358917 0.076965
0.364624 0.375397 0.049591
0.418274 0.384186 0.023407
0.473969 0.392365 0.008667
0.519867 0.393707 0.006409
0.563141 0.394379 0.004272
0.602386 0.393311 0.002869
0.639893 0.389984 0.002319
0.677368 0.382172 0.003357
0.712097 0.373535 0.005005
0.744598 0.364532 0.007141
0.775391 0.355286 0.009491
0.804779 0.346039 0.012115
0.832916 0.336792 0.014832
0.859924 0.327698 0.017731
0.885925 0.318665 0.020691
0.910675 0.309845 0.023773
0.924866 0.301208 0.027008
0.937378 0.292786 0.030273
0.949921 0.284576 0.033691
0.962433 0.276703 0.037262
0.974945 0.269012 0.040863
0.987488 0.261719 0.044617
1.000000 0.255157 0.048889
0.000000 0.425568 0.158142
0.012512 0.420105 0.147614
0.026886 0.414337 0.137848
0.106659 0.408203 0.128998
0.152527 0.400757 0.116180
0.191345 0.391998 0.104034
0.248108 0.379913 0.105957
0.295105 0.366516 0.113770
0.319458 0.378204 0.100922
0.354858 0.395081 0.079346
0.405243 0.411530 0.049469
0.458740 0.419739 0.022186
0.512848 0.427185 0.007294
0.557373 0.427948 0.005280
0.598297 0.427277 0.003876
0.634735 0.424713 0.003448
0.668976 0.421356 0.003510
0.704132 0.413086 0.005219
0.737244 0.404266 0.007416
0.768646 0.395294 0.010010
0.798553 0.386261 0.012726
0.827148 0.377258 0.015686
0.854523 0.368347 0.018829
0.880920 0.359558 0.022003
0.906311 0.350983 0.025330
0.924866 0.342682 0.028870
0.937378 0.334564 0.032440
0.949921 0.326782 0.036102
0.962433 0.319305 0.039978
0.974945 0.312195 0.044067
0.987488 0.305511 0.048401
1.000000 0.299530 0.053162
0.000000 0.459930 0.171936
0.012512 0.455536 0.162506
0.025391 0.450317 0.153229
0.088806 0.444550 0.144501
0.150726 0.437408 0.132996
0.190704 0.429047 0.119659
0.233978 0.418945 0.111450
0.291901 0.405579 0.118622
0.329254 0.397491 0.122070
0.354156 0.413818 0.104431
0.392883 0.430603 0.081055
0.444794 0.446960 0.048615
0.498566 0.455139 0.020294
0.550110 0.460999 0.006348
0.591797 0.460144 0.005310
0.630066 0.457947 0.004974
0.664185 0.454224 0.005463
0.696289 0.450134 0.006226
0.729156 0.442688 0.008179
0.761169 0.433838 0.010834
0.791626 0.424927 0.013733
0.820709 0.416046 0.016907
0.848541 0.407288 0.020233
0.875305 0.398682 0.023712
0.901154 0.390259 0.027283
0.924347 0.382111 0.031067
0.937378 0.374207 0.034882
0.949921 0.366577 0.038971
0.962433 0.359283 0.043121
0.974945 0.352356 0.047516
0.987488 0.345856 0.052246
1.000000 0.340057 0.057159
0.000000 0.494690 0.186432
0.012512 0.490540 0.177429
0.025055 0.485626 0.168457
0.068176 0.480194 0.159821
0.148041 0.473511 0.150177
0.189240 0.465637 0.136261
0.227753 0.456482 0.123535
0.282318 0.444550 0.123810
0.332520 0.430878 0.131439
0.361328 0.432281 0.127228
0.389435 0.449341 0.107697
0.431000 0.466095 0.082581
0.484100 0.482269 0.047546
0.537415 0.490112 0.018555
0.584778 0.493011 0.006836
0.623535 0.490356 0.006989
0.659454 0.486969 0.007690
0.691620 0.482452 0.008942
0.722351 0.478058 0.010193
0.753357 0.471436 0.012238
0.784363 0.462646 0.015381
0.813934 0.453827 0.018707
0.842255 0.445160 0.022247
0.869446 0.436615 0.025940
0.895630 0.428253 0.029846
0.920868 0.420197 0.033936
0.937378 0.412354 0.038086
0.949921 0.404816 0.042389
0.962433 0.397614 0.046875
0.974945 0.390594 0.051514
0.987488 0.384064 0.056122
1.000000 0.378571 0.061554
0.000000 0.528778 0.200836
0.012512 0.524933 0.192383
0.025055 0.520355 0.183777
0.046631 0.515320 0.175385
0.138000 0.509094 0.166290
0.187988 0.501709 0.153503
0.227142 0.493164 0.139771
0.268311 0.483124 0.130280
0.327179 0.469788 0.136902
0.370636 0.456024 0.144409
0.393799 0.467834 0.131592
0.425201 0.484802 0.110779
0.468719 0.501251 0.083984
0.521851 0.516357 0.046814
0.573853 0.523163 0.018097
0.616699 0.522919 0.009155
0.653015 0.518982 0.010406
0.686890 0.514679 0.011871
0.717896 0.509766 0.013672
0.747498 0.505035 0.015411
0.776703 0.499451 0.017578
0.806824 0.490662 0.021149
0.835632 0.481964 0.024933
0.863251 0.473480 0.028931
0.889832 0.465179 0.033112
0.915405 0.457092 0.037415
0.937225 0.449280 0.041931
0.949921 0.441559 0.046265
0.962433 0.434113 0.050812
0.974945 0.426788 0.054932
0.987488 0.420074 0.059418
1.000000 0.414307 0.064667
0.000000 0.561768 0.214966
0.012512 0.558044 0.206848
0.025055 0.553925 0.198822
0.039856 0.549500 0.190918
0.124329 0.544006 0.182220
0.187866 0.537445 0.171356
0.227173 0.529694 0.157135
0.264435 0.520721 0.144135
0.316986 0.509003 0.142975
0.369293 0.495361 0.150452
0.404175 0.487610 0.153290
0.427460 0.503937 0.135956
0.461578 0.520508 0.113831
0.505737 0.535614 0.086090
0.557220 0.548248 0.048981
0.608246 0.554779 0.019501
0.647247 0.551941 0.013367
0.681458 0.546936 0.015656
0.713562 0.541901 0.017975
0.743530 0.536682 0.020233
0.772156 0.531799 0.022522
0.799896 0.526855 0.024841
0.828979 0.518433 0.028778
0.857025 0.509857 0.033051
0.883911 0.501495 0.037445
0.909821 0.493378 0.042084
0.934845 0.485596 0.046967
0.949921 0.477997 0.052063
0.962433 0.470825 0.057068
0.974945 0.463745 0.061676
0.987488 0.457123 0.066376
1.000000 0.451599 0.072144
0.000000 0.592407 0.227936
0.012512 0.589386 0.220673
0.025055 0.585876 0.213348
0.039093 0.581970 0.206024
0.115692 0.577026 0.197754
0.190552 0.571136 0.188629
0.229767 0.564484 0.174927
0.266357 0.556702 0.161285
0.304871 0.547363 0.150909
0.363403 0.534637 0.156982
0.408997 0.520905 0.164398
0.436035 0.523224 0.159271
0.461700 0.539764 0.140289
0.497223 0.554749 0.117462
0.541290 0.568115 0.088745
0.590210 0.577911 0.053741
0.639923 0.584045 0.023010
0.676086 0.579529 0.019379
0.708466 0.573761 0.022522
0.738922 0.568085 0.025574
0.767853 0.562622 0.028351
0.795593 0.557556 0.031006
0.822449 0.552673 0.033783
0.850159 0.545227 0.037781
0.877502 0.536835 0.042572
0.903809 0.528717 0.047577
0.929138 0.520813 0.052826
0.949921 0.513275 0.057922
0.962433 0.505798 0.062592
0.974945 0.498474 0.066864
0.987488 0.491699 0.071564
1.000000 0.486115 0.077484
0.000000 0.621857 0.240417
0.012512 0.619110 0.233765
0.025055 0.615936 0.227051
0.039154 0.612427 0.220306
0.114410 0.608063 0.212708
0.191711 0.602844 0.204559
0.236664 0.597015 0.192780
0.271820 0.590393 0.179382
0.306122 0.582642 0.166656
0.355286 0.572357 0.164948
0.407349 0.559967 0.171967
0.446838 0.547516 0.178711
0.468384 0.559326 0.165253
0.495880 0.574127 0.145691
0.531921 0.587402 0.122131
0.575317 0.599121 0.092896
0.622009 0.606567 0.060028
0.669861 0.611969 0.028839
0.703644 0.606262 0.027527
0.734406 0.599823 0.031433
0.763489 0.593658 0.034943
0.791382 0.587982 0.038239
0.818329 0.582794 0.041412
0.844391 0.578033 0.044617
0.870850 0.571594 0.048889
0.897552 0.563385 0.054108
0.923187 0.555389 0.059204
0.947662 0.547516 0.063904
0.962433 0.539764 0.068176
0.974945 0.532257 0.072357
0.987488 0.525421 0.077057
1.000000 0.519684 0.082947
0.000000 0.649902 0.252319
0.012512 0.647461 0.246338
0.025055 0.644592 0.240204
0.040344 0.641418 0.234070
0.122101 0.637573 0.227295
0.196533 0.632904 0.219910
0.248138 0.627655 0.210449
0.281494 0.621918 0.197601
0.314331 0.615295 0.185150
0.349609 0.607452 0.175659
0.404114 0.596527 0.181152
0.448975 0.584656 0.187958
0.480072 0.579529 0.188995
0.500885 0.593536 0.172089
0.529327 0.606628 0.151886
0.565399 0.618347 0.127747
0.608063 0.628723 0.097778
0.652466 0.634094 0.067505
0.698364 0.638672 0.036804
0.730103 0.631989 0.037964
0.759338 0.625122 0.042389
0.787048 0.618500 0.046265
0.813873 0.612518 0.049988
0.840027 0.607239 0.053436
0.865356 0.602356 0.056580
0.890472 0.596741 0.060150
0.916351 0.588501 0.064850
0.941193 0.580475 0.069305
0.962402 0.572693 0.073700
0.974945 0.565216 0.077972
0.987488 0.558258 0.082642
1.000000 0.552124 0.088165
0.000000 0.677185 0.264221
0.012512 0.674713 0.258575
0.025055 0.672089 0.253052
0.049469 0.669312 0.247681
0.138367 0.665894 0.241669
0.207306 0.661774 0.235168
0.263672 0.656952 0.228027
0.295441 0.651978 0.216217
0.326660 0.646240 0.204346
0.357513 0.639679 0.193390
0.402039 0.630920 0.192322
0.450043 0.620331 0.198822
0.488922 0.609161 0.205475
0.511597 0.613495 0.198059
0.533478 0.626312 0.180359
0.562469 0.637970 0.159637
0.598236 0.648438 0.135010
0.639984 0.657593 0.104309
0.682343 0.661224 0.077057
0.726196 0.664948 0.047943
0.755981 0.657562 0.051819
0.783936 0.650299 0.056671
0.810608 0.643555 0.060791
0.836517 0.637512 0.064484
0.862030 0.632294 0.067993
0.886719 0.627563 0.071472
0.910950 0.622803 0.075043
0.936035 0.615173 0.079773
0.960175 0.607361 0.084167
0.974945 0.599854 0.088593
0.987488 0.593018 0.093628
1.000000 0.587372 0.100342
0.000000 0.703003 0.275421
0.012512 0.700867 0.270508
0.025757 0.698486 0.265656
0.082581 0.695892 0.260895
0.160126 0.692780 0.255554
0.222534 0.688995 0.249847
0.277954 0.684509 0.243988
0.312317 0.680023 0.234222
0.341644 0.674988 0.223236
0.370972 0.669281 0.212769
0.403534 0.662476 0.205566
0.451477 0.653168 0.210907
0.492493 0.643250 0.217194
0.524750 0.634827 0.221741
0.542511 0.645630 0.207520
0.565155 0.657135 0.189209
0.594269 0.667542 0.167908
0.629517 0.676819 0.142548
0.670258 0.684906 0.111298
0.710510 0.687012 0.087097
0.752167 0.689667 0.061584
0.780426 0.681824 0.066284
0.807220 0.674438 0.070801
0.832855 0.667511 0.074615
0.857758 0.661285 0.078064
0.882568 0.656067 0.081421
0.906586 0.651184 0.084656
0.929993 0.646545 0.087738
0.953979 0.639618 0.091827
0.974945 0.631989 0.096161
0.987488 0.625000 0.101105
1.000000 0.619110 0.107697
0.000000 0.727783 0.286255
0.012512 0.725769 0.282013
0.043121 0.723602 0.277832
0.121643 0.721191 0.273651
0.185547 0.718323 0.269043
0.242035 0.714844 0.264191
0.294525 0.710815 0.259521
0.331909 0.706635 0.252045
0.359558 0.702271 0.242035
0.387238 0.697357 0.232452
0.414795 0.691711 0.223633
0.454590 0.684174 0.224213
0.496307 0.675323 0.229950
0.531555 0.665985 0.235779
0.555481 0.665131 0.233551
0.573212 0.676331 0.217865
0.596313 0.686615 0.199188
0.625214 0.695923 0.177216
0.659790 0.704132 0.151093
0.699310 0.711151 0.118835
0.737671 0.711884 0.097778
0.776642 0.713196 0.076141
0.803589 0.705017 0.080231
0.829285 0.697449 0.084167
0.854004 0.690430 0.087799
0.878021 0.684143 0.091095
0.902222 0.678986 0.094482
0.925659 0.674164 0.097565
0.948364 0.669617 0.100464
0.971375 0.663452 0.104034
0.987488 0.656342 0.108948
1.000000 0.650299 0.115479
0.000000 0.750763 0.295990
0.021210 0.749725 0.293365
0.098358 0.747681 0.289795
0.159515 0.745483 0.286285
0.213593 0.742798 0.282440
0.264374 0.739563 0.278351
0.313019 0.735809 0.274475
0.352295 0.731934 0.269073
0.378021 0.728210 0.260040
0.403870 0.723938 0.251129
0.429688 0.719086 0.242767
0.459106 0.713196 0.237854
0.500061 0.705322 0.242737
0.535919 0.696960 0.247925
0.566376 0.688202 0.253052
0.583557 0.695038 0.243011
0.602142 0.704895 0.227203
0.625397 0.713867 0.208160
0.653900 0.721954 0.185181
0.687622 0.729126 0.157959
0.725922 0.734894 0.126160
0.763702 0.735779 0.106659
0.799591 0.735199 0.089264
0.825562 0.727112 0.093353
0.850433 0.719635 0.097137
0.874298 0.712585 0.100433
0.897461 0.706146 0.103516
0.921082 0.701080 0.106842
0.943970 0.696442 0.110046
0.966217 0.692169 0.113403
0.987427 0.687347 0.117706
1.000000 0.681000 0.123840
0.008301 0.774933 0.308197
0.087677 0.773102 0.305145
0.149261 0.771210 0.302155
0.197906 0.769165 0.299408
0.244995 0.766754 0.296417
0.290771 0.763916 0.293274
0.334503 0.760651 0.290131
0.373993 0.757141 0.286469
0.397827 0.753876 0.278259
0.421967 0.750183 0.270111
0.446198 0.746002 0.262238
0.470703 0.741272 0.255371
0.506317 0.734863 0.257294
0.542053 0.727570 0.262146
0.573486 0.719940 0.267151
0.597595 0.716522 0.267853
0.613556 0.725830 0.255402
0.633118 0.734741 0.240265
0.656860 0.742920 0.222046
0.685120 0.750275 0.199799
0.718048 0.756775 0.171997
0.754578 0.761108 0.143066
0.791931 0.762634 0.124329
0.824432 0.760010 0.111206
0.849274 0.751953 0.114899
0.873016 0.744415 0.117889
0.895905 0.737305 0.120697
0.918030 0.730682 0.123230
0.940826 0.725677 0.126404
0.963013 0.721161 0.129883
0.984619 0.717438 0.134399
1.000000 0.714417 0.141266
0.080566 0.796661 0.318481
0.145386 0.795410 0.316803
0.192841 0.793610 0.314545
0.233856 0.791779 0.312286
0.274445 0.789551 0.309784
0.314636 0.787048 0.307159
0.354279 0.784149 0.304474
0.391296 0.780945 0.301544
0.415405 0.778015 0.294586
0.438110 0.774811 0.287170
0.461090 0.771240 0.279907
0.484192 0.767242 0.273254
0.512360 0.762238 0.270996
0.547455 0.755859 0.275482
0.579041 0.749115 0.280090
0.606903 0.742065 0.284790
0.624878 0.745697 0.278931
0.641479 0.754242 0.266266
0.661530 0.762146 0.251282
0.685272 0.769287 0.233154
0.713104 0.775665 0.210846
0.745209 0.781281 0.182434
0.780151 0.784210 0.155823
0.816833 0.786072 0.137299
0.846252 0.781586 0.127289
0.870148 0.773590 0.130463
0.893066 0.766205 0.133453
0.915222 0.759216 0.136047
0.936584 0.752686 0.138245
0.958588 0.747742 0.141632
0.980255 0.743744 0.146149
1.000000 0.740875 0.152985
0.137268 0.817291 0.328369
0.187408 0.816254 0.327362
0.228088 0.814789 0.325775
0.263092 0.813049 0.323792
0.298523 0.810944 0.321442
0.334625 0.808563 0.319061
0.370789 0.805969 0.316803
0.405884 0.803162 0.314545
0.430603 0.800598 0.309021
0.452423 0.797943 0.302368
0.474487 0.794891 0.295807
0.496704 0.791534 0.289703
0.520111 0.787628 0.285095
0.552582 0.782257 0.288116
0.583893 0.776337 0.292419
0.612122 0.770081 0.296783
0.635468 0.766052 0.298706
0.650543 0.773193 0.288696
0.667725 0.780701 0.275879
0.688049 0.787628 0.260742
0.711884 0.793976 0.242615
0.739410 0.799652 0.220245
0.771027 0.804596 0.191864
0.804565 0.806488 0.169067
0.840698 0.808868 0.151398
0.867401 0.802856 0.144653
0.890442 0.795135 0.147736
0.912537 0.787811 0.150238
0.933838 0.780884 0.152313
0.954468 0.774353 0.154236
0.975800 0.769775 0.158508
0.996796 0.766754 0.165619
0.181458 0.837524 0.338409
0.222717 0.836517 0.337616
0.257568 0.835175 0.336304
0.288849 0.833557 0.334595
0.320953 0.831696 0.332733
0.354095 0.829620 0.330811
0.387695 0.827332 0.329041
0.420898 0.824921 0.327393
0.445618 0.822662 0.322968
0.466522 0.820374 0.316956
0.487640 0.817780 0.311005
0.508881 0.814819 0.305267
0.530182 0.811554 0.300049
0.557983 0.807159 0.300323
0.588623 0.801910 0.304321
0.616730 0.796356 0.308350
