apk/assets/luts/Lut5.cube
#Created by: Fabian Raducan
#Copyright: (C) Copyright 2017 Welovepresets.com - Fabian Raducan
TITLE "WLP_CINEMATIC_49_C"
#LUT size
LUT_3D_SIZE 8
#data domain
#LUT data points
DOMAIN_MIN 0.000000 0.000000 0.000000
DOMAIN_MAX 0.903226 0.903226 0.903226
0.070190 0.075134 0.077667
0.128143 0.083893 0.086884
0.188873 0.095947 0.099579
0.255371 0.114471 0.119324
0.329987 0.142639 0.149445
0.413086 0.180817 0.190399
0.508209 0.232391 0.245728
0.612732 0.292877 0.309692
0.097321 0.155792 0.109955
0.156464 0.165985 0.120880
0.216431 0.177368 0.132935
0.283203 0.196564 0.153503
0.358124 0.225220 0.184326
0.441528 0.263580 0.225464
0.534607 0.312134 0.277252
0.633881 0.365692 0.333405
0.139221 0.253937 0.161346
0.198029 0.264038 0.172180
0.263336 0.281586 0.191040
0.332184 0.303192 0.214264
0.406372 0.330719 0.243713
0.486084 0.363953 0.279083
0.572327 0.403473 0.320618
0.665649 0.449097 0.367645
0.207184 0.382111 0.245117
0.265442 0.391388 0.255005
0.328949 0.406433 0.271027
0.398254 0.427734 0.293549
0.467896 0.449036 0.315857
0.539459 0.472015 0.339752
0.619446 0.503204 0.371735
0.709137 0.543152 0.411835
0.280762 0.513336 0.330658
0.336212 0.519073 0.336609
0.395142 0.528412 0.346252
0.458466 0.542267 0.360443
0.526001 0.560242 0.378754
0.596588 0.580933 0.399567
0.673126 0.607056 0.425476
0.755768 0.638123 0.455719
0.353760 0.638672 0.407227
0.408051 0.642853 0.411346
0.465088 0.649658 0.418121
0.525513 0.659729 0.427979
0.588745 0.672363 0.440399
0.653900 0.686646 0.454224
0.721558 0.703064 0.469879
0.793060 0.722565 0.488342
0.424591 0.756470 0.473053
0.477020 0.758606 0.475098
0.530945 0.762115 0.478394
0.586487 0.767090 0.483093
0.643219 0.773071 0.488739
0.700531 0.779541 0.494781
0.757874 0.786011 0.500793
0.816162 0.793213 0.507477
0.467468 0.845062 0.509094
0.518402 0.845795 0.509735
0.569824 0.846954 0.510834
0.621857 0.848663 0.512390
0.674377 0.850769 0.514313
0.727173 0.853149 0.516510
0.780151 0.855621 0.518768
0.833099 0.858093 0.520996
0.072174 0.077393 0.130157
0.130493 0.086578 0.139832
0.194458 0.102264 0.156403
0.264313 0.124756 0.180389
0.341888 0.156403 0.214264
0.426208 0.195953 0.256775
0.520172 0.245880 0.310211
0.620880 0.301697 0.369019
0.100525 0.159393 0.163879
0.158875 0.168823 0.173920
0.221741 0.183441 0.189545
0.291046 0.205597 0.213287
0.367615 0.236237 0.246246
0.451782 0.275330 0.288177
0.543488 0.321960 0.337738
0.640167 0.372375 0.390411
0.143219 0.258545 0.216370
0.201630 0.268188 0.226746
0.266052 0.284760 0.244537
0.336212 0.307800 0.269287
0.412140 0.337219 0.300781
0.492340 0.370850 0.336487
0.577850 0.409454 0.376923
0.670135 0.453766 0.422485
0.211090 0.386597 0.299988
0.269012 0.395386 0.309357
0.331879 0.409698 0.324554
0.400330 0.430023 0.346008
0.470032 0.451294 0.368317
0.542480 0.475220 0.393158
0.622772 0.506653 0.425323
0.712067 0.546021 0.464783
0.283356 0.516144 0.383667
0.338623 0.521637 0.389343
0.397308 0.530701 0.398682
0.460236 0.544159 0.412445
0.527405 0.561676 0.430298
0.598114 0.582458 0.451202
0.674988 0.608887 0.477356
0.757324 0.639618 0.507233
0.355530 0.640442 0.459045
0.409729 0.644501 0.463074
0.466644 0.651184 0.469696
0.526855 0.661011 0.479370
0.589844 0.673431 0.491516
0.654755 0.687469 0.505096
0.722504 0.703918 0.520813
0.793823 0.723236 0.539063
0.425293 0.757111 0.523743
0.477722 0.759216 0.525787
0.531586 0.762695 0.529022
0.587036 0.767578 0.533661
0.643707 0.773468 0.539185
0.700897 0.779877 0.545197
0.758179 0.786255 0.551117
0.816559 0.793579 0.557892
0.467560 0.845184 0.559296
0.518494 0.845886 0.559937
0.569946 0.847076 0.561005
0.621948 0.848785 0.562592
0.674469 0.850891 0.564484
0.727295 0.853241 0.566681
0.780243 0.855682 0.568939
0.833191 0.858185 0.571167
0.075043 0.080627 0.183594
0.133270 0.089691 0.193207
0.197266 0.105347 0.209747
0.267792 0.128723 0.234711
0.345367 0.160431 0.268707
0.431793 0.202332 0.313721
0.528076 0.254730 0.369690
0.627930 0.309265 0.427002
0.103760 0.163086 0.217926
0.162231 0.172729 0.228180
0.225250 0.187500 0.243988
0.295593 0.210907 0.269135
0.373962 0.243530 0.304169
0.460358 0.285034 0.348633
0.551971 0.331299 0.397675
0.646149 0.378693 0.447021
0.146881 0.262817 0.271057
0.205658 0.272858 0.281891
0.269958 0.289276 0.299469
0.341492 0.313873 0.325867
0.418732 0.344696 0.358826
0.499298 0.378571 0.394684
0.583984 0.416016 0.433838
0.674896 0.458649 0.477539
0.215454 0.391541 0.355347
0.273560 0.400482 0.364868
0.335938 0.414215 0.379456
0.403473 0.433441 0.399719
0.473236 0.454773 0.422058
0.546631 0.479584 0.447723
0.627045 0.510986 0.479797
0.715393 0.549316 0.518127
0.286957 0.519958 0.437714
0.342041 0.525269 0.443176
0.400421 0.533966 0.452118
0.462952 0.546936 0.465424
0.529602 0.563904 0.482666
0.600555 0.584930 0.503754
0.677673 0.611420 0.529968
0.759338 0.641479 0.559143
0.358032 0.642944 0.511597
0.412140 0.646851 0.515503
0.468842 0.653351 0.521942
0.528809 0.662933 0.531342
0.591553 0.675049 0.543152
0.656128 0.688751 0.556427
0.724060 0.705322 0.572235
0.794891 0.724213 0.590088
0.426270 0.757996 0.574677
0.478638 0.760101 0.576691
0.532410 0.763458 0.579865
0.587799 0.768250 0.584381
0.644348 0.774078 0.589844
0.701447 0.780365 0.595734
0.758636 0.786682 0.601624
0.817200 0.794159 0.608521
0.467743 0.845306 0.609497
0.518646 0.846039 0.610138
0.570099 0.847198 0.611237
0.622131 0.848907 0.612793
0.674652 0.850983 0.614716
0.727448 0.853363 0.616882
0.780396 0.855835 0.619141
0.833313 0.858307 0.621368
0.080292 0.086426 0.239838
0.138245 0.095245 0.249146
0.201233 0.109955 0.264771
0.272003 0.133575 0.290009
0.350891 0.166779 0.325592
0.437531 0.208923 0.370880
0.533569 0.260834 0.426300
0.632690 0.314331 0.482361
0.110138 0.170410 0.275787
0.167267 0.178436 0.284424
0.229858 0.192810 0.299835
0.300446 0.216461 0.325195
0.379547 0.250000 0.361206
0.465729 0.291107 0.405182
0.557037 0.336823 0.453583
0.651031 0.383820 0.502380
0.151459 0.268036 0.326813
0.210938 0.278900 0.338440
0.275787 0.295959 0.356781
0.347168 0.320343 0.382935
0.424805 0.351471 0.416138
0.505524 0.385406 0.451965
0.589630 0.421997 0.490112
0.678619 0.462433 0.531464
0.220612 0.397339 0.411621
0.278595 0.406158 0.421021
0.341003 0.419830 0.435455
0.407928 0.438293 0.454926
0.478027 0.459930 0.477509
0.551697 0.484894 0.503296
0.631317 0.515350 0.534302
0.717865 0.551727 0.570618
0.290802 0.524048 0.492004
0.346008 0.529449 0.497589
0.404419 0.538147 0.506500
0.466675 0.550781 0.519440
0.532837 0.567200 0.536072
0.604095 0.588440 0.557343
0.680664 0.614349 0.582916
0.761078 0.643127 0.610809
0.361084 0.645905 0.564697
0.415070 0.649719 0.568451
0.471558 0.656006 0.574615
0.531311 0.665344 0.583801
0.593811 0.677216 0.595367
0.658142 0.690643 0.608307
0.726135 0.707245 0.624176
0.796112 0.725342 0.641205
0.427185 0.758850 0.625580
0.479553 0.760925 0.627563
0.533325 0.764282 0.630737
0.588654 0.769043 0.635223
0.645172 0.774811 0.640625
0.702240 0.781067 0.646484
0.759369 0.787323 0.652313
0.818146 0.794952 0.659363
0.467804 0.845367 0.659607
0.518738 0.846069 0.660278
0.570190 0.847290 0.661407
0.622253 0.848999 0.662994
0.674805 0.851135 0.664948
0.727631 0.853546 0.667114
0.780609 0.856018 0.669403
0.833557 0.858490 0.671631
0.087585 0.094666 0.298615
0.144928 0.102844 0.307343
0.207397 0.116913 0.322327
0.277527 0.139954 0.346924
0.356537 0.173279 0.382751
0.445496 0.217987 0.430725
0.540955 0.269104 0.485107
0.639191 0.321228 0.539642
0.116974 0.178192 0.334229
0.174042 0.186188 0.342804
0.236389 0.200378 0.358002
0.306580 0.223602 0.382935
0.386047 0.257446 0.419281
0.473145 0.299377 0.464142
0.563568 0.343964 0.511139
0.657043 0.390106 0.558960
0.160156 0.278137 0.387726
0.219971 0.289368 0.399811
0.283417 0.304688 0.416290
0.354065 0.328217 0.441437
0.431152 0.358582 0.473755
0.511597 0.391998 0.509003
0.595123 0.427826 0.546234
0.684204 0.468109 0.587280
0.226257 0.403656 0.468445
0.284424 0.412628 0.477997
0.347015 0.426453 0.492584
0.413605 0.444519 0.511536
0.483307 0.465546 0.533417
0.556641 0.490051 0.558716
0.635315 0.519409 0.588501
0.719421 0.553253 0.622223
0.295837 0.529419 0.547638
0.351013 0.534668 0.553070
0.409241 0.543182 0.561798
0.471222 0.555450 0.574249
0.537079 0.571472 0.590485
0.607422 0.591736 0.610718
0.682312 0.615936 0.634552
0.760834 0.642883 0.660645
0.364990 0.649750 0.618591
0.418823 0.653412 0.622192
0.475006 0.659332 0.628021
0.534149 0.668091 0.636597
0.596436 0.679688 0.647858
0.660797 0.693146 0.660797
0.728394 0.709320 0.676239
0.796997 0.726105 0.692047
0.429108 0.760590 0.677368
0.481140 0.762390 0.679047
0.534485 0.765320 0.681824
0.589447 0.769745 0.686005
0.646057 0.775604 0.691498
0.703186 0.781891 0.697357
0.760315 0.788177 0.703186
0.819214 0.795929 0.710327
0.467987 0.845520 0.709869
0.518768 0.846130 0.710449
0.570160 0.847290 0.711487
0.622314 0.849060 0.713135
0.674927 0.851257 0.715149
0.727844 0.853729 0.717407
0.780853 0.856262 0.719727
0.833862 0.858765 0.721985
0.096771 0.105042 0.359741
0.154022 0.113190 0.368408
0.216675 0.127502 0.383698
0.286987 0.150848 0.408722
0.366516 0.184875 0.445282
0.456299 0.230316 0.493958
0.550262 0.279358 0.546021
0.647430 0.329956 0.598755
0.125977 0.188568 0.395447
0.183258 0.196869 0.404327
0.245911 0.211426 0.419983
0.316650 0.235260 0.445587
0.396698 0.269562 0.482391
0.483490 0.310974 0.526489
0.571777 0.352844 0.570526
0.664886 0.398254 0.617340
0.172363 0.292236 0.452972
0.230225 0.301178 0.462555
0.293701 0.316498 0.479004
0.364349 0.339813 0.503937
0.440826 0.369293 0.535217
0.520386 0.401550 0.569061
0.602234 0.435242 0.603973
0.691376 0.475342 0.644653
0.237457 0.416107 0.531769
0.294739 0.424042 0.540131
0.355713 0.436035 0.552734
0.421143 0.452637 0.570099
0.490692 0.473419 0.591705
0.563843 0.497559 0.616455
0.641541 0.525696 0.644897
0.725525 0.559204 0.678192
0.305023 0.539001 0.607605
0.359833 0.543884 0.612579
0.417450 0.551666 0.620514
0.477997 0.562378 0.631409
0.542816 0.577240 0.646393
0.612915 0.597137 0.666199
0.686432 0.619843 0.688507
0.762878 0.644806 0.712616
0.371490 0.656097 0.674957
0.424988 0.659393 0.678162
0.480591 0.664734 0.683411
0.539093 0.672791 0.691284
0.600433 0.683472 0.701630
0.664337 0.696411 0.714050
0.730225 0.710999 0.727936
0.796936 0.726074 0.742096
0.431671 0.762909 0.729675
0.483643 0.764648 0.731293
0.536835 0.767487 0.733948
0.591461 0.771576 0.737823
0.647369 0.776764 0.742676
0.704346 0.782928 0.748413
0.761597 0.789307 0.754333
0.820282 0.796844 0.761292
0.468903 0.846313 0.760712
0.519684 0.846893 0.761261
0.570892 0.847900 0.762177
0.622650 0.849365 0.763489
0.674988 0.851318 0.765289
0.728058 0.853882 0.767670
0.781189 0.856567 0.770081
0.834290 0.859100 0.772430
0.109406 0.119354 0.425110
0.167145 0.128204 0.434540
0.230621 0.143616 0.451050
0.302429 0.168732 0.478027
0.384399 0.205444 0.517456
0.475342 0.251801 0.566986
0.567932 0.298615 0.616302
0.658966 0.342010 0.661163
0.138672 0.203217 0.461273
0.196503 0.212219 0.470917
0.260345 0.228088 0.487976
0.332855 0.253876 0.515656
0.414185 0.289429 0.553711
0.500580 0.329865 0.596558
0.587738 0.369904 0.638336
0.675446 0.409119 0.678497
0.185608 0.307434 0.519409
0.243958 0.316925 0.529541
0.308014 0.332794 0.546509
0.378998 0.356293 0.571533
0.455231 0.385162 0.602020
0.534607 0.416718 0.634979
0.616211 0.449829 0.668976
0.700409 0.484375 0.703796
0.250305 0.430298 0.596771
0.305695 0.436096 0.602905
0.365540 0.446686 0.614014
0.431274 0.463531 0.631561
0.501343 0.484650 0.653351
0.575592 0.509644 0.678833
0.653137 0.537292 0.706604
0.733002 0.566406 0.735352
0.317963 0.552399 0.671387
0.371613 0.556091 0.675110
0.427155 0.561615 0.680725
0.484924 0.569427 0.688599
0.550720 0.585175 0.704407
0.621735 0.605774 0.724792
0.694489 0.627594 0.746094
0.768433 0.649933 0.767609
0.385529 0.669678 0.738312
0.438110 0.672058 0.740662
0.492401 0.676056 0.744507
0.548798 0.682037 0.750336
0.607330 0.689972 0.757965
0.669098 0.700836 0.768372
0.734253 0.714661 0.781494
0.799133 0.727997 0.794006
0.437378 0.768127 0.784668
0.488953 0.769501 0.785950
0.541565 0.771729 0.788025
0.595367 0.775085 0.791199
0.650391 0.779480 0.795319
0.706390 0.784760 0.800232
0.763275 0.790771 0.805786
0.820831 0.797363 0.811829
0.469971 0.847290 0.811676
0.520721 0.847870 0.812225
0.571899 0.848816 0.813080
0.623596 0.850220 0.814362
0.675842 0.852051 0.816071
0.728455 0.854248 0.818054
0.781586 0.856842 0.820465
0.834808 0.859589 0.822937
0.128937 0.141907 0.499268
0.187866 0.152100 0.510223
0.253479 0.170044 0.529480
0.329071 0.199432 0.561127
0.415039 0.240326 0.604828
0.506134 0.285889 0.653046
0.597260 0.329834 0.698792
0.689117 0.372894 0.742554
0.158417 0.226105 0.535919
0.217682 0.236664 0.547241
0.283813 0.255127 0.567108
0.359222 0.283936 0.597961
0.441833 0.320343 0.636627
0.527557 0.359131 0.677246
0.614777 0.398224 0.717529
0.703949 0.437805 0.757416
0.204865 0.329437 0.593018
0.264008 0.339661 0.603973
0.328949 0.356354 0.621704
0.400574 0.380188 0.646881
0.477142 0.408905 0.676910
0.557190 0.440552 0.709564
0.640808 0.474884 0.744385
0.725677 0.509247 0.778503
0.260803 0.441742 0.658936
0.317780 0.449249 0.666718
0.379303 0.461487 0.679504
0.446106 0.479279 0.697876
0.518005 0.501953 0.721100
0.594421 0.528656 0.748077
0.673431 0.557251 0.776428
0.752289 0.584778 0.803284
0.332581 0.567352 0.736603
0.384003 0.568665 0.737946
0.436005 0.570587 0.739899
0.493011 0.577576 0.746887
0.562561 0.596893 0.766144
0.635193 0.618774 0.787628
0.708649 0.640930 0.809082
0.780334 0.660919 0.828156
0.403564 0.686798 0.805023
0.454803 0.687866 0.806061
0.506775 0.689636 0.807739
0.559662 0.692261 0.810242
0.613342 0.695618 0.813477
0.675873 0.707092 0.824432
0.741364 0.721100 0.837646
0.804626 0.732941 0.848694
0.450867 0.780243 0.846130
0.501678 0.780914 0.846710
0.552948 0.781952 0.847717
0.604889 0.783600 0.849213
0.657440 0.785767 0.851257
0.710632 0.788544 0.853821
0.765625 0.792847 0.857788
0.822784 0.799042 0.863495
0.473785 0.850586 0.864838
0.524292 0.850952 0.865173
0.575104 0.851563 0.865723
0.626282 0.852539 0.866608
0.677917 0.853851 0.867798
0.729980 0.855530 0.869354
0.782501 0.857635 0.871277
0.835541 0.860229 0.873627
