apk/assets/luts/Lut5.cube
#Created by: Fabian Raducan
#Copyright: (C) Copyright 2017 Welovepresets.com - Fabian Raducan
TITLE "WLP_CINEMATIC_49_C"
#LUT size
LUT_3D_SIZE 5
#data domain
#LUT data points
DOMAIN_MIN 0.000000 0.000000 0.000000
DOMAIN_MAX 0.903226 0.903226 0.903226
0.070190 0.075134 0.077667
0.173309 0.092499 0.095978
0.291626 0.127350 0.133026
0.435547 0.192230 0.202698
0.612732 0.292877 0.309692
0.126404 0.226654 0.145477
0.233368 0.248932 0.169403
0.353760 0.286713 0.209961
0.494995 0.347443 0.274841
0.656464 0.427063 0.357941
0.245361 0.449890 0.290466
0.347260 0.465485 0.306854
0.462891 0.495514 0.338165
0.586243 0.532715 0.376251
0.732849 0.591309 0.434601
0.372772 0.669861 0.425690
0.468689 0.677856 0.433502
0.572998 0.693756 0.448944
0.683258 0.714874 0.469238
0.800018 0.741364 0.494202
0.467468 0.845062 0.509094
0.556915 0.846619 0.510498
0.648071 0.849670 0.513306
0.740448 0.853760 0.517059
0.833099 0.858093 0.520996
0.074249 0.079712 0.170105
0.179901 0.099945 0.191498
0.304535 0.142181 0.236603
0.454010 0.213379 0.313049
0.626343 0.307556 0.412689
0.132782 0.233978 0.241028
0.238678 0.255066 0.263672
0.364655 0.299164 0.311035
0.507813 0.361633 0.377502
0.665222 0.436157 0.454865
0.251648 0.456818 0.385437
0.352478 0.471191 0.400482
0.466248 0.499115 0.429535
0.590942 0.537598 0.468842
0.737030 0.595276 0.526154
0.375824 0.672821 0.516235
0.471405 0.680481 0.523743
0.575165 0.695801 0.538605
0.684753 0.716217 0.558197
0.801361 0.742523 0.582947
0.467712 0.845276 0.596924
0.557129 0.846832 0.598358
0.648285 0.849884 0.601166
0.740631 0.853943 0.604889
0.833282 0.858246 0.608826
0.083801 0.090332 0.269073
0.187744 0.108795 0.288574
0.312897 0.151825 0.334625
0.464539 0.225433 0.413605
0.635712 0.317535 0.510742
0.142700 0.245453 0.341003
0.248810 0.266785 0.363922
0.375122 0.311127 0.411530
0.518768 0.373657 0.477844
0.673370 0.444580 0.551056
0.259491 0.465393 0.482117
0.360321 0.479645 0.497009
0.472778 0.505951 0.524261
0.597778 0.544495 0.563477
0.739716 0.597839 0.616333
0.380615 0.677460 0.608459
0.475525 0.684448 0.615265
0.578583 0.699036 0.629395
0.687683 0.718964 0.648438
0.803284 0.744232 0.672241
0.467773 0.845337 0.684662
0.557281 0.846924 0.686127
0.648529 0.850067 0.689026
0.740967 0.854248 0.692810
0.833710 0.858612 0.696808
0.099518 0.108185 0.375580
0.203247 0.126526 0.395172
0.328857 0.170288 0.442139
0.483612 0.247009 0.524323
0.649811 0.332458 0.613800
0.161316 0.266937 0.451782
0.266113 0.286713 0.473022
0.392334 0.330658 0.520020
0.534088 0.390259 0.582855
0.685944 0.457336 0.651672
0.274719 0.481812 0.586945
0.373718 0.493958 0.599548
0.483459 0.517151 0.623413
0.608215 0.555023 0.661713
0.745667 0.603577 0.709534
0.390015 0.686462 0.704926
0.483917 0.692413 0.710693
0.584839 0.704926 0.722717
0.692566 0.723419 0.740356
0.804016 0.744904 0.760529
0.469147 0.846558 0.773468
0.558289 0.847809 0.774628
0.648926 0.850464 0.777039
0.741394 0.854584 0.780853
0.834381 0.859222 0.785034
0.128937 0.141907 0.499268
0.236206 0.164581 0.523651
0.370972 0.218719 0.581787
0.528961 0.297089 0.664795
0.689117 0.372894 0.742554
0.191528 0.301727 0.576752
0.299347 0.324646 0.601257
0.427979 0.370270 0.649597
0.569702 0.428040 0.709595
0.719604 0.490784 0.772644
0.295715 0.504181 0.697723
0.387726 0.508759 0.702454
0.503632 0.537933 0.732208
0.633362 0.579865 0.774048
0.766449 0.623047 0.815979
0.418274 0.713043 0.818176
0.508240 0.715179 0.820190
0.600647 0.719543 0.824341
0.700867 0.731018 0.835175
0.809753 0.750000 0.852905
0.473785 0.850586 0.864838
0.562347 0.851379 0.865540
0.652008 0.853149 0.867157
0.743011 0.856018 0.869781
0.835541 0.860229 0.873627
