apk/assets/luts/Lut5.cube
#Created by: Fabian Raducan
#Copyright: (C) Copyright 2017 Welovepresets.com - Fabian Raducan
TITLE "WLP_CINEMATIC_49_C"
#LUT size
LUT_3D_SIZE 32
#data domain
DOMAIN_MIN 0.0 0.0 0.0
DOMAIN_MAX 1.0 1.0 1.0
#LUT data points
0.070190 0.075134 0.077667
0.084839 0.077545 0.080170
0.099457 0.079865 0.082581
0.113708 0.081726 0.084595
0.128143 0.083893 0.086884
0.142944 0.086487 0.089630
0.158081 0.089325 0.092651
0.173309 0.092499 0.095978
0.188873 0.095947 0.099579
0.204895 0.099792 0.103699
0.221191 0.104156 0.108307
0.238068 0.109039 0.113495
0.255371 0.114471 0.119324
0.273193 0.120575 0.125763
0.291626 0.127350 0.133026
0.310486 0.134644 0.140839
0.329987 0.142639 0.149445
0.349884 0.151215 0.158600
0.370392 0.160400 0.168518
0.391510 0.170288 0.179138
0.413086 0.180817 0.190399
0.435547 0.192230 0.202698
0.458923 0.204742 0.216095
0.483154 0.218140 0.230499
0.508209 0.232391 0.245728
0.533875 0.247223 0.261536
0.559967 0.262390 0.277618
0.586243 0.277618 0.293732
0.612732 0.292877 0.309692
0.639526 0.308197 0.325745
0.666534 0.323700 0.341766
0.694122 0.339508 0.358032
0.077240 0.095581 0.085968
0.092438 0.098480 0.089111
0.106812 0.100586 0.091339
0.120880 0.102356 0.093109
0.135071 0.104218 0.095154
0.149567 0.106445 0.097504
0.164368 0.109039 0.100250
0.179535 0.112000 0.103363
0.195038 0.115387 0.106964
0.211029 0.119354 0.111145
0.227448 0.123718 0.115845
0.244385 0.128754 0.121216
0.261749 0.134369 0.127136
0.279724 0.140594 0.133820
0.298157 0.147400 0.141083
0.317078 0.154755 0.148987
0.336548 0.162750 0.157593
0.356506 0.171417 0.166840
0.377075 0.180664 0.176788
0.398193 0.190552 0.187439
0.419830 0.201050 0.198730
0.442322 0.212555 0.211060
0.465729 0.225006 0.224426
0.489838 0.238281 0.238617
0.514740 0.252319 0.253601
0.540131 0.266724 0.268951
0.565857 0.281464 0.284546
0.591797 0.296234 0.300140
0.617950 0.311035 0.315613
0.644409 0.326019 0.331207
0.671234 0.341125 0.346863
0.698700 0.356781 0.362915
0.084229 0.115906 0.094238
0.099060 0.118530 0.096954
0.113983 0.121124 0.099823
0.128143 0.123108 0.101837
0.142029 0.124664 0.103516
0.156342 0.126648 0.105591
0.170959 0.128967 0.108093
0.185974 0.131805 0.111084
0.201508 0.135223 0.114716
0.217407 0.139191 0.118927
0.233978 0.143677 0.123718
0.250885 0.148773 0.129181
0.268311 0.154449 0.135193
0.286316 0.160675 0.141907
0.304779 0.167480 0.149231
0.323700 0.174927 0.157166
0.343170 0.182922 0.165802
0.363251 0.191620 0.175110
0.383728 0.200897 0.185059
0.404877 0.210785 0.195709
0.426544 0.221344 0.207092
0.449066 0.232819 0.219360
0.472412 0.245148 0.232605
0.496460 0.258301 0.246643
0.521088 0.271942 0.261169
0.546234 0.286072 0.276184
0.571564 0.300262 0.291168
0.597198 0.314575 0.306244
0.623016 0.329041 0.321350
0.649261 0.343628 0.336517
0.675781 0.358490 0.351807
0.703217 0.373993 0.367706
0.090393 0.135315 0.101532
0.105042 0.137878 0.104218
0.119781 0.140320 0.106842
0.134583 0.142853 0.109558
0.149261 0.145325 0.112122
0.163300 0.147034 0.113983
0.177826 0.149292 0.116394
0.192749 0.152100 0.119324
0.208252 0.155457 0.122925
0.224182 0.159393 0.127167
0.240692 0.163971 0.132019
0.257629 0.169037 0.137421
0.275055 0.174683 0.143524
0.293030 0.180969 0.150208
0.311493 0.187836 0.157562
0.330475 0.195282 0.165588
0.349976 0.203308 0.174225
0.369995 0.212006 0.183563
0.390564 0.221283 0.193573
0.411743 0.231232 0.204224
0.433411 0.241791 0.215546
0.455872 0.253143 0.227722
0.479095 0.265350 0.240784
0.502991 0.278168 0.254486
0.527405 0.291565 0.268707
0.552155 0.305145 0.283112
0.577209 0.318970 0.297699
0.602478 0.332886 0.312256
0.628052 0.346954 0.326965
0.654022 0.361267 0.341766
0.680420 0.375885 0.356812
0.707764 0.391144 0.372406
0.097321 0.155792 0.109955
0.111969 0.158142 0.112457
0.126617 0.160553 0.115051
0.141266 0.163055 0.117645
0.156464 0.165985 0.120880
0.171692 0.169128 0.124146
0.186005 0.171265 0.126434
0.201019 0.174011 0.129364
0.216431 0.177368 0.132935
0.232300 0.181244 0.137115
0.248779 0.185791 0.141968
0.265747 0.190887 0.147400
0.283203 0.196564 0.153503
0.301147 0.202820 0.160248
0.319641 0.209686 0.167603
0.338593 0.217133 0.175629
0.358124 0.225220 0.184326
0.378174 0.233948 0.193726
0.398804 0.243256 0.203705
0.419861 0.253143 0.214294
0.441528 0.263580 0.225464
0.463898 0.274811 0.237518
0.486969 0.286774 0.250275
0.510559 0.299225 0.263580
0.534607 0.312134 0.277252
0.558990 0.325256 0.291107
0.583679 0.338562 0.305115
0.608582 0.351990 0.319153
0.633881 0.365692 0.333405
0.659546 0.379608 0.347778
0.685883 0.394043 0.362579
0.713043 0.409149 0.377960
0.105560 0.177612 0.119904
0.120087 0.179962 0.122375
0.134705 0.182343 0.124939
0.149353 0.184814 0.127563
0.164490 0.187714 0.130646
0.180084 0.191254 0.134399
0.195953 0.195160 0.138611
0.210785 0.197815 0.141449
0.226166 0.201111 0.144958
0.242065 0.205017 0.149170
0.258484 0.209503 0.153961
0.275421 0.214600 0.159424
0.292847 0.220276 0.165527
0.310822 0.226532 0.172302
0.329285 0.233398 0.179626
0.348267 0.240906 0.187714
0.367828 0.248962 0.196350
0.387909 0.257660 0.205750
0.408508 0.266968 0.215668
0.429474 0.276672 0.226105
0.451050 0.286957 0.237122
0.473236 0.297882 0.248779
0.496002 0.309479 0.261139
0.519226 0.321472 0.273865
0.542877 0.333801 0.286926
0.566772 0.346344 0.300140
0.591034 0.359100 0.313507
0.615631 0.372101 0.327057
0.640564 0.385315 0.340759
0.665985 0.398895 0.354736
0.692230 0.413147 0.369263
0.719330 0.428040 0.384399
0.115173 0.201263 0.131714
0.129761 0.203552 0.134186
0.144348 0.205963 0.136719
0.158966 0.208374 0.139313
0.174042 0.211243 0.142426
0.189636 0.214752 0.146210
0.205658 0.218872 0.150574
0.222229 0.223511 0.155548
0.237579 0.226807 0.159088
0.253448 0.230652 0.163269
0.269897 0.235168 0.168091
0.286774 0.240234 0.173523
0.304199 0.245880 0.179596
0.322144 0.252136 0.186340
0.340668 0.259064 0.193756
0.359680 0.266541 0.201782
0.379211 0.274628 0.210449
0.399261 0.283264 0.219757
0.419678 0.292328 0.229462
0.440521 0.301727 0.239532
0.461792 0.311676 0.250122
0.483643 0.322235 0.261353
0.506012 0.333221 0.273071
0.528809 0.344635 0.285126
0.551971 0.356354 0.297455
0.575439 0.368286 0.309998
0.599304 0.380524 0.322784
0.623474 0.393005 0.335724
0.648071 0.405762 0.348907
0.673340 0.419098 0.362610
0.699463 0.433105 0.376862
0.726379 0.447754 0.391632
0.126404 0.226654 0.145477
0.140991 0.229004 0.148010
0.155579 0.231354 0.150574
0.170135 0.233765 0.153137
0.185211 0.236664 0.156219
0.200745 0.240143 0.160004
0.216797 0.244202 0.164368
0.233368 0.248932 0.169403
0.250458 0.254181 0.175049
0.266510 0.258301 0.179474
0.282928 0.262817 0.184296
0.299866 0.267853 0.189728
0.317291 0.273529 0.195831
0.335266 0.279816 0.202606
0.353760 0.286713 0.209961
0.372711 0.294098 0.217896
0.392181 0.301971 0.226410
0.412018 0.310333 0.235321
0.432190 0.319000 0.244598
0.452606 0.327972 0.254150
0.473541 0.337433 0.264221
0.494995 0.347443 0.274841
0.516937 0.357819 0.285858
0.539185 0.368561 0.297150
0.561768 0.379608 0.308746
0.584839 0.390961 0.320618
0.608246 0.402649 0.332764
0.632050 0.414612 0.345154
0.656464 0.427063 0.357941
0.681610 0.440125 0.371277
0.707550 0.453888 0.385193
0.734253 0.468140 0.399506
0.139221 0.253937 0.161346
0.153748 0.256317 0.163879
0.168304 0.258667 0.166412
0.182953 0.261139 0.169037
0.198029 0.264038 0.172180
0.213501 0.267487 0.175903
0.229645 0.271606 0.180298
0.246246 0.276276 0.185364
0.263336 0.281586 0.191040
0.281067 0.287598 0.197510
0.297821 0.292511 0.202789
0.314758 0.297546 0.208191
0.332184 0.303192 0.214264
0.350128 0.309387 0.220947
0.368469 0.316071 0.228058
0.387238 0.323181 0.235657
0.406372 0.330719 0.243713
0.425873 0.338562 0.252106
0.445618 0.346741 0.260803
0.465607 0.355103 0.269684
0.486084 0.363953 0.279083
0.506989 0.373260 0.288879
0.528351 0.382965 0.299133
0.550140 0.393066 0.309692
0.572327 0.403473 0.320618
0.594849 0.414276 0.331818
0.617889 0.425385 0.343323
0.641418 0.436951 0.355225
0.665649 0.449097 0.367645
0.690643 0.461945 0.380676
0.716400 0.475311 0.394135
0.742798 0.489197 0.408051
0.153748 0.283264 0.179382
0.168274 0.285614 0.181915
0.182892 0.288025 0.184479
0.197510 0.290436 0.187103
0.212585 0.293365 0.190247
0.228149 0.296875 0.194031
0.244202 0.300964 0.198395
0.260803 0.305664 0.203491
0.277985 0.310974 0.209198
0.295685 0.316895 0.215546
0.313904 0.323517 0.222626
0.331329 0.329132 0.228638
0.348633 0.334503 0.234406
0.366272 0.340363 0.240631
0.384369 0.346710 0.247406
0.402771 0.353302 0.254486
0.421539 0.360321 0.261932
0.440460 0.367554 0.269623
0.459656 0.374969 0.277466
0.479156 0.382660 0.285614
0.499084 0.390808 0.294220
0.519470 0.399475 0.303314
0.540344 0.408539 0.312805
0.561615 0.417999 0.322662
0.583344 0.427826 0.332916
0.605499 0.438049 0.343445
0.628174 0.448730 0.354462
0.651520 0.460022 0.365997
0.675598 0.471924 0.378082
0.700439 0.484375 0.390686
0.725891 0.497345 0.403656
0.751953 0.510742 0.416962
0.170013 0.314575 0.199585
0.184631 0.316986 0.202148
0.199219 0.319366 0.204742
0.213867 0.321808 0.207367
0.228943 0.324707 0.210480
0.244537 0.328278 0.214294
0.260559 0.332306 0.218628
0.277161 0.336975 0.223633
0.294189 0.342102 0.229126
0.311798 0.347870 0.235291
0.329773 0.354095 0.241943
0.348206 0.360809 0.249115
0.366058 0.366821 0.255493
0.383331 0.372162 0.261200
0.400940 0.377899 0.267303
0.418884 0.383911 0.273682
0.437073 0.390198 0.280334
0.455414 0.396637 0.287170
0.473969 0.403320 0.294189
0.492920 0.410339 0.301575
0.512360 0.417908 0.309479
0.532288 0.425903 0.317871
0.552673 0.434357 0.326660
0.573517 0.443237 0.335907
0.594818 0.452515 0.345490
0.616699 0.462341 0.355560
0.639191 0.472717 0.366180
0.662384 0.483673 0.377350
0.686279 0.495270 0.389038
0.710815 0.507324 0.401123
0.735992 0.519836 0.413574
0.761536 0.532623 0.426208
0.188019 0.347778 0.221802
0.202606 0.350189 0.224335
0.217194 0.352509 0.226837
0.231812 0.354889 0.229431
0.246826 0.357727 0.232452
0.262299 0.361115 0.236053
0.278198 0.364929 0.240143
0.294556 0.369324 0.244843
0.311401 0.374176 0.250031
0.328644 0.379486 0.255707
0.346344 0.385315 0.261841
0.364380 0.391479 0.268433
0.382751 0.398010 0.275360
0.400574 0.403900 0.281586
0.417633 0.408936 0.286926
0.434967 0.414246 0.292542
0.452576 0.419830 0.298370
0.470337 0.425568 0.304382
0.488342 0.431549 0.310669
0.506866 0.437988 0.317413
0.525848 0.444977 0.324707
0.545349 0.452423 0.332428
0.565308 0.460327 0.340607
0.585785 0.468719 0.349274
0.606842 0.477661 0.358398
0.628510 0.487152 0.368134
0.650879 0.497253 0.378387
0.673889 0.507904 0.389160
0.697510 0.519073 0.400360
0.721710 0.530670 0.411896
0.746399 0.542603 0.423676
0.771423 0.554688 0.435547
0.207184 0.382111 0.245117
0.221619 0.384338 0.247498
0.236084 0.386475 0.249786
0.250519 0.388733 0.252136
0.265442 0.391388 0.255005
0.280701 0.394470 0.258301
0.296417 0.398010 0.262085
0.312531 0.402039 0.266357
0.328949 0.406433 0.271027
0.345825 0.411255 0.276123
0.362976 0.416443 0.281616
0.380524 0.421967 0.287445
0.398254 0.427734 0.293549
0.416351 0.433807 0.299927
0.434021 0.439484 0.305878
0.450836 0.444153 0.310760
0.467896 0.449036 0.315857
0.485107 0.454102 0.321136
0.502747 0.459595 0.326843
0.520844 0.465546 0.333038
0.539459 0.472015 0.339752
0.558594 0.479004 0.346954
0.578278 0.486511 0.354675
0.598541 0.494568 0.362946
0.619446 0.503204 0.371735
0.640961 0.512451 0.381073
0.663116 0.522217 0.390930
0.685852 0.532471 0.401215
0.709137 0.543152 0.411835
0.732880 0.554169 0.422760
0.757050 0.565430 0.433807
0.781433 0.576752 0.444824
0.226532 0.416473 0.268341
0.240845 0.418457 0.270508
0.255127 0.420410 0.272583
0.269440 0.422455 0.274658
0.284088 0.424774 0.277161
0.299103 0.427551 0.280121
0.314453 0.430725 0.283447
0.330170 0.434235 0.287140
0.346283 0.438141 0.291321
0.362640 0.442383 0.295746
0.379303 0.446930 0.300537
0.396332 0.451843 0.305695
0.413605 0.457031 0.311127
0.431091 0.462372 0.316711
0.448822 0.468018 0.322601
0.466400 0.473450 0.328247
0.483002 0.477783 0.332733
0.499786 0.482330 0.337433
0.517120 0.487366 0.342651
0.534882 0.492950 0.348419
0.553253 0.499054 0.354706
0.572144 0.505737 0.361511
0.591705 0.512970 0.368927
0.611816 0.520782 0.376831
0.632568 0.529144 0.385315
0.653870 0.538025 0.394226
0.675751 0.547394 0.403625
0.698181 0.557190 0.413361
0.721008 0.567291 0.423340
0.744232 0.577667 0.433533
0.767731 0.588196 0.443756
0.791321 0.598694 0.453918
0.245361 0.449890 0.290466
0.259460 0.451630 0.292297
0.273560 0.453400 0.294159
0.287689 0.455139 0.296021
0.302063 0.457214 0.298187
0.316833 0.459595 0.300720
0.331848 0.462402 0.303619
0.347260 0.465485 0.306854
0.362946 0.468903 0.310455
0.378906 0.472687 0.314392
0.395172 0.476715 0.318604
0.411743 0.481079 0.323151
0.428558 0.485657 0.327911
0.445587 0.490479 0.332916
0.462891 0.495514 0.338165
0.480347 0.500793 0.343567
0.497894 0.506042 0.349030
0.514465 0.510284 0.353363
0.531525 0.515076 0.358246
0.549164 0.520386 0.363708
0.567413 0.526276 0.369720
0.586243 0.532715 0.376251
0.605621 0.539764 0.383362
0.625549 0.547241 0.390930
0.646027 0.555237 0.398956
0.667084 0.563721 0.407410
0.688568 0.572601 0.416229
0.710541 0.581848 0.425293
0.732849 0.591309 0.434601
0.755432 0.600922 0.444000
0.778229 0.610657 0.453369
0.800964 0.620239 0.462616
0.263336 0.482056 0.311127
0.277222 0.483582 0.312744
0.291229 0.485107 0.314331
0.305145 0.486664 0.315918
0.319366 0.488495 0.317841
0.333832 0.490601 0.320038
0.348633 0.493042 0.322601
0.363708 0.495789 0.325439
0.379059 0.498840 0.328613
0.394745 0.502197 0.332092
0.410675 0.505829 0.335846
0.426819 0.509705 0.339844
0.443268 0.513824 0.344116
0.459961 0.518219 0.348663
0.476929 0.522888 0.353424
0.494141 0.527740 0.358429
0.511597 0.532898 0.363708
0.529266 0.538208 0.369080
0.546265 0.542847 0.373810
0.563812 0.547943 0.378998
0.581909 0.553650 0.384766
0.600555 0.559814 0.390991
0.619720 0.566528 0.397675
0.639435 0.573700 0.404877
0.659637 0.581268 0.412384
0.680267 0.589264 0.420288
0.701355 0.597595 0.428528
0.722778 0.606201 0.436920
0.744476 0.614960 0.445435
0.766388 0.623840 0.454010
0.788361 0.632660 0.462524
0.810211 0.641327 0.470734
0.280762 0.513336 0.330658
0.294586 0.514740 0.332092
0.308350 0.516083 0.333496
0.322174 0.517456 0.334930
0.336212 0.519073 0.336609
0.350525 0.521027 0.338593
0.365143 0.523193 0.340851
0.379974 0.525696 0.343414
0.395142 0.528412 0.346252
0.410553 0.531464 0.349365
0.426270 0.534821 0.352814
0.442230 0.538422 0.356506
0.458466 0.542267 0.360443
0.474945 0.546387 0.364655
0.491699 0.550781 0.369141
0.508728 0.555420 0.373840
0.526001 0.560242 0.378754
0.543488 0.565308 0.383850
0.561157 0.570496 0.389099
0.578644 0.575531 0.394135
0.596588 0.580933 0.399567
0.614990 0.586823 0.405457
0.633911 0.593140 0.411743
0.653320 0.599945 0.418457
0.673126 0.607056 0.425476
0.693329 0.614502 0.432770
0.713898 0.622192 0.440308
0.734711 0.630096 0.447998
0.755768 0.638123 0.455719
0.776886 0.646149 0.463440
0.797943 0.654083 0.470978
0.818817 0.661743 0.478241
0.298157 0.544312 0.349701
0.311890 0.545593 0.351013
0.325592 0.546844 0.352295
0.339325 0.548096 0.353577
0.353271 0.549591 0.355103
0.367462 0.551300 0.356903
0.381927 0.553375 0.358978
0.396698 0.555695 0.361389
0.411682 0.558228 0.363983
0.426971 0.561127 0.366913
0.442535 0.564240 0.370087
0.458374 0.567657 0.373566
0.474426 0.571289 0.377258
0.490723 0.575165 0.381165
0.507355 0.579285 0.385345
0.524139 0.583618 0.389709
0.541168 0.588135 0.394226
0.558411 0.592896 0.398987
0.575836 0.597748 0.403870
0.593384 0.602753 0.408844
0.611115 0.607910 0.413940
0.629303 0.613434 0.419434
0.647858 0.619354 0.425262
0.666901 0.625671 0.431458
0.686279 0.632263 0.437897
0.705994 0.639130 0.444580
0.725952 0.646179 0.451416
0.746124 0.653351 0.458344
0.766388 0.660583 0.465240
0.786682 0.667755 0.472046
0.806793 0.674713 0.478668
0.826660 0.681396 0.484985
0.316101 0.575531 0.368835
0.329742 0.576721 0.370056
0.343445 0.577881 0.371246
0.357086 0.579041 0.372406
0.370972 0.580444 0.373840
0.385101 0.582092 0.375488
0.399475 0.584015 0.377441
0.414154 0.586182 0.379639
0.429047 0.588593 0.382080
0.444214 0.591278 0.384827
0.459595 0.594208 0.387756
0.475250 0.597351 0.390930
0.491180 0.600769 0.394318
0.507263 0.604370 0.397949
0.523621 0.608185 0.401764
0.540131 0.612183 0.405762
0.556946 0.616364 0.409943
0.573822 0.620697 0.414246
0.590881 0.625153 0.418671
0.608124 0.629761 0.423187
0.625427 0.634430 0.427765
0.643219 0.639465 0.432709
0.661438 0.644958 0.438080
0.679993 0.650757 0.443695
0.698883 0.656799 0.449554
0.718018 0.662994 0.455536
0.737335 0.669403 0.461670
0.756775 0.675812 0.467804
0.776245 0.682220 0.473907
0.795624 0.688477 0.479828
0.814819 0.694550 0.485565
0.833740 0.700317 0.490967
0.334747 0.607086 0.388123
0.348328 0.608185 0.389221
0.361938 0.609253 0.390289
0.375519 0.610352 0.391388
0.389343 0.611664 0.392700
0.403381 0.613190 0.394226
0.417664 0.614960 0.396027
0.432190 0.616943 0.398041
0.446960 0.619202 0.400269
0.461945 0.621643 0.402710
0.477173 0.624359 0.405396
0.492615 0.627228 0.408264
0.508301 0.630341 0.411377
0.524139 0.633636 0.414642
0.540192 0.637115 0.418091
0.556458 0.640778 0.421692
0.572876 0.644562 0.425415
0.589447 0.648468 0.429230
0.606140 0.652496 0.433197
0.622925 0.656616 0.437225
0.639801 0.660797 0.441254
0.656769 0.665009 0.445404
0.674286 0.669739 0.449982
0.692383 0.674988 0.455017
0.710693 0.680420 0.460266
0.729218 0.685974 0.465576
0.747833 0.691650 0.470978
0.766510 0.697296 0.476318
0.785156 0.702850 0.481598
0.803619 0.708282 0.486694
0.821960 0.713531 0.491577
0.840027 0.718475 0.496216
0.353760 0.638672 0.407227
0.367310 0.639679 0.408203
0.380798 0.640656 0.409180
0.394348 0.641663 0.410156
0.408051 0.642853 0.411346
0.421997 0.644226 0.412720
0.436157 0.645844 0.414307
0.450531 0.647644 0.416107
0.465088 0.649658 0.418121
0.479889 0.651917 0.420288
0.494904 0.654327 0.422699
0.510101 0.656921 0.425262
0.525513 0.659729 0.427979
0.541077 0.662689 0.430908
0.556793 0.665771 0.433929
0.572723 0.669006 0.437103
0.588745 0.672363 0.440399
0.604919 0.675842 0.443756
0.621185 0.679382 0.447205
0.637512 0.682983 0.450684
0.653900 0.686646 0.454224
0.670380 0.690369 0.457764
0.686829 0.694061 0.461304
0.703857 0.698242 0.465302
0.721558 0.703064 0.469879
0.739441 0.707977 0.474548
0.757324 0.712891 0.479248
0.775238 0.717804 0.483856
0.793060 0.722565 0.488342
0.810760 0.727234 0.492706
0.828308 0.731689 0.496887
0.845612 0.735992 0.500854
0.372772 0.669861 0.425690
0.386230 0.670776 0.426575
0.399628 0.671661 0.427429
0.413055 0.672516 0.428284
0.426666 0.673553 0.429321
0.440491 0.674805 0.430542
0.454468 0.676239 0.431915
0.468689 0.677856 0.433502
0.483063 0.679626 0.435242
0.497589 0.681580 0.437164
0.512329 0.683716 0.439240
0.527283 0.686005 0.441467
0.542389 0.688477 0.443848
0.557617 0.691071 0.446350
0.572998 0.693756 0.448944
0.588470 0.696564 0.451691
0.604126 0.699463 0.454498
0.619812 0.702454 0.457367
0.635620 0.705536 0.460297
0.651459 0.708618 0.463257
0.667358 0.711761 0.466248
0.683258 0.714874 0.469238
0.699188 0.717987 0.472229
0.715088 0.721130 0.475159
0.731384 0.724579 0.478424
0.748566 0.728821 0.482452
0.765747 0.733032 0.486420
0.782959 0.737244 0.490356
0.800018 0.741364 0.494202
0.817047 0.745361 0.497925
0.833893 0.749207 0.501495
0.850586 0.752899 0.504913
0.391266 0.700195 0.443085
0.404602 0.700989 0.443817
0.417938 0.701721 0.444580
0.431244 0.702515 0.445313
0.444733 0.703400 0.446228
0.458374 0.704468 0.447235
0.472198 0.705719 0.448425
0.486206 0.707123 0.449768
0.500336 0.708649 0.451233
0.514648 0.710327 0.452881
0.529114 0.712158 0.454651
0.543732 0.714111 0.456512
0.558502 0.716187 0.458527
0.573334 0.718384 0.460632
0.588318 0.720673 0.462830
0.603424 0.723053 0.465118
0.618591 0.725494 0.467438
0.633820 0.728027 0.469818
0.649109 0.730560 0.472229
0.664429 0.733124 0.474670
0.679779 0.735718 0.477142
0.695160 0.738312 0.479584
0.710480 0.740845 0.481995
0.725769 0.743378 0.484375
0.741028 0.745880 0.486694
0.756561 0.748596 0.489258
0.773163 0.752228 0.492645
0.789673 0.755829 0.496002
0.806152 0.759338 0.499298
0.822540 0.762756 0.502472
0.838806 0.766083 0.505524
0.854919 0.769226 0.508453
0.408722 0.729218 0.459015
0.421936 0.729858 0.459625
0.435150 0.730499 0.460236
0.448364 0.731140 0.460846
0.461700 0.731903 0.461578
0.475159 0.732788 0.462433
0.488831 0.733826 0.463440
0.502563 0.734985 0.464539
0.516510 0.736237 0.465729
0.530518 0.737671 0.467102
0.544647 0.739166 0.468536
0.558929 0.740814 0.470062
0.573334 0.742493 0.471710
0.587799 0.744293 0.473389
0.602386 0.746185 0.475189
0.617035 0.748108 0.477020
0.631714 0.750092 0.478912
0.646484 0.752136 0.480804
0.661255 0.754181 0.482758
0.676056 0.756256 0.484680
0.690857 0.758331 0.486633
0.705688 0.760376 0.488586
0.720490 0.762421 0.490509
0.735260 0.764465 0.492401
0.750031 0.766449 0.494263
0.764709 0.768402 0.496094
0.779572 0.770477 0.498016
0.795563 0.773590 0.500885
0.811493 0.776581 0.503693
0.827332 0.779541 0.506409
0.843140 0.782410 0.509033
0.858795 0.785156 0.511566
0.424591 0.756470 0.473053
0.437683 0.756958 0.473541
0.450775 0.757477 0.474030
0.463837 0.757996 0.474518
0.477020 0.758606 0.475098
0.490356 0.759308 0.475800
0.503784 0.760162 0.476563
0.517334 0.761108 0.477448
0.530945 0.762115 0.478394
0.544708 0.763214 0.479462
0.558533 0.764435 0.480591
0.572479 0.765717 0.481812
0.586487 0.767090 0.483093
0.600616 0.768494 0.484436
0.614746 0.769989 0.485809
0.628967 0.771484 0.487244
0.643219 0.773071 0.488739
0.657532 0.774658 0.490204
0.671844 0.776276 0.491730
0.686188 0.777924 0.493256
0.700531 0.779541 0.494781
0.714905 0.781189 0.496307
0.729248 0.782806 0.497803
0.743561 0.784424 0.499298
0.757874 0.786011 0.500793
0.772156 0.787567 0.502228
0.786407 0.789093 0.503662
0.800720 0.790680 0.505096
0.816162 0.793213 0.507477
0.831573 0.795776 0.509796
0.846924 0.798248 0.512085
0.862183 0.800629 0.514252
0.438385 0.781586 0.484955
0.451355 0.781982 0.485321
0.464325 0.782379 0.485687
0.477295 0.782776 0.486084
0.490326 0.783264 0.486511
0.503479 0.783783 0.487030
0.516693 0.784454 0.487640
0.530029 0.785156 0.488312
0.543427 0.785950 0.489075
0.556915 0.786804 0.489868
0.570465 0.787720 0.490753
0.584076 0.788727 0.491669
0.597778 0.789795 0.492645
0.611542 0.790894 0.493683
0.625336 0.792023 0.494751
0.639191 0.793213 0.495850
0.653076 0.794434 0.496979
0.666992 0.795654 0.498138
0.680939 0.796936 0.499298
0.694916 0.798218 0.500488
0.708862 0.799500 0.501678
0.722839 0.800781 0.502869
0.736816 0.802063 0.504059
0.750763 0.803314 0.505219
0.764740 0.804596 0.506378
0.778687 0.805817 0.507538
0.792572 0.807037 0.508667
0.806458 0.808258 0.509766
0.820404 0.809448 0.510895
0.835266 0.811523 0.512787
0.850250 0.813690 0.514740
0.865173 0.815765 0.516663
0.449982 0.804535 0.494720
0.462860 0.804840 0.495026
0.475708 0.805145 0.495300
0.488617 0.805450 0.495575
0.501526 0.805786 0.495941
0.514496 0.806244 0.496307
0.527588 0.806732 0.496765
0.540710 0.807251 0.497284
0.553894 0.807861 0.497833
0.567169 0.808533 0.498444
0.580505 0.809235 0.499115
0.593872 0.809998 0.499817
0.607300 0.810791 0.500549
0.620758 0.811676 0.501312
0.634308 0.812531 0.502136
0.647858 0.813446 0.503021
0.661438 0.814362 0.503876
0.675049 0.815338 0.504761
0.688690 0.816345 0.505646
0.702332 0.817291 0.506561
0.716003 0.818298 0.507477
0.729645 0.819305 0.508423
0.743317 0.820313 0.509338
0.757019 0.821320 0.510254
0.770660 0.822296 0.511169
0.784302 0.823303 0.512085
0.797943 0.824280 0.512970
0.811554 0.825226 0.513855
0.825165 0.826172 0.514709
0.838776 0.827118 0.515594
0.853210 0.828766 0.517090
0.867828 0.830597 0.518768
0.459595 0.825592 0.502686
0.472382 0.825836 0.502869
0.485138 0.826080 0.503113
0.497925 0.826263 0.503296
0.510773 0.826569 0.503540
0.523651 0.826874 0.503845
0.536591 0.827240 0.504181
0.549561 0.827667 0.504578
0.562622 0.828094 0.504974
0.575714 0.828613 0.505432
0.588837 0.829163 0.505951
0.602020 0.829742 0.506470
0.615234 0.830353 0.507050
0.628479 0.830994 0.507629
0.641785 0.831665 0.508270
0.655121 0.832367 0.508911
