apk/assets/luts/Lut7.cube
# Copyright: (C) Copyright 2010-2019 by IWLTBAP SAS
# Cannot be resold, shared or otherwise redistributed
# Website: https://luts.iwltbap.com
TITLE "IWLTBAP 8370 (LOG)"
LUT_3D_SIZE 9
0.006134 0.011536 0.013275
0.069561 0.013275 0.028152
0.360009 0.024422 0.017365
0.694226 0.139881 0.064545
0.919785 0.269363 0.171859
0.999004 0.410454 0.314392
0.998382 0.452461 0.362351
1.000000 0.477039 0.391624
1.000000 0.510590 0.428223
0.010010 0.022251 0.013755
0.044435 0.027192 0.017029
0.299401 0.048370 0.017269
0.634080 0.142888 0.047843
0.892204 0.258099 0.156414
0.999053 0.399030 0.294410
0.997788 0.455606 0.365334
0.998268 0.480194 0.395680
1.000000 0.513603 0.434490
0.114143 0.133545 0.044494
0.123822 0.127315 0.045458
0.235592 0.148407 0.036180
0.562283 0.254997 0.065459
0.842838 0.328926 0.150471
0.992135 0.419195 0.280005
0.998427 0.479721 0.376564
0.997265 0.499363 0.405214
0.997559 0.527511 0.436379
0.240955 0.277474 0.121662
0.254860 0.282739 0.123706
0.317521 0.274610 0.107859
0.420504 0.295729 0.106882
0.764038 0.445167 0.176735
0.953493 0.510991 0.297098
0.999766 0.564757 0.426634
0.999747 0.575057 0.448860
0.999882 0.597653 0.480465
0.334274 0.419494 0.195984
0.349116 0.424307 0.196432
0.366108 0.422561 0.185864
0.474909 0.414034 0.175627
0.586418 0.451485 0.186302
0.873413 0.597927 0.328493
0.995686 0.680874 0.503544
0.999817 0.685267 0.525854
0.998840 0.694489 0.548493
0.438850 0.600117 0.308769
0.445753 0.598664 0.305824
0.444159 0.589879 0.298338
0.514582 0.584407 0.275746
0.637081 0.597565 0.282816
0.741365 0.626010 0.308962
0.940613 0.739401 0.521284
0.985801 0.771996 0.595974
0.997738 0.787418 0.626102
0.600441 0.800522 0.532776
0.601042 0.794506 0.521181
0.587965 0.779839 0.501240
0.581492 0.754714 0.466375
0.693443 0.763409 0.462952
0.786843 0.770136 0.471342
0.865355 0.777643 0.501509
0.959817 0.826207 0.627762
0.975212 0.840568 0.663872
0.664131 0.863232 0.614082
0.669369 0.865692 0.617569
0.677102 0.868866 0.621957
0.682189 0.869538 0.623049
0.737818 0.867063 0.628374
0.856360 0.878426 0.637708
0.921929 0.897565 0.672153
0.972663 0.916322 0.752345
0.984524 0.916874 0.768944
0.687042 0.890045 0.646393
0.697033 0.889984 0.650886
0.706467 0.892074 0.656975
0.710663 0.892528 0.659778
0.755020 0.888580 0.663162
0.866455 0.896190 0.677818
0.933182 0.912278 0.706123
0.988315 0.937194 0.800705
0.996857 0.948120 0.823029
0.016945 0.019490 0.029499
0.036556 0.013648 0.025462
0.301702 0.019475 0.056990
0.629390 0.119613 0.109457
0.890056 0.253868 0.180283
0.998016 0.399032 0.306318
0.999199 0.444905 0.357910
0.999314 0.469151 0.385792
0.997665 0.498676 0.415985
0.011891 0.018902 0.025525
0.027158 0.020750 0.021953
0.259758 0.044441 0.036616
0.594029 0.127433 0.073015
0.869842 0.246179 0.155664
0.999089 0.385459 0.287891
0.997569 0.446380 0.355875
0.999930 0.470095 0.386574
0.999933 0.501521 0.418920
0.103208 0.128408 0.053503
0.109120 0.124305 0.049536
0.227253 0.143785 0.045578
0.542140 0.245589 0.075029
0.825619 0.318474 0.153534
0.986480 0.409904 0.272920
0.998680 0.471378 0.371254
0.999111 0.490521 0.400304
0.999504 0.517606 0.433696
0.239925 0.277407 0.127737
0.247178 0.282401 0.131185
0.310591 0.271724 0.114381
0.412595 0.290252 0.108177
0.752229 0.435120 0.178095
0.948336 0.502733 0.294996
0.999247 0.561883 0.425269
0.998399 0.572666 0.448100
0.998311 0.593259 0.478778
0.334196 0.419144 0.202417
0.347846 0.425553 0.203205
0.363335 0.426296 0.194540
0.473113 0.415417 0.180164
0.581599 0.447464 0.188611
0.870444 0.593516 0.326317
0.993931 0.675316 0.499005
0.998609 0.681367 0.524437
0.998900 0.692705 0.546650
0.435088 0.603764 0.312409
0.441722 0.601799 0.313238
0.443951 0.594865 0.308327
0.515500 0.590465 0.286433
0.635363 0.600685 0.286913
0.740017 0.623614 0.309317
0.940360 0.737018 0.520008
0.986931 0.771901 0.598219
0.997445 0.784968 0.625968
0.602568 0.799606 0.532303
0.597530 0.797198 0.523620
0.588756 0.781983 0.506091
0.586096 0.761498 0.478923
0.694999 0.763900 0.472220
0.786619 0.769110 0.471961
0.865846 0.777232 0.504096
0.959724 0.827995 0.634721
0.975401 0.841168 0.668345
0.664341 0.864441 0.618984
0.677971 0.869030 0.627404
0.680252 0.871064 0.629396
0.684243 0.871213 0.630593
0.739701 0.872238 0.634535
0.856474 0.880233 0.641240
0.922788 0.894964 0.673305
0.971139 0.915013 0.749236
0.983827 0.916130 0.770065
0.689910 0.893208 0.649112
0.700101 0.893292 0.653836
0.705208 0.895309 0.657131
0.710266 0.895702 0.660438
0.756958 0.892693 0.668743
0.867054 0.896513 0.679189
0.933020 0.912345 0.708154
0.989866 0.939453 0.802774
0.992069 0.948059 0.821907
0.032646 0.056534 0.154083
0.028140 0.054272 0.140941
0.207964 0.039406 0.144911
0.497159 0.129678 0.219502
0.809750 0.194145 0.256355
0.994521 0.392042 0.376886
0.998024 0.449106 0.407839
0.999309 0.477552 0.430102
1.000000 0.507446 0.460083
0.032069 0.053245 0.122577
0.038988 0.055550 0.117630
0.175082 0.050453 0.121236
0.469074 0.112670 0.186069
0.784260 0.193746 0.233108
0.988245 0.378880 0.345738
0.998469 0.448122 0.397055
0.999277 0.475403 0.418180
0.999974 0.505928 0.452688
0.048805 0.121893 0.127561
0.056218 0.118382 0.122777
0.178940 0.135150 0.133117
0.448005 0.185807 0.151158
0.761393 0.272306 0.208739
0.974289 0.397837 0.308421
0.998946 0.471129 0.391030
0.998969 0.488361 0.408699
0.999977 0.515087 0.437849
0.145718 0.270923 0.149817
0.160563 0.276430 0.154904
0.258225 0.267403 0.156537
0.391428 0.277262 0.135979
0.724422 0.418541 0.195444
0.938342 0.493105 0.303511
0.999549 0.559729 0.427039
0.998619 0.568150 0.446959
0.999318 0.589129 0.476934
0.315269 0.418369 0.215576
0.327786 0.423853 0.218748
0.345867 0.421063 0.209769
0.464460 0.412301 0.182520
0.576534 0.443493 0.189062
0.865465 0.588629 0.323655
0.993415 0.671116 0.496110
0.998708 0.679559 0.525232
0.998699 0.692696 0.548393
0.428724 0.599646 0.309505
0.437019 0.598108 0.311192
0.438302 0.592291 0.306914
0.509028 0.588968 0.290133
0.633680 0.598491 0.290658
0.733558 0.618498 0.307036
0.937111 0.733340 0.516069
0.988550 0.773601 0.602825
0.997132 0.786141 0.628256
0.596893 0.800293 0.528349
0.592327 0.791817 0.517901
0.582407 0.775988 0.499692
0.584331 0.762180 0.482292
0.692017 0.762548 0.473133
0.784014 0.767331 0.470398
0.863103 0.775652 0.501862
0.959527 0.828042 0.636771
0.976082 0.841577 0.669493
0.664372 0.867005 0.619084
0.671727 0.869170 0.624064
0.679853 0.872180 0.631317
0.684265 0.872459 0.633857
0.737559 0.873518 0.637493
0.853937 0.880240 0.643575
0.922145 0.892560 0.672576
0.972485 0.911367 0.745992
0.983343 0.915154 0.768567
0.690819 0.894196 0.649955
0.694221 0.894222 0.651664
0.703657 0.894424 0.656021
0.708401 0.895866 0.659339
0.754128 0.892780 0.668342
0.862850 0.897231 0.679587
0.932434 0.912685 0.710726
0.989349 0.938309 0.801347
0.994194 0.948219 0.822517
0.002247 0.123024 0.342255
0.000770 0.120350 0.331182
0.127442 0.104943 0.317412
0.398412 0.122861 0.290824
0.676351 0.247404 0.384706
0.936185 0.389474 0.486350
0.991702 0.439294 0.506972
0.999895 0.469121 0.523812
1.000000 0.505520 0.547695
0.000170 0.106579 0.297686
0.001970 0.106382 0.298010
0.110325 0.108003 0.282421
0.367252 0.115774 0.267018
0.647688 0.232566 0.358241
0.929459 0.356556 0.445826
0.994344 0.433502 0.487002
0.999673 0.468417 0.508472
0.999002 0.507160 0.537573
0.043324 0.184392 0.275994
0.056227 0.181325 0.272941
0.161411 0.186339 0.265977
0.333082 0.167809 0.251286
0.611492 0.239853 0.323549
0.913978 0.338392 0.395466
0.997816 0.460048 0.476640
0.999003 0.481589 0.488998
0.998420 0.517229 0.518154
0.095165 0.261096 0.275193
0.102011 0.261576 0.275710
0.146895 0.257190 0.268404
0.326075 0.276109 0.270011
0.599247 0.335630 0.292409
0.882160 0.450708 0.388741
0.998195 0.555085 0.491761
0.998927 0.568063 0.504868
0.998863 0.592119 0.530908
0.132248 0.402415 0.281151
0.141478 0.406988 0.283503
0.159674 0.404224 0.273148
0.366207 0.406667 0.271912
0.530870 0.423949 0.257091
0.834456 0.582132 0.389883
0.983316 0.667439 0.526964
0.997859 0.678607 0.551133
0.998907 0.692707 0.573910
0.310605 0.587914 0.332361
0.328800 0.590402 0.336089
0.346833 0.585269 0.332333
0.446160 0.578673 0.333898
0.614933 0.592213 0.320461
0.718169 0.608837 0.330076
0.933074 0.731161 0.525931
0.987375 0.774800 0.611090
0.996261 0.786285 0.636395
0.563366 0.788108 0.530733
0.563248 0.781622 0.521414
0.555979 0.769456 0.503721
0.567345 0.757776 0.487037
0.678305 0.757472 0.474895
0.777810 0.763014 0.467893
0.858074 0.771819 0.499560
0.962690 0.827658 0.639356
0.978194 0.841155 0.671198
0.661993 0.869248 0.621510
0.670355 0.870684 0.623317
0.675017 0.873014 0.628445
0.680164 0.874325 0.632374
0.733909 0.872968 0.640002
0.850192 0.878280 0.643167
0.919595 0.892686 0.672347
0.971757 0.908792 0.742061
0.982411 0.913630 0.765331
0.690479 0.893741 0.650345
0.697982 0.894036 0.653717
0.699510 0.895589 0.657669
0.706733 0.894440 0.658510
0.750591 0.891739 0.670568
0.859014 0.897968 0.679381
0.930337 0.913547 0.711665
0.988727 0.937557 0.800009
0.997002 0.948284 0.823204
0.001495 0.242844 0.609940
0.000942 0.236685 0.596876
0.001320 0.223861 0.575447
0.301106 0.218008 0.547865
0.601379 0.225708 0.473579
0.844378 0.408688 0.573315
0.896198 0.491421 0.628716
0.918140 0.527546 0.653866
0.944321 0.563370 0.680527
0.000539 0.217115 0.559477
0.000298 0.214858 0.556112
0.000871 0.207285 0.532932
0.269765 0.205562 0.510533
0.567233 0.210556 0.439110
0.824953 0.386087 0.545155
0.897381 0.488198 0.618850
0.922827 0.522924 0.641111
0.949259 0.559155 0.669077
0.001984 0.266041 0.513596
0.001792 0.261564 0.509406
0.031228 0.265841 0.493753
0.245364 0.248947 0.463555
0.517353 0.226433 0.402593
0.792261 0.370956 0.511610
0.911476 0.493069 0.603976
0.938614 0.510051 0.613353
0.966824 0.540543 0.632267
0.036453 0.353676 0.484150
0.049656 0.353644 0.483146
0.138415 0.347379 0.466776
0.274110 0.342431 0.437097
0.467408 0.301504 0.390916
0.750580 0.407137 0.491147
0.950480 0.521518 0.578001
0.977303 0.539303 0.587731
0.994631 0.567341 0.609177
0.087379 0.413849 0.441818
0.096492 0.416842 0.444478
0.115410 0.408781 0.435785
0.225280 0.399964 0.418159
0.445946 0.435661 0.423958
0.739339 0.524669 0.487865
0.951624 0.629997 0.586424
0.987620 0.656042 0.614651
0.997185 0.676651 0.635414
0.005302 0.570467 0.455856
0.010321 0.572981 0.458156
0.027126 0.568305 0.451642
0.152149 0.562405 0.431170
0.474386 0.579784 0.432745
0.668459 0.598361 0.421400
0.911650 0.740948 0.604668
0.974633 0.780960 0.668816
0.985226 0.790670 0.684343
0.260479 0.764446 0.530495
0.270268 0.760679 0.528018
0.284181 0.754516 0.521219
0.338413 0.742154 0.515247
0.580340 0.744217 0.536234
0.751481 0.754712 0.514477
0.840941 0.768169 0.535460
0.955504 0.832850 0.674320
0.971169 0.843666 0.698593
0.537495 0.867403 0.631405
0.558670 0.869891 0.635084
0.580332 0.872305 0.638789
0.604799 0.872120 0.644121
0.689452 0.871863 0.651676
0.826521 0.875322 0.663090
0.912943 0.893786 0.679164
0.966104 0.909471 0.740520
0.981216 0.912563 0.763551
0.604660 0.889587 0.660721
0.622933 0.892803 0.663197
0.637600 0.892506 0.667038
0.651831 0.893024 0.669632
0.717377 0.893006 0.678513
0.837591 0.896994 0.695816
0.927009 0.914822 0.718265
0.984997 0.940565 0.801367
0.996430 0.947831 0.822296
0.126049 0.445030 0.815136
0.118861 0.438455 0.814871
0.108425 0.430346 0.807452
0.204057 0.394980 0.797504
0.509260 0.376146 0.782011
0.802643 0.384198 0.720877
0.862028 0.447896 0.704258
0.883570 0.482297 0.704690
0.911125 0.524086 0.720929
0.091068 0.422392 0.801938
0.095214 0.424180 0.804096
0.067684 0.408161 0.792153
0.150358 0.375601 0.776064
0.476526 0.357989 0.756034
0.776006 0.358170 0.686803
0.862456 0.446435 0.681783
0.884678 0.483240 0.686540
0.909100 0.523909 0.706146
0.036320 0.385700 0.774008
0.035348 0.382109 0.770054
0.027271 0.372090 0.759516
0.135108 0.393236 0.741306
0.424225 0.363082 0.717614
0.733886 0.338414 0.633097
0.861812 0.458983 0.650850
0.882747 0.489751 0.663808
0.910497 0.529642 0.689830
0.077236 0.469973 0.737006
0.066724 0.466220 0.733241
0.043908 0.457207 0.722514
0.203633 0.467013 0.705444
0.378880 0.435540 0.680013
0.678056 0.376044 0.593751
0.861465 0.517556 0.655306
0.890005 0.548653 0.678032
0.912943 0.582181 0.704263
0.001184 0.526466 0.686678
0.001461 0.526271 0.685368
0.001572 0.516847 0.673984
0.208213 0.523898 0.660753
0.396819 0.544684 0.657610
0.615000 0.466354 0.579505
0.840515 0.581382 0.664521
0.901148 0.620430 0.696005
0.927473 0.644388 0.717174
0.002066 0.588596 0.632600
0.001390 0.589907 0.634039
0.001906 0.583967 0.626854
0.067703 0.572484 0.611018
0.291827 0.574445 0.602187
0.579693 0.615379 0.610146
0.855934 0.696519 0.677118
0.952185 0.732873 0.705997
0.971517 0.743955 0.720149
0.002645 0.747625 0.649010
0.001441 0.745295 0.646611
0.001047 0.741970 0.641035
0.001954 0.729370 0.624779
0.163338 0.721760 0.603658
0.606637 0.737993 0.617239
0.803530 0.766242 0.614361
0.951477 0.844462 0.744447
0.966280 0.854347 0.760111
0.011383 0.854404 0.654197
0.048176 0.855940 0.657133
0.091970 0.860370 0.656116
0.143607 0.859773 0.645902
0.342360 0.863592 0.648501
0.717293 0.874974 0.703642
0.895092 0.893396 0.722493
0.957560 0.907931 0.764859
0.975013 0.915534 0.788636
0.108231 0.876114 0.656525
0.143681 0.880631 0.659490
0.178096 0.882582 0.658799
0.236044 0.881485 0.654584
0.412630 0.887913 0.667267
0.742464 0.896826 0.725187
0.915238 0.914541 0.748796
0.982224 0.941653 0.817928
0.992019 0.950077 0.837841
0.201446 0.490700 0.840347
0.203416 0.487264 0.843032
0.198883 0.485122 0.839676
0.219281 0.460028 0.836062
0.452980 0.446903 0.849346
0.786164 0.412349 0.807488
0.874168 0.473768 0.812500
0.894852 0.497623 0.812694
0.918854 0.528641 0.808548
0.193063 0.478503 0.838536
0.198091 0.482843 0.840785
0.197099 0.483433 0.839188
0.200068 0.467043 0.838867
0.411919 0.448240 0.845440
0.757519 0.410953 0.809431
0.869359 0.470887 0.809367
0.893906 0.494635 0.810173
0.915425 0.528530 0.809589
0.195032 0.480000 0.840048
0.201247 0.486010 0.844443
0.201524 0.484754 0.843107
0.194558 0.481854 0.838453
0.376974 0.479208 0.842005
0.699077 0.432927 0.826005
0.867270 0.470909 0.802308
0.890267 0.485150 0.803548
0.913893 0.521210 0.808514
0.230723 0.519292 0.845143
0.231774 0.519177 0.847901
0.226426 0.513131 0.847031
0.235146 0.531090 0.844961
0.387172 0.575598 0.848744
0.611083 0.524776 0.845455
0.856956 0.513195 0.804052
0.884907 0.531111 0.800343
0.906732 0.557906 0.801164
0.336914 0.642601 0.859981
0.335525 0.640956 0.860306
0.324923 0.630817 0.858012
0.315687 0.623823 0.852338
0.391504 0.653641 0.850271
0.562105 0.628192 0.846442
0.815788 0.562774 0.781993
0.869993 0.597007 0.774384
0.890534 0.619949 0.776928
0.195612 0.700057 0.849864
0.191328 0.699401 0.849869
0.180334 0.694993 0.847829
0.159747 0.683293 0.838040
0.325893 0.692682 0.829161
0.592220 0.725500 0.826992
0.747046 0.636185 0.753404
0.866508 0.685486 0.765830
0.889402 0.701478 0.778079
0.003609 0.763018 0.820099
0.002279 0.761592 0.816746
0.001498 0.757177 0.812757
0.001595 0.744801 0.800986
0.156444 0.741041 0.785079
0.418678 0.749565 0.784871
0.723055 0.772658 0.769076
0.922117 0.827656 0.817945
0.943991 0.836518 0.825993
0.001286 0.843535 0.810010
0.001138 0.847454 0.807503
0.001952 0.848189 0.802803
0.001252 0.847778 0.791157
0.002370 0.845025 0.773884
0.243641 0.860424 0.766892
0.777569 0.887936 0.786805
0.942528 0.907368 0.809098
0.966090 0.922309 0.837474
0.000320 0.872902 0.805603
0.002534 0.872525 0.801719
0.003242 0.874672 0.795919
0.001679 0.875547 0.784144
0.002541 0.872898 0.767529
0.239991 0.889261 0.766552
0.813068 0.914764 0.804024
0.974313 0.948374 0.856951
0.989121 0.961250 0.878357
0.255497 0.529751 0.862816
0.257973 0.529446 0.863476
0.253377 0.523789 0.862635
0.255394 0.507387 0.857766
0.439430 0.483494 0.874508
0.778385 0.444032 0.845701
0.871634 0.488849 0.836819
0.895279 0.511332 0.845183
0.919971 0.536110 0.840320
0.245417 0.518311 0.858596
0.254143 0.521938 0.858083
0.250237 0.521944 0.861309
0.243432 0.511754 0.858751
0.411566 0.481835 0.867946
0.744970 0.443141 0.843593
0.867755 0.487326 0.836216
0.891677 0.507692 0.840988
0.918247 0.534485 0.838516
0.246845 0.517167 0.859161
0.253921 0.524391 0.864491
0.252682 0.522210 0.861664
0.248226 0.520641 0.858762
0.377839 0.506153 0.862927
0.684782 0.471762 0.859618
0.863422 0.480746 0.826802
0.891116 0.500008 0.834459
0.914895 0.525789 0.835529
0.264808 0.535966 0.862653
0.264221 0.536068 0.864523
0.263936 0.534568 0.866384
0.264752 0.541494 0.862576
0.389639 0.593428 0.868138
0.595655 0.561595 0.877585
0.851502 0.524454 0.839313
0.889036 0.546229 0.844418
0.913946 0.562445 0.842634
0.347431 0.639015 0.875793
0.345707 0.636502 0.876920
0.339062 0.627529 0.876405
0.334075 0.622348 0.872787
0.377414 0.655293 0.873573
0.565641 0.671291 0.893025
0.809037 0.582192 0.849381
0.881191 0.607655 0.848450
0.902575 0.619114 0.845316
0.368441 0.731854 0.882909
0.376092 0.731353 0.884991
0.386575 0.732185 0.888200
0.393526 0.728824 0.887810
0.393377 0.716910 0.883917
0.578617 0.767498 0.905674
0.741077 0.705856 0.870790
0.870062 0.677437 0.853260
0.892325 0.687513 0.854422
0.222476 0.788694 0.888679
0.236595 0.787715 0.888515
0.251391 0.784488 0.889305
0.262588 0.780284 0.887249
0.274565 0.774608 0.888190
0.409940 0.790652 0.895962
0.775232 0.850138 0.905917
0.865832 0.786817 0.871287
0.889730 0.794448 0.876858
0.062695 0.831768 0.892429
0.063381 0.832618 0.893162
0.062867 0.831978 0.892566
0.062143 0.833300 0.893107
0.057834 0.837192 0.892048
0.145434 0.847661 0.892276
0.612074 0.887160 0.921454
0.900801 0.920245 0.917758
0.949379 0.945150 0.932811
0.059936 0.843388 0.893840
0.062271 0.846359 0.893314
0.062359 0.846451 0.894028
0.040702 0.846156 0.895234
0.015240 0.845928 0.888279
0.060635 0.858988 0.888232
0.501298 0.898381 0.908856
0.942014 0.957254 0.933604
0.983524 0.977745 0.956264
0.307434 0.570221 0.886139
0.305523 0.567887 0.883831
0.303246 0.565239 0.881134
0.302894 0.555451 0.879200
0.442199 0.519394 0.895935
0.767712 0.481003 0.873539
0.864639 0.510147 0.870293
0.896084 0.530613 0.873875
0.926208 0.549591 0.879639
0.292988 0.556156 0.876438
0.300526 0.559662 0.879833
0.295015 0.559383 0.879849
0.291697 0.556879 0.875577
0.415304 0.515768 0.887579
0.735673 0.486202 0.879083
0.862858 0.504462 0.864960
0.890556 0.524765 0.867283
0.920620 0.543858 0.873078
0.295502 0.558624 0.878212
0.300345 0.562808 0.879504
0.297943 0.560503 0.879215
0.299365 0.559481 0.878492
0.385219 0.534821 0.883953
0.665484 0.511548 0.889956
0.860050 0.494730 0.856859
0.890060 0.516524 0.859688
0.916069 0.540428 0.862488
0.308544 0.567990 0.882164
0.310573 0.569900 0.883123
0.308689 0.569254 0.884494
0.305877 0.568246 0.881616
0.394205 0.613312 0.888147
0.596969 0.594051 0.903971
0.849592 0.536816 0.868494
0.886407 0.556559 0.864927
0.913223 0.571823 0.869019
0.361496 0.637374 0.889512
0.360079 0.635162 0.892307
0.354332 0.626763 0.890843
0.351669 0.625845 0.887785
0.382858 0.660370 0.892090
0.575102 0.691853 0.913862
0.802910 0.599022 0.875420
0.878305 0.615641 0.873585
0.903458 0.629227 0.868744
0.433335 0.751407 0.904892
0.436144 0.751025 0.906302
0.441359 0.750396 0.907739
0.445812 0.746637 0.908898
0.438116 0.732130 0.907864
0.560776 0.771121 0.923974
0.745948 0.728021 0.894457
0.869160 0.685170 0.880108
0.894478 0.695786 0.876278
0.343697 0.796997 0.903725
0.348756 0.795858 0.903732
0.354174 0.792034 0.902027
0.362275 0.786862 0.902270
0.375378 0.784481 0.901432
0.401239 0.784696 0.907773
0.778879 0.856266 0.921812
0.866910 0.795473 0.894666
0.895568 0.797333 0.898529
0.284015 0.845101 0.914715
0.284642 0.845756 0.915363
0.285035 0.845112 0.914722
0.285368 0.846398 0.915287
0.277432 0.848640 0.914942
0.277893 0.852305 0.915716
0.560682 0.890695 0.943446
0.921367 0.941793 0.946464
0.940236 0.938820 0.947185
0.266663 0.856720 0.915955
0.269001 0.859470 0.918644
0.268143 0.858444 0.917640
0.265785 0.859196 0.917358
0.260406 0.860168 0.916168
0.256916 0.867344 0.916390
0.503845 0.904228 0.939171
0.939465 0.966534 0.960511
0.982452 0.978333 0.977448
