apk/assets/luts/Lut7.cube
# Copyright: (C) Copyright 2010-2019 by IWLTBAP SAS
# Cannot be resold, shared or otherwise redistributed
# Website: https://luts.iwltbap.com
TITLE "IWLTBAP 8370 (LOG)"
LUT_3D_SIZE 5
0.006134 0.011536 0.013275
0.360009 0.024422 0.017365
0.919785 0.269363 0.171859
0.998382 0.452461 0.362351
1.000000 0.510590 0.428223
0.114143 0.133545 0.044494
0.235592 0.148407 0.036180
0.842838 0.328926 0.150471
0.998427 0.479721 0.376564
0.997559 0.527511 0.436379
0.334274 0.419494 0.195984
0.366108 0.422561 0.185864
0.586418 0.451485 0.186302
0.995686 0.680874 0.503544
0.998840 0.694489 0.548493
0.600441 0.800522 0.532776
0.587965 0.779839 0.501240
0.693443 0.763409 0.462952
0.865355 0.777643 0.501509
0.975212 0.840568 0.663872
0.687042 0.890045 0.646393
0.706467 0.892074 0.656975
0.755020 0.888580 0.663162
0.933182 0.912278 0.706123
0.996857 0.948120 0.823029
0.032646 0.056534 0.154083
0.207964 0.039406 0.144911
0.809750 0.194145 0.256355
0.998024 0.449106 0.407839
1.000000 0.507446 0.460083
0.048805 0.121893 0.127561
0.178940 0.135150 0.133117
0.761393 0.272306 0.208739
0.998946 0.471129 0.391030
0.999977 0.515087 0.437849
0.315269 0.418369 0.215576
0.345867 0.421063 0.209769
0.576534 0.443493 0.189062
0.993415 0.671116 0.496110
0.998699 0.692696 0.548393
0.596893 0.800293 0.528349
0.582407 0.775988 0.499692
0.692017 0.762548 0.473133
0.863103 0.775652 0.501862
0.976082 0.841577 0.669493
0.690819 0.894196 0.649955
0.703657 0.894424 0.656021
0.754128 0.892780 0.668342
0.932434 0.912685 0.710726
0.994194 0.948219 0.822517
0.001495 0.242844 0.609940
0.001320 0.223861 0.575447
0.601379 0.225708 0.473579
0.896198 0.491421 0.628716
0.944321 0.563370 0.680527
0.001984 0.266041 0.513596
0.031228 0.265841 0.493753
0.517353 0.226433 0.402593
0.911476 0.493069 0.603976
0.966824 0.540543 0.632267
0.087379 0.413849 0.441818
0.115410 0.408781 0.435785
0.445946 0.435661 0.423958
0.951624 0.629997 0.586424
0.997185 0.676651 0.635414
0.260479 0.764446 0.530495
0.284181 0.754516 0.521219
0.580340 0.744217 0.536234
0.840941 0.768169 0.535460
0.971169 0.843666 0.698593
0.604660 0.889587 0.660721
0.637600 0.892506 0.667038
0.717377 0.893006 0.678513
0.927009 0.914822 0.718265
0.996430 0.947831 0.822296
0.201446 0.490700 0.840347
0.198883 0.485122 0.839676
0.452980 0.446903 0.849346
0.874168 0.473768 0.812500
0.918854 0.528641 0.808548
0.195032 0.480000 0.840048
0.201524 0.484754 0.843107
0.376974 0.479208 0.842005
0.867270 0.470909 0.802308
0.913893 0.521210 0.808514
0.336914 0.642601 0.859981
0.324923 0.630817 0.858012
0.391504 0.653641 0.850271
0.815788 0.562774 0.781993
0.890534 0.619949 0.776928
0.003609 0.763018 0.820099
0.001498 0.757177 0.812757
0.156444 0.741041 0.785079
0.723055 0.772658 0.769076
0.943991 0.836518 0.825993
0.000320 0.872902 0.805603
0.003242 0.874672 0.795919
0.002541 0.872898 0.767529
0.813068 0.914764 0.804024
0.989121 0.961250 0.878357
0.307434 0.570221 0.886139
0.303246 0.565239 0.881134
0.442199 0.519394 0.895935
0.864639 0.510147 0.870293
0.926208 0.549591 0.879639
0.295502 0.558624 0.878212
0.297943 0.560503 0.879215
0.385219 0.534821 0.883953
0.860050 0.494730 0.856859
0.916069 0.540428 0.862488
0.361496 0.637374 0.889512
0.354332 0.626763 0.890843
0.382858 0.660370 0.892090
0.802910 0.599022 0.875420
0.903458 0.629227 0.868744
0.343697 0.796997 0.903725
0.354174 0.792034 0.902027
0.375378 0.784481 0.901432
0.778879 0.856266 0.921812
0.895568 0.797333 0.898529
0.266663 0.856720 0.915955
0.268143 0.858444 0.917640
0.260406 0.860168 0.916168
0.503845 0.904228 0.939171
0.982452 0.978333 0.977448
