apk/assets/luts/Lut7.cube
# Copyright: (C) Copyright 2010-2019 by IWLTBAP SAS
# Cannot be resold, shared or otherwise redistributed
# Website: https://luts.iwltbap.com
TITLE "IWLTBAP 8370 (LOG)"
LUT_3D_SIZE 33
0.006134 0.011536 0.013275
0.006134 0.011565 0.013275
0.006449 0.011680 0.013275
0.026936 0.013901 0.017562
0.069561 0.013275 0.028152
0.132460 0.014878 0.035215
0.205372 0.018198 0.032238
0.279314 0.020655 0.023991
0.360009 0.024422 0.017365
0.446296 0.027882 0.015795
0.528191 0.051048 0.023834
0.614847 0.095884 0.039993
0.694226 0.139881 0.064545
0.764924 0.174608 0.092435
0.826010 0.206812 0.118855
0.876481 0.237896 0.145420
0.919785 0.269363 0.171859
0.956064 0.303864 0.197069
0.984329 0.341963 0.229517
0.998708 0.379648 0.273909
0.999004 0.410454 0.314392
0.997851 0.431957 0.337433
0.997251 0.441996 0.349163
0.997813 0.447228 0.355744
0.998382 0.452461 0.362351
0.998967 0.457700 0.368921
0.999529 0.462952 0.375507
1.000000 0.468665 0.382485
1.000000 0.477039 0.391624
1.000000 0.485460 0.400786
1.000000 0.493828 0.409923
1.000000 0.502223 0.419088
1.000000 0.510590 0.428223
0.006725 0.011536 0.013275
0.006152 0.011565 0.013275
0.006560 0.011957 0.013303
0.020115 0.012615 0.015850
0.064480 0.013663 0.024863
0.122691 0.014157 0.033373
0.193085 0.017895 0.033319
0.266730 0.020876 0.025561
0.347155 0.023705 0.017283
0.433261 0.029516 0.015578
0.515652 0.051483 0.020849
0.602664 0.094808 0.036822
0.683656 0.137867 0.060199
0.755374 0.172711 0.088552
0.817983 0.205158 0.116049
0.870943 0.236639 0.142499
0.915365 0.268595 0.169125
0.952153 0.302295 0.193828
0.981969 0.339097 0.225594
0.997760 0.376774 0.270638
0.998908 0.408521 0.312001
0.998460 0.431328 0.336532
0.997392 0.442773 0.349900
0.997222 0.448035 0.356533
0.997784 0.453281 0.363119
0.998346 0.458499 0.369695
0.998908 0.463750 0.376306
0.999476 0.469459 0.383404
1.000000 0.477805 0.393191
1.000000 0.486199 0.402353
1.000000 0.494567 0.411491
1.000000 0.502963 0.420654
1.000000 0.511358 0.429789
0.008947 0.011593 0.013332
0.008162 0.011595 0.013305
0.006286 0.011646 0.013279
0.013476 0.013631 0.014288
0.060106 0.013901 0.021220
0.114708 0.014099 0.029485
0.182887 0.017526 0.032589
0.255034 0.020946 0.026919
0.335039 0.022916 0.018303
0.419220 0.031772 0.015570
0.502026 0.052528 0.017900
0.589136 0.093054 0.033728
0.671993 0.135084 0.055596
0.746512 0.171561 0.084444
0.810389 0.203967 0.113079
0.864771 0.234966 0.139396
0.911045 0.266911 0.165847
0.948862 0.299941 0.190366
0.979721 0.336058 0.221897
0.996942 0.373440 0.266506
0.999095 0.406109 0.308455
0.999041 0.430634 0.335509
0.997874 0.443523 0.350582
0.997363 0.448813 0.357249
0.997164 0.454088 0.363916
0.997732 0.459320 0.370487
0.998316 0.464554 0.377075
0.998883 0.470281 0.384177
0.999474 0.478595 0.394082
1.000000 0.486938 0.403920
1.000000 0.495308 0.413057
1.000000 0.503730 0.422222
1.000000 0.512098 0.431357
0.006440 0.011790 0.013281
0.006579 0.011764 0.013278
0.006759 0.011843 0.013275
0.017294 0.014323 0.013486
0.049489 0.018428 0.020089
0.109681 0.020488 0.026473
0.171776 0.021533 0.029125
0.240211 0.023364 0.026827
0.318308 0.024103 0.020010
0.399605 0.032083 0.013888
0.483609 0.056109 0.014403
0.571104 0.091813 0.030399
0.656466 0.131446 0.052069
0.733040 0.169236 0.079983
0.798205 0.201086 0.108114
0.853210 0.230422 0.134984
0.901930 0.262084 0.161223
0.943072 0.295517 0.185232
0.975530 0.330978 0.216404
0.995353 0.367767 0.259045
0.999315 0.402468 0.301873
0.998777 0.430455 0.334318
0.998348 0.444281 0.351271
0.997824 0.449555 0.357951
0.997338 0.454845 0.364632
0.997133 0.460119 0.371284
0.997697 0.465352 0.377871
0.998268 0.471081 0.384973
0.998883 0.479396 0.394885
0.999474 0.487754 0.404833
1.000000 0.496073 0.414598
1.000000 0.504470 0.423788
1.000000 0.512837 0.432923
0.010010 0.022251 0.013755
0.010556 0.021471 0.013678
0.011425 0.021507 0.013626
0.020274 0.023447 0.015479
0.044435 0.027192 0.017029
0.097500 0.033943 0.021868
0.158649 0.041106 0.026900
0.227990 0.043750 0.028133
0.299401 0.048370 0.017269
0.380050 0.058600 0.009013
0.464826 0.081967 0.011052
0.548885 0.112159 0.025773
0.634080 0.142888 0.047843
0.712725 0.172739 0.074608
0.780638 0.200918 0.101826
0.839380 0.227777 0.129666
0.892204 0.258099 0.156414
0.936157 0.291955 0.180576
0.970062 0.326387 0.211145
0.992749 0.362630 0.251772
0.999053 0.399030 0.294410
0.998288 0.428769 0.331040
0.998848 0.445049 0.351970
0.998317 0.450320 0.358640
0.997788 0.455606 0.365334
0.997286 0.460876 0.371993
0.997081 0.466150 0.378648
0.997670 0.471879 0.385771
0.998268 0.480194 0.395680
0.998883 0.488555 0.405614
0.999474 0.496864 0.415512
1.000000 0.505210 0.425355
1.000000 0.513603 0.434490
0.025751 0.049261 0.016168
0.028637 0.047775 0.017077
0.031746 0.046022 0.018256
0.042608 0.042861 0.021461
0.062208 0.046599 0.023233
0.091872 0.052818 0.023673
0.149177 0.067247 0.024970
0.220000 0.079739 0.020793
0.291181 0.088653 0.015695
0.368267 0.100677 0.008618
0.446636 0.116549 0.006919
0.526266 0.137723 0.018976
0.608701 0.161330 0.043026
0.688813 0.186915 0.070443
0.761649 0.212706 0.098124
0.825006 0.237030 0.126364
0.879230 0.263998 0.152085
0.924710 0.293245 0.175354
0.961589 0.323885 0.203681
0.988182 0.359194 0.243074
0.998928 0.396099 0.288620
0.998509 0.427519 0.328612
0.999342 0.445800 0.352660
0.998792 0.451089 0.359340
0.998267 0.456373 0.366017
0.997754 0.461642 0.372682
0.997256 0.466928 0.379375
0.997057 0.472677 0.386544
0.997670 0.480993 0.396455
0.998268 0.489353 0.406409
0.998883 0.497664 0.416314
0.999476 0.506025 0.426248
1.000000 0.514346 0.436031
0.052343 0.072185 0.019998
0.055511 0.072438 0.020276
0.059041 0.071392 0.020705
0.063546 0.069030 0.021221
0.087087 0.067924 0.021593
0.104657 0.072643 0.023625
0.139577 0.083007 0.024496
0.208258 0.104867 0.020266
0.285739 0.124714 0.012573
0.366873 0.145309 0.011461
0.445751 0.161113 0.013799
0.529220 0.179705 0.028166
0.608183 0.198660 0.047530
0.683984 0.216676 0.072843
0.752968 0.237061 0.098420
0.814188 0.257884 0.123611
0.866993 0.278101 0.149526
0.912858 0.301587 0.174023
0.952450 0.330535 0.200796
0.982632 0.361992 0.237453
0.998864 0.395169 0.282151
0.999501 0.427730 0.323131
0.999669 0.446342 0.351340
0.999139 0.451362 0.359208
0.998512 0.456664 0.365960
0.997904 0.461989 0.372644
0.997353 0.467276 0.379347
0.996995 0.473018 0.386529
0.997546 0.481261 0.396348
0.998116 0.489554 0.406242
0.998714 0.497842 0.416171
0.999329 0.506208 0.426128
0.999950 0.514515 0.436031
0.078811 0.093790 0.029437
0.081276 0.093892 0.030218
0.083760 0.093535 0.030980
0.086501 0.092533 0.031253
0.102395 0.093197 0.032283
0.125051 0.094076 0.030757
0.147996 0.101880 0.030260
0.191761 0.117093 0.028016
0.261656 0.140677 0.021522
0.341420 0.165374 0.021605
0.422696 0.189884 0.026468
0.508138 0.209305 0.038353
0.588719 0.227977 0.054566
0.666428 0.246279 0.078551
0.740347 0.265537 0.104763
0.804422 0.285069 0.127204
0.857708 0.303673 0.149427
0.904121 0.324865 0.173224
0.945402 0.348519 0.201504
0.978412 0.375439 0.238339
0.996119 0.405820 0.280590
0.998734 0.434148 0.322963
0.999357 0.456051 0.352938
0.998968 0.460898 0.360441
0.998503 0.463599 0.364097
0.998047 0.467103 0.369110
0.997598 0.471824 0.375887
0.997143 0.477003 0.383216
0.997217 0.483903 0.392485
0.997343 0.490847 0.401895
0.997717 0.498328 0.411721
0.998292 0.506646 0.421658
0.998866 0.514908 0.431515
0.114143 0.133545 0.044494
0.117284 0.132954 0.045493
0.120275 0.132148 0.046369
0.121353 0.129572 0.046093
0.123822 0.127315 0.045458
0.148726 0.127100 0.043518
0.170879 0.128874 0.041501
0.196746 0.135658 0.038445
0.235592 0.148407 0.036180
0.306639 0.172280 0.034463
0.387195 0.202388 0.041574
0.475857 0.230944 0.052081
0.562283 0.254997 0.065459
0.644473 0.275109 0.086460
0.721338 0.293626 0.109343
0.787292 0.311337 0.130296
0.842838 0.328926 0.150471
0.892212 0.347770 0.171640
0.934695 0.367764 0.198345
0.969471 0.391393 0.236076
0.992135 0.419195 0.280005
0.998130 0.446365 0.321846
0.999313 0.468571 0.357222
0.998802 0.477220 0.370955
0.998427 0.479721 0.376564
0.998041 0.483265 0.383253
0.997666 0.487816 0.390380
0.997301 0.492729 0.397633
0.997265 0.499363 0.405214
0.997245 0.505792 0.412102
0.997322 0.512433 0.419193
0.997440 0.520172 0.427443
0.997559 0.527511 0.436379
0.149472 0.172809 0.063402
0.153560 0.173231 0.064853
0.157518 0.173505 0.066224
0.160013 0.172485 0.066792
0.161857 0.170947 0.066976
0.177609 0.170615 0.064699
0.208199 0.169266 0.058620
0.231375 0.170497 0.053848
0.254567 0.177657 0.052194
0.294806 0.192540 0.051069
0.363973 0.218155 0.057767
0.448046 0.248147 0.067918
0.537553 0.279613 0.081219
0.625191 0.308233 0.099894
0.702478 0.328240 0.120196
0.767918 0.342119 0.137420
0.825206 0.356282 0.153749
0.876031 0.372333 0.172533
0.918802 0.389871 0.197208
0.955686 0.410469 0.233376
0.985590 0.434099 0.277260
0.998734 0.459956 0.320698
0.999009 0.484165 0.359038
0.998400 0.495293 0.378741
0.997709 0.497447 0.384619
0.997189 0.500011 0.390644
0.996994 0.503648 0.396743
0.996932 0.507703 0.403170
0.997725 0.513666 0.411296
0.998174 0.520641 0.419719
0.998534 0.528001 0.428340
0.998866 0.536054 0.437620
0.999219 0.543983 0.447146
0.177393 0.202129 0.082014
0.181474 0.203707 0.083213
0.185383 0.205210 0.084454
0.188450 0.205903 0.085134
0.191410 0.206374 0.085569
0.201586 0.207644 0.084456
0.229117 0.206680 0.078306
0.259614 0.203980 0.071601
0.279462 0.208043 0.069394
0.301212 0.213928 0.068497
0.338216 0.224667 0.069011
0.408353 0.253671 0.078398
0.498744 0.290675 0.093112
0.593678 0.327085 0.111256
0.681205 0.359197 0.130146
0.755541 0.381394 0.148153
0.817716 0.394174 0.165723
0.868017 0.405323 0.182534
0.908389 0.419521 0.205232
0.944848 0.436342 0.240014
0.978022 0.455477 0.281750
0.997337 0.477152 0.324654
0.999651 0.499167 0.363598
0.999455 0.511882 0.387715
0.999183 0.512541 0.392063
0.998896 0.514730 0.397594
0.998478 0.518171 0.403641
0.997712 0.522267 0.409919
0.997679 0.527528 0.417576
0.997603 0.533385 0.425614
0.998164 0.540074 0.434507
0.998983 0.547326 0.443901
0.999811 0.554588 0.453247
0.209179 0.238018 0.101619
0.211414 0.238436 0.102081
0.214199 0.239228 0.102685
0.217155 0.239594 0.102886
0.219997 0.239755 0.102880
0.224574 0.239609 0.102311
0.242784 0.241150 0.096207
0.275568 0.236144 0.089157
0.298266 0.235973 0.085893
0.317826 0.237225 0.084314
0.337899 0.242027 0.082496
0.376624 0.257905 0.086513
0.451560 0.290920 0.098883
0.546025 0.330219 0.116354
0.640853 0.370020 0.135365
0.726924 0.405930 0.155383
0.797956 0.429043 0.174364
0.853317 0.440640 0.191911
0.896275 0.450975 0.215229
0.932916 0.465783 0.249172
0.967697 0.483367 0.288777
0.992321 0.501749 0.331171
0.999562 0.521611 0.374393
0.999942 0.535979 0.402002
0.999992 0.538174 0.408532
0.999939 0.540060 0.414810
0.999750 0.542887 0.421418
0.999360 0.546373 0.427835
0.999170 0.551143 0.434470
0.999032 0.555866 0.441113
0.999232 0.561074 0.448275
0.999527 0.567398 0.456488
0.999765 0.573402 0.464682
0.240955 0.277474 0.121662
0.244891 0.279466 0.122412
0.249217 0.281701 0.123227
0.252929 0.283027 0.123660
0.254860 0.282739 0.123706
0.256128 0.281686 0.123453
0.265936 0.283510 0.118332
0.292660 0.278568 0.111427
0.317521 0.274610 0.107859
0.341491 0.272294 0.104967
0.358645 0.275175 0.101904
0.378916 0.279811 0.101581
0.420504 0.295729 0.106882
0.496738 0.328405 0.118796
0.591321 0.368984 0.137793
0.683743 0.410223 0.157815
0.764038 0.445167 0.176735
0.828332 0.468622 0.198003
0.878183 0.482737 0.224931
0.918080 0.495152 0.259124
0.953493 0.510991 0.297098
0.983509 0.527167 0.337742
0.998954 0.544300 0.382111
0.999475 0.560491 0.416105
0.999766 0.564757 0.426634
0.999932 0.566350 0.432461
0.999965 0.568181 0.437125
0.999942 0.570858 0.442307
0.999747 0.575057 0.448860
0.999856 0.580141 0.456197
0.999942 0.585315 0.463610
0.999937 0.591566 0.472029
0.999882 0.597653 0.480465
0.266256 0.311392 0.137536
0.270631 0.314441 0.139367
0.274962 0.317400 0.141147
0.278549 0.319580 0.142675
0.281064 0.320669 0.143816
0.284117 0.321322 0.143922
0.288243 0.321419 0.140636
0.308840 0.320567 0.130980
0.333326 0.314706 0.128256
0.358184 0.310896 0.125088
0.380389 0.309258 0.120985
0.399231 0.310926 0.119327
0.420874 0.316458 0.119554
0.464625 0.333538 0.123979
0.542178 0.366948 0.137973
0.636674 0.410796 0.158644
0.725337 0.453212 0.180720
0.799279 0.487686 0.205342
0.857661 0.512547 0.237386
0.902341 0.528178 0.274848
0.938252 0.540824 0.310327
0.970363 0.555494 0.347977
0.993192 0.571295 0.391184
0.999102 0.584251 0.423475
0.999812 0.588935 0.437596
0.999857 0.590481 0.444416
0.999871 0.591517 0.448935
0.999944 0.594070 0.454633
0.999815 0.597513 0.461658
0.999845 0.601594 0.469255
0.999639 0.606212 0.477096
0.999406 0.611814 0.485355
0.999160 0.617445 0.493592
0.289234 0.345716 0.155744
0.292940 0.346795 0.156251
0.296726 0.349039 0.157637
0.300256 0.351279 0.159225
0.303771 0.353371 0.160681
0.307639 0.354992 0.161320
0.309044 0.354100 0.159589
0.321949 0.355770 0.151808
0.343735 0.352027 0.145070
0.368941 0.347731 0.143865
0.395725 0.342429 0.140033
0.418737 0.343093 0.136535
0.437146 0.347545 0.135928
0.461094 0.353881 0.137546
0.507950 0.371196 0.141628
0.586499 0.408329 0.157875
0.678337 0.453546 0.182329
0.761129 0.493000 0.206926
0.828658 0.525823 0.239567
0.881411 0.551837 0.283061
0.922268 0.571206 0.326313
0.956560 0.587321 0.367310
0.985128 0.602763 0.410598
0.998070 0.615714 0.442492
0.998698 0.621873 0.460139
0.998927 0.623741 0.468709
0.999074 0.624180 0.473254
0.999329 0.625887 0.478518
0.999296 0.627745 0.483871
0.999248 0.629647 0.489281
0.999021 0.632026 0.494939
0.998808 0.636309 0.502115
0.998627 0.640974 0.509638
0.311524 0.382453 0.175658
0.315670 0.383616 0.175810
0.319953 0.385842 0.176726
0.323784 0.387456 0.177259
0.327178 0.388027 0.176929
0.330006 0.387735 0.176085
0.330227 0.386469 0.174594
0.334214 0.385918 0.171226
0.352453 0.385633 0.161519
0.376813 0.383128 0.156974
0.406781 0.378540 0.157639
0.436186 0.377303 0.155546
0.457457 0.381399 0.155295
0.476093 0.384989 0.155539
0.501745 0.390890 0.155421
0.547904 0.409274 0.162591
0.624588 0.446807 0.180355
0.711414 0.489924 0.203360
0.787421 0.526506 0.233763
0.851150 0.560022 0.278577
0.899906 0.589689 0.331373
0.939152 0.614445 0.383011
0.972306 0.633731 0.430287
0.992541 0.647154 0.465055
0.998200 0.654458 0.486275
0.998919 0.656870 0.495891
0.999175 0.656701 0.499502
0.999424 0.657691 0.503777
0.999231 0.659170 0.508355
0.999091 0.660610 0.513128
0.998937 0.662093 0.517942
0.998784 0.665427 0.524356
0.998643 0.669115 0.531092
0.334274 0.419494 0.195984
0.338310 0.421416 0.196664
0.342360 0.423338 0.197330
0.345953 0.424361 0.197331
0.349116 0.424307 0.196432
0.352260 0.423771 0.195351
0.352892 0.422523 0.193749
0.353362 0.420421 0.191799
0.366108 0.422561 0.185864
0.386130 0.421067 0.175219
0.414590 0.417953 0.175954
0.447484 0.414158 0.176675
0.474909 0.414034 0.175627
0.493485 0.418003 0.175451
0.514303 0.423848 0.177043
0.540077 0.430806 0.179519
0.586418 0.451485 0.186302
0.662278 0.489630 0.203314
0.744951 0.530048 0.233290
0.815967 0.565049 0.276368
0.873413 0.597927 0.328493
0.918746 0.629875 0.384995
0.955100 0.656763 0.440119
0.981747 0.673609 0.480750
0.995686 0.680874 0.503544
0.999003 0.684158 0.514608
0.999752 0.683554 0.517160
0.999974 0.683984 0.520905
0.999817 0.685267 0.525854
0.999687 0.686547 0.530993
0.999447 0.688160 0.536281
0.999151 0.691296 0.542372
0.998840 0.694489 0.548493
0.358011 0.458224 0.219485
0.360495 0.459103 0.219613
0.363850 0.460635 0.219872
0.367788 0.462400 0.220086
0.371682 0.463937 0.220148
0.375851 0.465217 0.220245
0.377176 0.464172 0.219012
0.377388 0.462086 0.217175
0.383525 0.463431 0.214672
0.398250 0.461076 0.205220
0.422983 0.457875 0.198715
0.454298 0.454570 0.197829
0.485902 0.451669 0.197866
0.510674 0.453291 0.198211
0.532984 0.459692 0.199784
0.553643 0.466181 0.202620
0.578511 0.474751 0.204359
0.626940 0.495874 0.210537
0.699223 0.531462 0.233591
0.775496 0.568854 0.273383
0.842398 0.601984 0.320248
0.894389 0.636136 0.375452
0.935023 0.669070 0.439025
0.967858 0.695016 0.490874
0.989641 0.709539 0.523885
0.997251 0.716471 0.543671
0.998609 0.715294 0.546568
0.999227 0.714951 0.550005
0.999481 0.715964 0.554874
0.999662 0.716697 0.558760
0.999710 0.717954 0.563029
0.999656 0.721015 0.568981
0.999481 0.723810 0.574733
0.384825 0.503724 0.245295
0.386270 0.503873 0.245446
0.388777 0.504806 0.245762
0.392047 0.506101 0.246061
0.395022 0.507441 0.245991
0.397501 0.507910 0.245338
0.397585 0.506319 0.244078
0.396616 0.503576 0.242241
0.397702 0.501547 0.240001
0.410406 0.500840 0.237172
0.433469 0.497933 0.225454
0.462945 0.497779 0.219371
0.495796 0.497775 0.221709
0.527412 0.497081 0.223746
0.552910 0.500174 0.224657
0.572602 0.504918 0.227117
0.592031 0.509502 0.227831
0.617187 0.515662 0.226979
0.660717 0.533774 0.236397
0.727973 0.566465 0.264026
0.801748 0.601492 0.305428
0.864113 0.637423 0.360849
0.911219 0.672767 0.428009
0.949608 0.704661 0.486896
0.977562 0.728835 0.533950
0.991556 0.740938 0.566240
0.994919 0.742641 0.574875
0.996333 0.743621 0.579600
0.997431 0.745883 0.585093
0.998272 0.747398 0.589243
0.998746 0.748491 0.593397
0.999205 0.750899 0.599150
0.999519 0.752981 0.604645
0.412564 0.553053 0.274700
0.414345 0.553185 0.274700
0.416404 0.553138 0.274660
0.418274 0.552765 0.274414
0.419669 0.552495 0.273659
0.420280 0.551324 0.272429
0.419414 0.549226 0.270991
0.418159 0.546472 0.269191
0.416887 0.543250 0.267189
0.426576 0.543546 0.267765
0.444720 0.541145 0.257634
0.472814 0.540986 0.246931
0.506244 0.543397 0.246455
0.540634 0.544639 0.250863
0.571346 0.545806 0.252233
0.595473 0.548840 0.253213
0.614740 0.552878 0.254077
0.634672 0.556406 0.255051
0.659629 0.562344 0.257776
0.699876 0.579047 0.268394
0.763250 0.608490 0.300433
0.831184 0.641445 0.352932
0.884966 0.673934 0.414193
0.926928 0.707220 0.474898
0.958641 0.733023 0.525501
0.980301 0.748281 0.563424
0.987115 0.754281 0.576931
0.989675 0.756883 0.582735
0.992059 0.760237 0.589549
0.994184 0.763144 0.596191
0.995812 0.765230 0.602481
0.996969 0.767754 0.608401
0.998033 0.770271 0.614206
0.438850 0.600117 0.308769
0.440462 0.599998 0.308507
0.442459 0.599630 0.308166
0.444138 0.599146 0.307134
0.445753 0.598664 0.305824
0.446779 0.597476 0.304224
0.446688 0.595249 0.302520
0.445482 0.592626 0.300427
0.444159 0.589879 0.298338
0.446424 0.588400 0.297800
0.458577 0.585147 0.292338
0.482219 0.582481 0.281790
0.514582 0.584407 0.275746
0.549867 0.586906 0.278292
0.584989 0.588660 0.279461
0.614587 0.592705 0.280273
0.637081 0.597565 0.282816
0.657978 0.602765 0.287488
0.679952 0.607926 0.290669
0.704308 0.612870 0.291853
0.741365 0.626010 0.308962
0.797010 0.650041 0.347595
0.855861 0.678659 0.400998
0.904036 0.711824 0.466457
0.940613 0.739401 0.521284
0.966851 0.758039 0.563106
0.978845 0.766689 0.582595
0.982514 0.768558 0.588229
0.985801 0.771996 0.595974
0.989375 0.775820 0.604026
0.992914 0.779670 0.612077
0.995414 0.783568 0.619185
0.997738 0.787418 0.626102
0.473095 0.648396 0.349283
0.473859 0.647844 0.349327
0.474538 0.647197 0.349275
0.474730 0.646616 0.348154
0.474951 0.646206 0.346819
0.475057 0.645036 0.344866
0.474970 0.642786 0.342761
0.473279 0.640162 0.340047
0.472029 0.637580 0.337516
0.472541 0.635561 0.335962
0.479000 0.631216 0.331119
0.496511 0.627989 0.324741
0.525046 0.627908 0.317776
0.557981 0.630519 0.315793
0.593397 0.633124 0.315561
0.627898 0.636277 0.315876
0.655469 0.638632 0.316268
0.674362 0.640385 0.318111
0.692349 0.642225 0.318799
0.713400 0.642218 0.316997
0.735996 0.645429 0.322627
0.771083 0.659279 0.342008
0.823194 0.683677 0.386052
0.878143 0.714500 0.453249
0.920817 0.745713 0.514173
0.951398 0.768535 0.562366
0.972586 0.782746 0.597283
0.977675 0.785439 0.605143
0.981012 0.788439 0.612533
0.984867 0.792121 0.620464
0.988701 0.795948 0.628447
0.992002 0.800068 0.636323
0.995247 0.804168 0.644179
0.508036 0.691143 0.394594
0.508230 0.691367 0.394537
0.508306 0.691545 0.394405
0.508094 0.691527 0.394026
0.507955 0.691441 0.393622
0.508304 0.690880 0.392962
0.507551 0.689578 0.391223
0.506063 0.687578 0.388612
0.505513 0.685244 0.385947
0.505846 0.682730 0.383373
0.506770 0.679688 0.379394
0.518761 0.676610 0.374212
0.540474 0.674465 0.369344
0.568254 0.675282 0.364784
0.603108 0.678238 0.361824
0.642517 0.680851 0.361748
0.674821 0.683113 0.362389
0.695942 0.684007 0.362685
0.712696 0.682934 0.360238
0.730483 0.682809 0.356607
0.750654 0.685690 0.360228
0.771541 0.691150 0.370057
0.801414 0.700862 0.391749
0.849816 0.720741 0.441141
0.896896 0.748038 0.498452
0.932158 0.772184 0.549885
0.960722 0.788797 0.591341
0.968543 0.792747 0.604048
0.971984 0.795165 0.611621
0.975418 0.797918 0.619020
0.978924 0.801094 0.626817
0.982060 0.804931 0.634793
0.985088 0.808615 0.642563
0.543546 0.736869 0.448319
0.544192 0.736845 0.447687
0.544540 0.736655 0.446877
0.544488 0.736204 0.445763
0.544280 0.735857 0.444872
0.543516 0.735082 0.443561
0.541690 0.733028 0.441280
0.538842 0.729877 0.437818
0.536000 0.726105 0.433206
0.533210 0.722082 0.428164
0.530749 0.718279 0.423175
0.536352 0.711716 0.412862
0.551377 0.707995 0.407273
0.575161 0.708977 0.407447
0.608746 0.713684 0.404637
0.648055 0.718968 0.405324
0.686749 0.724105 0.411315
0.718299 0.728887 0.417489
0.739307 0.731609 0.420824
0.756806 0.734494 0.421697
0.776224 0.738913 0.424468
0.794732 0.740291 0.427931
0.813406 0.738202 0.434282
0.837435 0.742373 0.452973
0.877453 0.758288 0.493932
0.915716 0.779584 0.543944
0.947758 0.797675 0.587431
0.958525 0.803036 0.605345
0.963530 0.805871 0.614702
0.967704 0.808898 0.622633
0.971935 0.812614 0.631617
0.975675 0.816890 0.640892
0.979161 0.820824 0.649669
0.600441 0.800522 0.532776
0.600219 0.799132 0.529878
0.600720 0.797793 0.527146
0.601051 0.795992 0.523817
0.601042 0.794506 0.521181
0.600071 0.792446 0.517980
0.597214 0.789421 0.514361
0.592745 0.785108 0.509024
0.587965 0.779839 0.501240
0.583068 0.774271 0.492875
0.577842 0.768390 0.484301
0.575543 0.760093 0.472860
0.581492 0.754714 0.466375
0.598443 0.753677 0.466656
0.625740 0.756266 0.467669
0.658469 0.759747 0.464387
0.693443 0.763409 0.462952
0.728640 0.765754 0.465987
0.754924 0.765587 0.467832
0.771129 0.767066 0.469721
0.786843 0.770136 0.471342
0.804768 0.770362 0.469804
0.825067 0.769222 0.472329
0.842515 0.770482 0.481266
0.865355 0.777643 0.501509
0.903020 0.791290 0.543038
0.935159 0.808426 0.587679
0.951251 0.820593 0.613915
0.959817 0.826207 0.627762
0.964375 0.829563 0.636450
0.968323 0.833014 0.645657
0.971768 0.836888 0.654832
0.975212 0.840568 0.663872
0.636692 0.837009 0.581373
0.636451 0.836936 0.580934
0.639077 0.837569 0.581821
0.642290 0.838068 0.582680
0.645619 0.838644 0.583657
0.649600 0.839300 0.584820
0.650180 0.838851 0.584077
0.648832 0.837477 0.581620
0.647116 0.835893 0.578779
0.644861 0.834025 0.576033
0.642240 0.832130 0.573965
0.638069 0.830174 0.568518
0.641702 0.824344 0.560527
0.652375 0.820643 0.557516
0.669189 0.817562 0.556967
0.691312 0.813458 0.554096
0.717358 0.811755 0.548306
0.747920 0.811278 0.538998
0.777311 0.808615 0.529653
0.797065 0.806159 0.525529
0.808573 0.806395 0.523928
0.822080 0.804837 0.520390
0.842719 0.803371 0.520233
0.860805 0.806503 0.526600
0.872470 0.806124 0.533699
0.892867 0.811800 0.554939
0.921995 0.822642 0.587685
0.942170 0.829180 0.616742
0.953069 0.836688 0.634767
0.956995 0.839976 0.642406
0.961080 0.843783 0.650377
0.964975 0.848145 0.658938
0.968938 0.851855 0.667312
0.651675 0.850311 0.598190
0.652478 0.851150 0.598935
0.653305 0.852030 0.599703
0.654110 0.852894 0.600449
0.655066 0.853774 0.601259
0.658653 0.855288 0.603247
0.661327 0.856192 0.604364
0.663519 0.856534 0.604792
0.665669 0.856822 0.605135
0.667039 0.856677 0.604954
0.667479 0.856371 0.604486
0.666987 0.855472 0.603385
0.666381 0.851472 0.596816
0.673811 0.848396 0.594226
0.687810 0.846430 0.592986
0.707932 0.845360 0.594316
0.732810 0.845405 0.598930
0.761623 0.845771 0.598820
0.795044 0.845995 0.592931
0.824380 0.846908 0.589034
0.841856 0.848839 0.590672
0.855415 0.849515 0.593309
0.872676 0.850061 0.595025
0.885242 0.850331 0.594943
