apk/assets/luts/Lut9.cube
LUT_3D_SIZE 16
0.043212 0.045380 0.086921
0.036434 0.042039 0.084470
0.061522 0.056479 0.095861
0.097091 0.068560 0.105178
0.139339 0.077321 0.112167
0.190720 0.085067 0.118336
0.244981 0.091219 0.123118
0.295636 0.095983 0.126167
0.353047 0.100651 0.128017
0.421998 0.104588 0.127996
0.497590 0.106906 0.125990
0.571687 0.107296 0.122266
0.642306 0.106996 0.116631
0.703535 0.111140 0.110908
0.754870 0.127003 0.105005
0.808377 0.154958 0.096771
0.037006 0.042826 0.082685
0.048269 0.056990 0.093113
0.068250 0.062927 0.098697
0.104867 0.074747 0.107741
0.154867 0.085067 0.115161
0.210338 0.093065 0.120933
0.267875 0.099882 0.125065
0.324737 0.106120 0.127521
0.389301 0.113524 0.128306
0.462667 0.122048 0.126735
0.542543 0.132564 0.122753
0.618275 0.145288 0.116543
0.685746 0.160780 0.108217
0.745520 0.179050 0.098664
0.796066 0.199001 0.088112
0.841459 0.223129 0.074478
0.067945 0.077348 0.105275
0.068842 0.083953 0.107783
0.082250 0.080872 0.107258
0.125941 0.083809 0.112245
0.179369 0.094109 0.118752
0.236645 0.102506 0.123577
0.294904 0.110395 0.126749
0.355398 0.119352 0.128247
0.424703 0.129724 0.127660
0.499243 0.141540 0.124656
0.576020 0.156284 0.119210
0.650032 0.174089 0.111392
0.716852 0.194619 0.101525
0.771057 0.216569 0.090559
0.814299 0.240342 0.078058
0.853299 0.269170 0.052423
0.074948 0.091528 0.110255
0.078048 0.102614 0.113872
0.080941 0.107881 0.115086
0.138729 0.096857 0.116187
0.207665 0.103367 0.121882
0.266104 0.113151 0.125763
0.324143 0.123424 0.127876
0.389160 0.134264 0.128173
0.458095 0.146206 0.126317
0.532515 0.160524 0.122162
0.608433 0.178443 0.115394
0.677626 0.198720 0.106619
0.737132 0.221009 0.096379
0.787035 0.245506 0.084597
0.826499 0.271901 0.071147
0.860826 0.304279 0.050561
0.081661 0.107766 0.115087
0.084465 0.118737 0.118003
0.081577 0.132452 0.120413
0.140270 0.128697 0.121702
0.220556 0.120797 0.124297
0.294515 0.126560 0.127311
0.359188 0.137753 0.128302
0.422149 0.149948 0.127331
0.489761 0.163625 0.124501
0.560655 0.179590 0.119530
0.633814 0.199143 0.111827
0.699112 0.221336 0.102098
0.754581 0.245242 0.091542
0.799829 0.271593 0.078849
0.836271 0.300792 0.060234
0.868257 0.335149 0.049766
0.086902 0.123824 0.118873
0.088742 0.133091 0.120929
0.085427 0.153798 0.123772
0.141875 0.158154 0.125301
0.226496 0.157904 0.127019
0.315869 0.147509 0.128168
0.388859 0.153965 0.127913
0.455046 0.166696 0.125791
0.520790 0.181762 0.122118
0.588305 0.199567 0.116356
0.656815 0.220718 0.107644
0.717147 0.244159 0.097504
0.768408 0.269778 0.086554
0.810888 0.297715 0.072405
0.844264 0.328294 0.051115
0.873875 0.364611 0.050150
0.091486 0.141874 0.122168
0.092687 0.151915 0.123884
0.088843 0.171259 0.125750
0.146989 0.183593 0.127267
0.226544 0.196504 0.128261
0.325275 0.192321 0.127980
0.413004 0.177635 0.126710
0.483907 0.185681 0.123538
0.550546 0.201184 0.118925
0.614257 0.219972 0.112438
0.677304 0.242294 0.103196
0.733250 0.267734 0.092581
0.780048 0.294890 0.080980
0.819673 0.324877 0.064459
0.850502 0.357500 0.050575
0.880106 0.393502 0.051585
0.095153 0.161499 0.124828
0.095836 0.174590 0.126427
0.092535 0.192280 0.127328
0.154620 0.209967 0.128212
0.235316 0.228605 0.128010
0.320383 0.246274 0.127089
0.424677 0.232526 0.123495
0.509046 0.214511 0.119951
0.576809 0.223971 0.114587
0.639921 0.242762 0.107538
0.697934 0.265948 0.097907
0.748867 0.293646 0.086738
0.791674 0.323066 0.074014
0.826695 0.355408 0.052332
0.856356 0.389832 0.052418
0.879811 0.426192 0.062854
0.097976 0.184671 0.126967
0.097795 0.201798 0.128329
0.095676 0.220009 0.128299
0.165149 0.242401 0.127908
0.249429 0.266832 0.125907
0.330574 0.288586 0.124247
0.414201 0.306304 0.119369
0.520806 0.287058 0.113128
0.599122 0.262950 0.107789
0.662106 0.272121 0.100394
0.718582 0.293796 0.091056
0.764694 0.322315 0.079637
0.802161 0.355265 0.065500
0.833759 0.391614 0.052396
0.863237 0.426734 0.064478
0.878758 0.461566 0.069740
0.099559 0.212738 0.128339
0.097838 0.234919 0.129403
0.099907 0.256558 0.127996
0.180188 0.281992 0.125822
0.264515 0.310682 0.121612
0.351226 0.335726 0.117633
0.426279 0.363268 0.111920
0.505727 0.382449 0.103945
0.604280 0.359747 0.096093
0.676233 0.328982 0.089518
0.733876 0.334980 0.079405
0.778299 0.359816 0.068014
0.813264 0.391400 0.052250
0.840604 0.430271 0.065048
0.871505 0.464549 0.071707
0.877748 0.499851 0.076569
0.098933 0.249505 0.128531
0.093236 0.277838 0.128354
0.110263 0.302321 0.125613
0.203118 0.332975 0.120802
0.285544 0.363174 0.114208
0.373149 0.394957 0.106345
0.446713 0.415966 0.100944
0.516583 0.450521 0.092583
0.585438 0.469415 0.085496
0.673712 0.444781 0.075755
0.738656 0.411782 0.062034
0.784731 0.416318 0.051829
0.819217 0.440978 0.063845
0.847057 0.474224 0.071576
0.879133 0.505804 0.077414
0.876854 0.539324 0.082464
0.095218 0.293019 0.127081
0.079889 0.331247 0.123738
0.130782 0.356071 0.119359
0.230138 0.391313 0.111944
0.313730 0.423298 0.102978
0.395457 0.455192 0.091752
0.473726 0.485799 0.081673
0.537231 0.506108 0.081110
0.597471 0.540233 0.083485
0.656994 0.558218 0.087157
0.729255 0.529621 0.082936
0.781900 0.498734 0.074346
0.819906 0.504138 0.072915
0.851800 0.527476 0.077366
0.880515 0.554446 0.082572
0.876565 0.583484 0.088135
0.087387 0.341984 0.124208
0.054610 0.391994 0.114987
0.163911 0.418484 0.108816
0.262707 0.453184 0.099132
0.346007 0.486801 0.087525
0.421988 0.516889 0.074420
0.496850 0.548690 0.064087
0.564438 0.573761 0.077790
0.618063 0.592706 0.085921
0.668476 0.623769 0.089610
0.717475 0.640077 0.092524
0.774362 0.607506 0.090743
0.819455 0.580514 0.084495
0.855762 0.583968 0.083511
0.880002 0.602045 0.087052
0.876436 0.628859 0.093354
0.066175 0.399674 0.117871
0.061758 0.458018 0.102204
0.208667 0.485256 0.094666
0.303098 0.519109 0.083351
0.384452 0.550400 0.072587
0.455970 0.579565 0.070941
0.522711 0.607815 0.072627
0.586183 0.633977 0.077653
0.642010 0.653421 0.086036
0.690352 0.675085 0.091525
0.733202 0.703468 0.094625
0.774264 0.716661 0.097856
0.818902 0.682973 0.096933
0.856963 0.654577 0.092922
0.879816 0.657463 0.092697
0.876430 0.670787 0.095933
-0.037931 0.461030 0.109701
0.138260 0.522171 0.087792
0.263611 0.549970 0.081919
0.353096 0.583613 0.077127
0.428093 0.612283 0.078398
0.491431 0.637791 0.078770
0.551073 0.660913 0.078966
0.607476 0.683759 0.080500
0.660012 0.704708 0.086387
0.710888 0.727166 0.093004
0.751985 0.747556 0.097121
0.786868 0.769800 0.100098
0.815900 0.779427 0.103332
0.858002 0.748250 0.102133
0.880042 0.718682 0.098294
0.876448 0.717225 0.101275
-0.054017 0.576463 0.100931
0.235270 0.647230 0.079975
0.348814 0.660145 0.081942
0.430576 0.690819 0.079483
0.499663 0.717026 0.075845
0.558922 0.742279 0.071270
0.611784 0.764718 0.066822
0.660441 0.786359 0.064684
0.709864 0.809423 0.068549
0.756246 0.828791 0.080869
0.794898 0.845333 0.091459
0.822430 0.858144 0.097864
0.844676 0.873284 0.103767
0.865087 0.880376 0.109853
0.894323 0.855902 0.108229
0.887294 0.821521 0.104547
-0.028958 -0.255257 0.090871
-0.089045 -0.270869 0.092298
-0.129730 -0.284053 0.098216
-0.157062 -0.294032 0.108783
-0.176561 -0.304594 0.117145
-0.186129 -0.314592 0.123099
-0.179169 -0.323813 0.128413
-0.131055 -0.332721 0.132583
0.181338 -0.341635 0.134666
0.307904 -0.349855 0.134427
0.417189 -0.356831 0.132109
0.517954 -0.362667 0.127482
0.605466 -0.366210 0.120825
0.681310 -0.362815 0.113084
0.743322 -0.349317 0.104618
0.803436 -0.330088 0.094307
0.043515 0.042694 0.091361
0.042904 0.048611 0.096077
0.070610 0.072562 0.109616
0.103745 0.081808 0.115080
0.148461 0.090109 0.119931
0.203794 0.098214 0.124563
0.266600 0.105882 0.128245
0.338403 0.112034 0.130083
0.409658 0.116686 0.129753
0.481631 0.122304 0.127848
0.560663 0.129534 0.123771
0.635824 0.139228 0.117443
0.700447 0.153515 0.109642
0.756819 0.170948 0.100658
0.803644 0.189958 0.091246
0.846262 0.214824 0.079562
0.071442 0.082534 0.115951
0.070806 0.084599 0.115002
0.078067 0.087397 0.114222
0.113238 0.092335 0.118959
0.159121 0.101795 0.123653
0.217377 0.112099 0.127337
0.282861 0.121226 0.129667
0.355509 0.128947 0.130221
0.429177 0.136142 0.128893
0.506555 0.146084 0.125558
0.586952 0.160656 0.119487
0.663949 0.179050 0.110717
0.728016 0.200106 0.100723
0.780650 0.223604 0.089866
0.821428 0.250334 0.078765
0.857821 0.282473 0.065673
0.080742 0.104479 0.121547
0.079448 0.103765 0.118422
0.080079 0.112283 0.121183
0.127898 0.104914 0.119206
0.187136 0.112502 0.124753
0.246842 0.124508 0.128412
0.312978 0.134985 0.129945
0.383281 0.144455 0.129621
0.456658 0.155523 0.127444
0.535493 0.170380 0.122741
0.613702 0.189508 0.115231
0.685588 0.212529 0.105197
0.745275 0.238756 0.094231
0.791590 0.268943 0.083149
0.828297 0.301295 0.071661
0.862507 0.336813 0.063471
0.087111 0.124286 0.124711
0.085353 0.119963 0.121185
0.085439 0.135530 0.125512
0.120165 0.138484 0.123971
0.207816 0.130190 0.125210
0.284448 0.136162 0.128155
0.348907 0.147673 0.129385
0.411896 0.159671 0.128750
0.483024 0.173483 0.125786
0.561275 0.191089 0.119938
0.637244 0.212935 0.111314
0.704891 0.239631 0.100593
0.759390 0.268942 0.089247
0.802543 0.301364 0.077583
0.836954 0.335909 0.066497
0.869084 0.372959 0.069121
0.091713 0.143026 0.127187
0.090368 0.138523 0.124375
0.091064 0.156564 0.128808
0.112631 0.169124 0.127630
0.202806 0.168707 0.127784
0.299265 0.160689 0.128561
0.379628 0.163196 0.128430
0.446536 0.176736 0.127138
0.513684 0.193079 0.123240
0.586029 0.212920 0.116611
0.657673 0.236927 0.107237
0.720309 0.265837 0.096036
0.770691 0.297425 0.084492
0.810782 0.332015 0.073248
0.843348 0.367500 0.067268
0.875629 0.403588 0.073504
0.095243 0.162656 0.129077
0.094288 0.158634 0.127474
0.095037 0.178929 0.131389
0.113510 0.198169 0.129340
0.199710 0.202041 0.129362
0.298252 0.210483 0.129602
0.399055 0.194663 0.127485
0.478131 0.196586 0.124644
0.546591 0.213125 0.119645
0.611777 0.235697 0.112451
0.676116 0.262813 0.102684
0.733965 0.293673 0.091185
0.780349 0.326778 0.079894
0.817660 0.364058 0.071231
0.849483 0.399225 0.073316
0.880971 0.435600 0.078174
0.097805 0.183775 0.130805
0.097347 0.180930 0.130181
0.096925 0.202769 0.133169
0.116169 0.228888 0.129722
0.205368 0.235422 0.129195
0.291089 0.253625 0.128421
0.396120 0.257830 0.125181
0.497316 0.235950 0.120822
0.575139 0.238318 0.114925
0.639040 0.259660 0.107073
0.695655 0.290116 0.097218
0.746955 0.325112 0.085873
0.789099 0.360341 0.076233
0.823661 0.398029 0.074616
0.856516 0.432100 0.078763
0.879810 0.468349 0.083205
0.099371 0.208937 0.132510
0.099553 0.207610 0.132307
0.096665 0.232826 0.133882
0.122045 0.262765 0.128948
0.213676 0.272240 0.127483
0.302110 0.295433 0.124632
0.387862 0.320365 0.120878
0.494697 0.318412 0.114382
0.590343 0.292008 0.107903
0.661985 0.294085 0.099851
0.716636 0.320313 0.090189
0.759929 0.358416 0.080480
0.797385 0.398190 0.076207
0.831427 0.434574 0.080835
0.863598 0.467218 0.084265
0.878778 0.502709 0.088463
0.099354 0.240498 0.133994
0.100515 0.239649 0.133711
0.091960 0.274578 0.131893
0.133983 0.302068 0.126440
0.226707 0.315055 0.123794
0.316999 0.344481 0.117952
0.396931 0.366691 0.113811
0.481934 0.399258 0.106445
0.581980 0.395149 0.098278
0.669144 0.365024 0.089922
0.731786 0.367134 0.080717
0.774037 0.397085 0.075337
0.806687 0.436613 0.080613
0.839549 0.473310 0.086008
0.870500 0.505813 0.089611
0.877792 0.539863 0.093758
0.096734 0.278677 0.134737
0.098606 0.278564 0.133548
0.080912 0.324782 0.126766
0.152711 0.349544 0.121516
0.246490 0.368492 0.116884
0.333083 0.398741 0.108702
0.421386 0.430904 0.099794
0.496005 0.456721 0.095532
0.570657 0.489239 0.090861
0.657650 0.481846 0.087478
0.731024 0.449774 0.079843
0.780424 0.454034 0.079199
0.816362 0.481155 0.084226
0.848508 0.513411 0.089867
0.877569 0.545319 0.094857
0.876999 0.576264 0.099204
0.091019 0.321646 0.135335
0.091537 0.325573 0.131719
0.069128 0.384001 0.118572
0.178485 0.405093 0.113329
0.273185 0.428717 0.106584
0.356951 0.459397 0.096554
0.440200 0.492962 0.084483
0.520587 0.522359 0.081353
0.585766 0.548683 0.089432
0.647860 0.578142 0.094347
0.718268 0.564480 0.095060
0.777330 0.534763 0.090001
0.820923 0.538682 0.089569
0.855867 0.560903 0.093464
0.880265 0.588064 0.099041
0.876631 0.613926 0.103663
0.084140 0.366337 0.139143
0.076230 0.379438 0.128488
0.073533 0.450389 0.106800
0.215999 0.468794 0.101667
0.309857 0.493028 0.093828
0.390210 0.522622 0.084201
0.465591 0.553825 0.077250
0.542442 0.584909 0.081220
0.609474 0.607617 0.089974
0.663636 0.633770 0.095688
0.716034 0.659517 0.099661
0.773247 0.641338 0.101145
0.821615 0.612282 0.097464
0.859983 0.614400 0.097778
0.879561 0.631280 0.101420
0.876433 0.653708 0.107391
0.073646 0.414049 0.145564
0.037960 0.443385 0.125864
0.118082 0.527849 0.091278
0.262046 0.542421 0.090472
0.352704 0.560090 0.087258
0.428472 0.584608 0.085614
0.497284 0.612388 0.084746
0.564785 0.639753 0.085805
0.630024 0.664956 0.089490
0.687989 0.688088 0.096965
0.733170 0.713379 0.101012
0.775036 0.734311 0.105462
0.819772 0.712193 0.106254
0.860742 0.680373 0.103738
0.879555 0.679935 0.104948
0.876430 0.690330 0.109211
0.063201 0.455140 0.155529
-0.069737 0.526019 0.126552
0.188861 0.604030 0.090993
0.316812 0.609391 0.099177
0.400440 0.626916 0.098616
0.469093 0.643046 0.098625
0.530166 0.664745 0.100150
0.589147 0.688112 0.096532
0.648582 0.713272 0.092610
0.705480 0.737700 0.096991
0.751109 0.757645 0.103079
0.783134 0.775334 0.106161
0.814197 0.789661 0.110874
0.855181 0.770042 0.110592
0.880031 0.737206 0.107519
0.876437 0.732471 0.111676
0.056008 0.546186 0.178113
-0.032607 0.677709 0.113674
0.290487 0.709623 0.116546
0.397756 0.720745 0.122323
0.473306 0.733685 0.125682
0.535441 0.748353 0.127018
0.592089 0.769867 0.122979
0.647265 0.794382 0.110838
0.699659 0.818171 0.099059
0.747833 0.837793 0.093530
0.789193 0.854084 0.096148
0.820976 0.866771 0.104313
0.843148 0.879295 0.110666
0.863313 0.890204 0.118689
0.893304 0.870512 0.118288
0.885976 0.834083 0.114411
0.050044 -0.250797 0.084719
-0.045189 -0.279896 0.095291
-0.107572 -0.300493 0.099337
-0.141839 -0.307543 0.108414
-0.165391 -0.312610 0.114618
-0.182023 -0.318738 0.121937
-0.191460 -0.326912 0.128600
-0.186510 -0.336368 0.134570
-0.122301 -0.345465 0.139211
0.258406 -0.353263 0.140897
0.409660 -0.359851 0.137157
0.519961 -0.364408 0.130796
0.615613 -0.366386 0.123029
0.695436 -0.362539 0.113678
0.759237 -0.348433 0.104167
0.814316 -0.327293 0.093529
0.052343 0.054304 0.106261
0.053499 0.057748 0.110920
0.063584 0.071063 0.116233
0.091012 0.083415 0.122600
0.128681 0.091366 0.127029
0.171305 0.099114 0.131564
0.223196 0.107428 0.135438
0.288870 0.115448 0.138035
0.373837 0.122849 0.138307
0.470389 0.128961 0.134440
0.556617 0.135958 0.127975
0.634154 0.147161 0.120845
0.703448 0.161861 0.112720
0.761264 0.179273 0.104071
0.808808 0.199624 0.095142
0.848970 0.223972 0.085491
0.062019 0.065637 0.112662
0.067671 0.075247 0.120849
0.071906 0.084909 0.126374
0.099934 0.098790 0.131850
0.148005 0.107399 0.134939
0.204417 0.115583 0.137143
0.272105 0.124531 0.138528
0.348441 0.133200 0.138467
0.435961 0.140726 0.135174
0.525700 0.147539 0.128704
0.604135 0.158536 0.121354
0.677407 0.175626 0.112932
0.739491 0.195566 0.103631
0.790039 0.218242 0.093729
0.829750 0.243215 0.083870
0.863595 0.274079 0.074321
0.080680 0.100536 0.135170
0.084011 0.111523 0.141021
0.083372 0.114459 0.138754
0.108356 0.115015 0.131083
0.163142 0.121060 0.136156
0.217058 0.133505 0.140691
0.282795 0.146412 0.141361
0.360104 0.159310 0.139356
0.447616 0.172043 0.134509
0.538657 0.185092 0.126336
0.620914 0.202551 0.116761
0.691585 0.226618 0.106431
0.749397 0.254740 0.096271
0.796193 0.286672 0.086725
0.830998 0.318155 0.080693
0.865514 0.351924 0.080188
0.090293 0.132920 0.149992
0.091369 0.140153 0.148677
0.090127 0.136947 0.139623
0.095025 0.145247 0.135458
0.183070 0.138487 0.131102
0.252062 0.148115 0.137622
0.314714 0.163068 0.139423
0.389863 0.178227 0.136565
0.473819 0.193154 0.130466
0.556652 0.211230 0.122321
0.634168 0.236071 0.112678
0.702548 0.267267 0.102072
0.756839 0.301797 0.092337
0.800566 0.338201 0.085547
0.835082 0.371647 0.084974
0.867191 0.408073 0.089782
0.095543 0.161585 0.158688
0.095484 0.164686 0.151654
0.095391 0.157778 0.141331
0.092679 0.173088 0.139740
0.166108 0.177138 0.133389
0.275299 0.173643 0.132326
0.358887 0.180203 0.133284
0.427051 0.195583 0.131750
0.500786 0.213668 0.126566
0.578588 0.235462 0.118456
0.652107 0.264023 0.108563
0.715563 0.298328 0.097942
0.766283 0.334690 0.088937
0.806637 0.371674 0.084609
0.842374 0.404390 0.087506
0.872859 0.441729 0.092333
0.098420 0.188587 0.164416
0.097934 0.188488 0.152234
0.099166 0.180178 0.144126
0.095051 0.200101 0.142126
0.156813 0.214718 0.135685
0.261001 0.219193 0.131907
0.372312 0.213799 0.129839
0.461099 0.215261 0.126652
0.530489 0.234477 0.121969
0.598554 0.261532 0.114650
0.667086 0.293685 0.104822
0.727028 0.329719 0.094842
0.774157 0.367521 0.087818
0.814048 0.404274 0.087537
0.847947 0.436174 0.090709
0.878220 0.472044 0.094539
0.099609 0.216202 0.167041
0.099178 0.213305 0.152731
0.101545 0.205333 0.146642
0.095999 0.230774 0.143669
0.154942 0.250656 0.135696
0.257354 0.260246 0.131377
0.363368 0.277769 0.127337
0.474317 0.261532 0.122938
0.561939 0.260798 0.116531
0.626602 0.288073 0.109038
0.683784 0.325702 0.100783
0.737401 0.365129 0.092977
0.782245 0.402736 0.089580
0.822125 0.437065 0.092072
0.853741 0.469455 0.095215
0.880536 0.504223 0.098887
0.099190 0.244848 0.168066
0.099327 0.240970 0.153377
0.102527 0.235379 0.149059
0.093951 0.267315 0.144099
0.157025 0.292805 0.133811
0.262284 0.304099 0.128797
0.354309 0.324221 0.123290
0.463850 0.345458 0.117156
0.571813 0.322870 0.110449
0.651607 0.323782 0.101985
0.705665 0.358044 0.095021
0.749984 0.401579 0.091772
0.791592 0.439790 0.094039
0.829408 0.472510 0.097119
0.859952 0.504189 0.100262
0.879255 0.536948 0.103833
0.096929 0.276673 0.167390
0.098047 0.275086 0.154491
0.101513 0.270769 0.151246
0.087247 0.313047 0.141152
0.166472 0.343281 0.129414
0.273080 0.353784 0.123931
0.368687 0.379611 0.114913
0.458620 0.410282 0.108684
0.557681 0.424865 0.102742
0.655678 0.399580 0.095829
0.722524 0.403056 0.089432
0.766034 0.438247 0.091751
0.802781 0.476859 0.098276
0.837020 0.510729 0.102368
0.866359 0.541400 0.105582
0.878351 0.571061 0.108896
0.092201 0.313622 0.166017
0.094438 0.315618 0.157901
0.097400 0.313047 0.152715
0.071624 0.371417 0.132108
0.183990 0.401891 0.122700
0.291025 0.412507 0.116827
0.382105 0.436900 0.106274
0.474778 0.470307 0.096396
0.554942 0.502629 0.095083
0.641315 0.510308 0.097252
0.721873 0.483051 0.094766
0.776691 0.488280 0.095074
0.815489 0.515656 0.100345
0.845772 0.548069 0.106148
0.873313 0.578258 0.110614
0.877417 0.605520 0.114324
0.084342 0.356089 0.167638
0.087425 0.361070 0.163393
0.088300 0.362905 0.154278
0.056150 0.439187 0.120651
0.208943 0.466369 0.115865
0.317209 0.478064 0.110354
0.403437 0.498186 0.101044
0.493510 0.532460 0.089623
0.573884 0.561427 0.093400
0.641063 0.592470 0.100210
0.711350 0.593687 0.104200
0.776117 0.564639 0.102263
0.822487 0.567687 0.102981
0.853187 0.589705 0.107981
0.879791 0.615783 0.113925
0.876759 0.638913 0.118502
0.074265 0.404674 0.177894
0.078801 0.407040 0.172733
0.067826 0.426180 0.157356
0.079059 0.508736 0.113738
0.247456 0.529729 0.114156
0.351827 0.542204 0.112499
0.433887 0.560071 0.108604
0.514845 0.588948 0.102297
0.594839 0.620806 0.097627
0.659526 0.645719 0.100208
0.716199 0.675933 0.105695
0.773255 0.668469 0.109745
0.823325 0.637811 0.108552
0.858042 0.638799 0.109979
0.879862 0.654066 0.114427
0.876483 0.674851 0.120723
0.060983 0.455653 0.195628
0.069604 0.451817 0.181586
-0.034911 0.512784 0.157573
0.150499 0.576405 0.116029
0.300535 0.591461 0.123296
0.393508 0.602854 0.126690
0.468816 0.617976 0.128998
0.539686 0.641626 0.126825
0.613810 0.672593 0.111933
0.681803 0.700377 0.101611
0.730996 0.722707 0.105705
0.773569 0.745878 0.111185
0.818331 0.732231 0.114619
0.859742 0.700939 0.112983
0.879787 0.698743 0.115864
0.876430 0.708280 0.120809
0.048717 0.505441 0.219632
0.059182 0.495568 0.195124
-0.066266 0.598868 0.161898
0.235337 0.634669 0.134135
0.356764 0.645900 0.142761
0.438142 0.655707 0.149358
0.504592 0.669425 0.154151
0.568220 0.690607 0.153383
0.633943 0.718670 0.136685
0.696617 0.746743 0.112609
0.747421 0.766808 0.106720
0.782188 0.783132 0.111034
0.813571 0.799484 0.117119
0.852365 0.784540 0.119168
0.880269 0.751922 0.116007
0.876441 0.745057 0.122094
0.046022 0.592159 0.257544
0.061234 0.604604 0.224981
0.120258 0.715576 0.152531
0.336184 0.739712 0.161612
0.437630 0.752408 0.170019
0.508491 0.764967 0.177338
0.571215 0.778677 0.180687
0.629717 0.798934 0.176132
0.686473 0.822489 0.168220
0.738198 0.842759 0.153168
0.784279 0.860343 0.123916
0.820191 0.874786 0.111609
0.843647 0.886675 0.117743
0.864567 0.898844 0.124774
0.892658 0.881640 0.127142
0.885121 0.844343 0.122618
0.057524 -0.254971 -0.032980
0.048666 -0.270718 0.047564
-0.065642 -0.297267 0.097296
-0.118601 -0.313551 0.109936
-0.150328 -0.320505 0.111219
-0.170358 -0.325502 0.114483
-0.184127 -0.331252 0.121576
-0.188593 -0.338904 0.129879
-0.164594 -0.347566 0.138327
0.141875 -0.356052 0.143502
0.345901 -0.363057 0.145216
0.494620 -0.367880 0.141426
0.610351 -0.369182 0.132251
0.699957 -0.364318 0.121193
0.765350 -0.348036 0.110546
0.823001 -0.322635 0.105463
0.057290 0.060858 0.119842
0.064234 0.069566 0.129396
0.064051 0.072101 0.128103
0.076601 0.084519 0.130683
0.115084 0.091591 0.133145
0.160170 0.098514 0.136724
0.202038 0.106082 0.141928
0.251255 0.112595 0.145478
0.322524 0.121938 0.148820
0.420013 0.132763 0.148464
0.528053 0.144689 0.142926
0.627534 0.160359 0.133637
0.708040 0.179316 0.122937
0.765454 0.201554 0.114672
0.815205 0.225556 0.109096
0.855966 0.253695 0.103837
0.065874 0.072053 0.126912
0.071053 0.080422 0.135810
0.072977 0.086397 0.141780
0.081889 0.096026 0.142357
0.122864 0.108821 0.145682
0.175247 0.117266 0.149672
0.228502 0.126876 0.152979
0.295497 0.136787 0.154558
0.382315 0.148012 0.153041
0.485177 0.160948 0.147067
0.586580 0.175218 0.137592
0.672997 0.192796 0.126917
0.737895 0.213907 0.117273
0.791930 0.235164 0.108843
0.834105 0.258996 0.100447
0.868146 0.287046 0.094241
0.074098 0.085152 0.132937
0.078773 0.095304 0.142454
0.081840 0.104212 0.150107
0.086953 0.113565 0.154276
0.129088 0.127325 0.156885
0.195620 0.139291 0.160241
0.261004 0.150171 0.160173
0.340713 0.161736 0.157395
0.435477 0.175070 0.151190
0.536002 0.189698 0.141990
0.627419 0.208203 0.131477
0.702489 0.231518 0.121459
0.762210 0.257527 0.113711
0.808599 0.284766 0.107495
0.845958 0.311956 0.102766
0.878234 0.340879 0.100983
0.086892 0.116545 0.154050
0.090326 0.130072 0.164170
0.093224 0.143032 0.171503
0.093385 0.147936 0.168709
0.140441 0.149714 0.151831
0.217626 0.157611 0.156578
0.280296 0.172118 0.161563
0.356441 0.189344 0.158904
0.446734 0.208688 0.152305
0.542410 0.231406 0.142905
0.629475 0.257817 0.132680
0.702837 0.288790 0.124866
0.760185 0.320678 0.120455
0.807782 0.351364 0.116263
0.842905 0.379513 0.117100
0.875206 0.411686 0.119580
0.095757 0.157019 0.178914
0.097010 0.169389 0.187235
0.099666 0.181530 0.187677
0.098492 0.179453 0.174017
0.115306 0.185289 0.154406
0.237098 0.182271 0.144174
0.319292 0.192440 0.152141
0.387779 0.210826 0.154370
0.472940 0.233930 0.147587
0.563518 0.261171 0.136805
0.644277 0.293152 0.126102
0.711187 0.329890 0.119772
0.764525 0.366694 0.117188
0.809723 0.400272 0.116107
0.843776 0.431969 0.120421
0.873719 0.463444 0.126828
0.099475 0.197583 0.200398
0.099405 0.207671 0.204411
0.101734 0.214792 0.194735
0.102351 0.205798 0.174541
0.103195 0.220433 0.160118
0.214539 0.226576 0.144811
0.342265 0.228328 0.137728
0.432319 0.235511 0.140186
0.505910 0.258326 0.139123
0.584053 0.289327 0.131520
0.659373 0.325103 0.121788
0.722113 0.363712 0.115845
0.772933 0.402040 0.111973
0.813936 0.436136 0.112016
0.846106 0.468118 0.115929
0.876744 0.500293 0.121703
0.099461 0.238751 0.218415
0.099151 0.245936 0.216209
0.101760 0.246303 0.196264
0.104138 0.234448 0.176553
0.100013 0.255761 0.163305
