apk/assets/luts/Lut9.cube
LUT_3D_SIZE 6
0.043212 0.045380 0.086921
0.097091 0.068560 0.105178
0.244981 0.091219 0.123118
0.421998 0.104588 0.127996
0.642306 0.106996 0.116631
0.808377 0.154958 0.096771
0.074948 0.091528 0.110255
0.138729 0.096857 0.116187
0.324143 0.123424 0.127876
0.532515 0.160524 0.122162
0.737132 0.221009 0.096379
0.860826 0.304279 0.050561
0.091486 0.141874 0.122168
0.146989 0.183593 0.127267
0.413004 0.177635 0.126710
0.614257 0.219972 0.112438
0.780048 0.294890 0.080980
0.880106 0.393502 0.051585
0.099559 0.212738 0.128339
0.180188 0.281992 0.125822
0.426279 0.363268 0.111920
0.676233 0.328982 0.089518
0.813264 0.391400 0.052250
0.877748 0.499851 0.076569
0.087387 0.341984 0.124208
0.262707 0.453184 0.099132
0.496850 0.548690 0.064087
0.668476 0.623769 0.089610
0.819455 0.580514 0.084495
0.876436 0.628859 0.093354
-0.054017 0.576463 0.100931
0.430576 0.690819 0.079483
0.611784 0.764718 0.066822
0.756246 0.828791 0.080869
0.844676 0.873284 0.103767
0.887294 0.821521 0.104547
0.057524 -0.254971 -0.032980
-0.118601 -0.313551 0.109936
-0.184127 -0.331252 0.121576
0.141875 -0.356052 0.143502
0.610351 -0.369182 0.132251
0.823001 -0.322635 0.105463
0.074098 0.085152 0.132937
0.086953 0.113565 0.154276
0.261004 0.150171 0.160173
0.536002 0.189698 0.141990
0.762210 0.257527 0.113711
0.878234 0.340879 0.100983
0.099475 0.197583 0.200398
0.102351 0.205798 0.174541
0.342265 0.228328 0.137728
0.584053 0.289327 0.131520
0.772933 0.402040 0.111973
0.876744 0.500293 0.121703
0.090724 0.323097 0.241818
0.101064 0.307566 0.181327
0.321883 0.390381 0.134940
0.641944 0.429803 0.103711
0.798499 0.509553 0.117385
0.878802 0.597151 0.125088
0.062457 0.449625 0.258852
0.061855 0.479211 0.197140
0.395001 0.577514 0.156336
0.655640 0.660370 0.115337
0.821829 0.657346 0.117929
0.876597 0.693155 0.133988
0.036794 0.632250 0.340647
0.213575 0.749825 0.198223
0.551429 0.793548 0.227498
0.728366 0.847221 0.220487
0.844717 0.892137 0.145996
0.886417 0.854193 0.127370
0.074673 -0.308279 -0.187659
0.056807 -0.310327 -0.119173
-0.184419 -0.347569 0.085018
-0.140266 -0.362083 0.092333
0.528797 -0.376890 0.135370
0.778435 -0.318396 0.188533
0.084621 0.107445 0.189460
0.095947 0.139007 0.231844
0.130191 0.157019 0.218478
0.423298 0.200172 0.213018
0.695656 0.296190 0.235859
0.855074 0.382998 0.249189
0.094345 0.146549 0.210769
0.103854 0.191923 0.260985
0.129175 0.245459 0.298916
0.515829 0.333485 0.289306
0.756557 0.426872 0.304263
0.874553 0.503459 0.322637
0.093671 0.308690 0.347664
0.083975 0.394509 0.415280
0.101918 0.432395 0.362550
0.596224 0.488452 0.224388
0.779109 0.567684 0.325170
0.880772 0.643712 0.321913
0.041200 0.572537 0.568984
0.067939 0.588783 0.521366
0.197985 0.597588 0.369741
0.611478 0.680314 0.323463
0.818654 0.705409 0.143249
0.876964 0.731463 0.252594
0.058497 0.764884 0.677709
0.104953 0.753191 0.530278
0.457856 0.830770 0.367511
0.710388 0.862724 0.398361
0.843411 0.905199 0.332704
0.891764 0.877373 0.133636
0.090837 -0.327164 -0.267669
0.086127 -0.342856 -0.273622
-0.084472 -0.348416 -0.188928
-0.269374 -0.368759 -0.126129
0.470174 -0.379049 -0.102373
0.748233 -0.329814 0.211377
0.096204 0.149789 0.284986
0.102084 0.188113 0.351812
0.110588 0.198850 0.339052
0.283518 0.225197 0.299677
0.643114 0.292801 0.292440
0.820577 0.410693 0.390494
0.098942 0.182871 0.319436
0.102836 0.231518 0.388752
0.114133 0.286055 0.462666
0.377394 0.355538 0.420705
0.702082 0.454592 0.450343
0.850737 0.540605 0.516709
0.099797 0.246014 0.361880
0.097643 0.308974 0.438186
0.110381 0.390783 0.523052
0.468309 0.532706 0.559771
0.759808 0.615797 0.570192
0.875670 0.667386 0.591312
0.055339 0.480060 0.574042
0.066271 0.557817 0.650334
0.118004 0.639960 0.717151
0.549987 0.702933 0.571639
0.804276 0.737219 0.468093
0.878221 0.763211 0.553255
0.068799 0.755678 0.835673
0.097810 0.799462 0.866495
0.167850 0.846792 0.822160
0.695442 0.887531 0.591364
0.833954 0.916578 0.588734
0.895069 0.896602 0.326654
0.102824 -0.257338 0.284574
0.102808 -0.277801 0.199766
0.095272 -0.307620 -0.131461
-0.190317 -0.348936 0.112039
0.325342 -0.366561 -0.206020
0.719491 -0.331385 0.123564
0.098505 0.223716 0.456472
0.098056 0.269761 0.536760
0.103416 0.275607 0.522453
0.113972 0.293727 0.498297
0.582797 0.348026 0.423105
0.799227 0.428353 0.486074
0.096124 0.263371 0.497017
0.093283 0.316605 0.575434
0.097535 0.364139 0.645210
0.148238 0.394818 0.626282
0.659222 0.481319 0.572679
0.829008 0.563631 0.634489
0.089800 0.312405 0.544570
0.085827 0.372933 0.620567
0.096173 0.438018 0.692390
0.288780 0.522966 0.734586
0.730726 0.627286 0.696908
0.855914 0.686419 0.735095
0.070568 0.415885 0.608590
0.072224 0.476805 0.677274
0.110762 0.545277 0.743554
0.359878 0.641628 0.776518
0.778684 0.769341 0.767187
0.881306 0.791569 0.776871
0.062583 0.647755 0.805049
0.090779 0.696933 0.855081
0.125068 0.743671 0.899636
0.290135 0.855683 0.941925
0.832064 0.921746 0.809377
0.899174 0.913773 0.718373
0.096180 0.097571 0.568888
0.098139 -0.065248 0.531866
0.095592 -0.137314 0.501640
-0.099271 -0.206211 0.466001
-0.264680 -0.255429 0.471922
0.671295 -0.228122 0.389870
0.085614 0.313963 0.648246
0.083911 0.353485 0.709301
0.089209 0.361898 0.711004
0.110280 0.382031 0.703074
0.417631 0.447773 0.701533
0.770649 0.463386 0.630912
0.079043 0.352559 0.681046
0.078793 0.396274 0.737710
0.083768 0.426100 0.779092
0.108840 0.455367 0.786394
0.558210 0.553423 0.790088
0.810085 0.558090 0.728752
0.071482 0.396095 0.716114
0.074653 0.443112 0.770996
0.084447 0.482644 0.811577
0.154661 0.542548 0.845223
0.673650 0.677288 0.852309
0.841221 0.679443 0.814844
0.060768 0.466312 0.760319
0.073317 0.515572 0.808401
0.098927 0.561433 0.846735
0.197506 0.625802 0.871929
0.745299 0.778065 0.888217
0.869810 0.788772 0.865670
0.064290 0.569481 0.808496
0.087458 0.611124 0.848326
0.128227 0.654706 0.883742
0.256418 0.714945 0.902212
0.760503 0.854678 0.920343
0.880861 0.889293 0.886613
