apk/assets/luts/VA-Cinematic.cube
TITLE "VA-Cinematic www.videoartifact.com"
LUT_3D_SIZE 33
0.00370794 0.0106203 0.0320287
0.0039826 0.0110018 0.0320134
0.00471504 0.0115358 0.0351873
0.00630198 0.0124514 0.038941
0.00917067 0.0139467 0.0434119
0.0157473 0.0158236 0.0486305
0.030518 0.018265 0.0543221
0.0479286 0.0210269 0.0608835
0.0681926 0.0235142 0.067216
0.0928206 0.0256199 0.0736095
0.122103 0.0271611 0.0796979
0.157717 0.0276036 0.0846418
0.201068 0.0264897 0.0881514
0.253223 0.0234684 0.0897841
0.311574 0.0189364 0.0897688
0.37229 0.0136721 0.0888991
0.432044 0.00877394 0.0880293
0.491859 0.00375372 0.0867628
0.544366 0 0.0861982
0.572915 0 0.0875257
0.599466 0 0.0889601
0.624262 0 0.0907149
0.647044 0 0.0926223
0.668269 0 0.095079
0.687312 0 0.0972152
0.704936 0 0.10013
0.721065 0 0.103075
0.735515 0 0.106264
0.74902 0 0.109911
0.761212 0 0.113664
0.77203 0 0.117586
0.78204 0 0.121599
0.791074 0 0.126162
0.00563058 0.0191348 0.0420539
0.00604257 0.0204471 0.0403601
0.00675975 0.0214694 0.0400092
0.00830091 0.0223545 0.0415961
0.0113832 0.0238041 0.045655
0.0186313 0.0257725 0.0508431
0.0344701 0.0279698 0.0566567
0.0528267 0.0306554 0.0633555
0.0745251 0.0328985 0.0697948
0.10045 0.0348363 0.0758679
0.131395 0.0360723 0.0816358
0.169055 0.0361486 0.0860761
0.214649 0.0346075 0.0889143
0.268925 0.0312657 0.0900893
0.328252 0.0264439 0.0895552
0.388815 0.021561 0.0888228
0.448402 0.0168765 0.0878004
0.507668 0.0122683 0.0869001
0.553567 0.00885023 0.0869917
0.58204 0.00686656 0.0885023
0.608087 0.00482185 0.0901808
0.632807 0.00318914 0.0920424
0.655024 0.00155642 0.0942092
0.675898 0.000366217 0.0968338
0.694636 0 0.0992294
0.711986 0 0.102358
0.728023 0 0.105409
0.742138 0 0.108797
0.755261 0 0.112459
0.767315 0 0.116548
0.778225 0 0.120653
0.787594 0 0.124819
0.796429 0 0.129549
0.00769055 0.0314336 0.0536812
0.00813306 0.0333257 0.0520943
0.00886549 0.0349737 0.0506447
0.0102083 0.0361181 0.0497597
0.0131075 0.0377356 0.0511025
0.0203555 0.0394293 0.0544747
0.0366217 0.0410163 0.0590524
0.0556497 0.0430304 0.0649119
0.0786297 0.0452735 0.0711223
0.105898 0.0469673 0.076997
0.138567 0.0478676 0.0825666
0.178042 0.0476387 0.0866407
0.225315 0.0456245 0.0889296
0.281315 0.0421149 0.0897231
0.341558 0.0375372 0.0890974
0.401938 0.0329137 0.0884565
0.46125 0.0286717 0.0877546
0.520348 0.0244297 0.0872358
0.562188 0.0213321 0.0877394
0.590021 0.0192416 0.0893111
0.616297 0.0175784 0.0914778
0.640558 0.0158389 0.0933242
0.663188 0.0145571 0.095964
0.68365 0.0133364 0.0984817
0.702464 0.0124208 0.101503
0.719707 0.01178 0.104921
0.73518 0.0111238 0.108125
0.749325 0.0106813 0.11191
0.762463 0.0104372 0.115709
0.774151 0.0103456 0.120043
0.784604 0.0100099 0.123919
0.794293 0.0100404 0.128603
0.803006 0.0101778 0.133333
0.00909438 0.0461891 0.06598
0.00941482 0.0481727 0.0645609
0.0102083 0.0505531 0.0628824
0.0115511 0.0525216 0.0615702
0.0146487 0.05449 0.0614481
0.0214542 0.0561532 0.0620279
0.0373693 0.0576791 0.064332
0.0563821 0.0594034 0.0681315
0.0797436 0.0610971 0.072755
0.10811 0.0624399 0.0779126
0.142016 0.0631571 0.0829023
0.183169 0.0627756 0.0866255
0.232563 0.0607767 0.0890059
0.289937 0.0570993 0.0894636
0.350607 0.0526741 0.0890364
0.411048 0.048249 0.0885328
0.471031 0.0442054 0.0881971
0.531289 0.0400244 0.087953
0.569894 0.0373388 0.0890669
0.598352 0.0356298 0.0912337
0.624643 0.0337835 0.0933547
0.649058 0.0324865 0.0958419
0.671397 0.0311589 0.0985428
0.691966 0.0302129 0.101411
0.710781 0.0295262 0.104845
0.727596 0.0287327 0.108125
0.743191 0.0284123 0.111818
0.757549 0.0281529 0.115877
0.770062 0.0278019 0.119615
0.781842 0.0277867 0.124102
0.792523 0.0278782 0.128527
0.80177 0.027985 0.133272
0.810224 0.0280766 0.137804
0.00952163 0.0632792 0.0788434
0.0099031 0.0658579 0.0773785
0.0106508 0.0686046 0.0758221
0.012253 0.0711986 0.0742809
0.0158236 0.0736706 0.0732433
0.0230259 0.0757 0.0727092
0.0383917 0.0773175 0.0729229
0.0566262 0.0790875 0.0745403
0.0793469 0.0808118 0.0772106
0.107698 0.0821851 0.0805219
0.142046 0.0829328 0.0844282
0.183749 0.0825055 0.0875563
0.234134 0.0804456 0.0895552
0.292515 0.0769665 0.0901961
0.354681 0.0727245 0.0899825
0.41677 0.0685893 0.0899977
0.478294 0.0643626 0.0897231
0.540169 0.060441 0.0899977
0.577691 0.0582742 0.0918441
0.60647 0.0563058 0.0940414
0.633188 0.0548257 0.0967269
0.657801 0.0533608 0.0992447
0.680568 0.052369 0.10248
0.700725 0.0514076 0.105486
0.719707 0.0508278 0.109178
0.73669 0.0501411 0.11252
0.752285 0.0499275 0.11664
0.766445 0.0498665 0.120974
0.779431 0.0498817 0.125292
0.790661 0.0497292 0.129702
0.801312 0.0499428 0.134325
0.810864 0.0502174 0.139406
0.819532 0.0505837 0.144381
0.00906386 0.0830243 0.091783
0.00950637 0.085893 0.0904402
0.0101167 0.089189 0.0889906
0.0122683 0.0925002 0.087129
0.016846 0.0955825 0.0856336
0.0250401 0.0981613 0.084535
0.0404059 0.0999466 0.0837262
0.0580148 0.10219 0.0837873
0.0797894 0.104326 0.0849317
0.10692 0.106065 0.0865949
0.14023 0.107134 0.0888838
0.181231 0.107134 0.0913405
0.23154 0.105562 0.0928206
0.291157 0.102266 0.0933242
0.355169 0.0981613 0.0930953
0.419211 0.093904 0.0931563
0.483131 0.0902113 0.0935531
0.547173 0.0864881 0.0942245
0.584848 0.0841382 0.0960555
0.614603 0.0825208 0.0988937
0.641917 0.0808118 0.101381
0.667048 0.0796979 0.104692
0.69015 0.0787671 0.108202
0.710826 0.0778515 0.111452
0.729915 0.0773938 0.11545
0.746883 0.0768292 0.119066
0.762478 0.0767529 0.123369
0.776852 0.0767834 0.127611
0.78938 0.0766155 0.132097
0.801205 0.0768292 0.136767
0.811734 0.0771801 0.141924
0.821271 0.0775921 0.14725
0.829679 0.0776989 0.152026
0.00787366 0.105486 0.104906
0.00842298 0.108736 0.102922
0.00967422 0.112215 0.101625
0.0126345 0.116075 0.0999619
0.0181125 0.119966 0.0982528
0.0277867 0.123598 0.0967117
0.0435035 0.125536 0.095079
0.0610971 0.128084 0.0946365
0.0822309 0.131151 0.0949874
0.108125 0.133669 0.0957961
0.139849 0.135698 0.0971847
0.17969 0.136492 0.0988327
0.228824 0.135714 0.0997635
0.288121 0.13315 0.0995956
0.353384 0.129656 0.0994583
0.419898 0.126085 0.0995193
0.486152 0.122713 0.100389
0.55256 0.119341 0.101427
0.592401 0.117006 0.103273
0.622782 0.115084 0.105928
0.651286 0.113664 0.108934
0.676875 0.112215 0.112169
0.700603 0.111315 0.115801
0.721843 0.11078 0.119875
0.740948 0.110002 0.123812
0.758648 0.109773 0.128038
0.774731 0.109651 0.132708
0.788769 0.109392 0.13695
0.801892 0.109529 0.141894
0.813519 0.10988 0.146746
0.82414 0.11017 0.15198
0.83357 0.110307 0.156878
0.842374 0.110765 0.162478
0.00726329 0.130434 0.117342
0.00788891 0.133852 0.115007
0.00991836 0.137804 0.11339
0.0133974 0.141848 0.111452
0.0204013 0.147005 0.110353
0.0308232 0.151553 0.108934
0.0473793 0.15436 0.107179
0.0655985 0.15816 0.106722
0.0864271 0.161761 0.106859
0.111452 0.165301 0.107225
0.142214 0.16849 0.108003
0.180346 0.17084 0.108934
0.228351 0.171572 0.109621
0.286687 0.170443 0.10927
0.352163 0.168017 0.108858
0.41973 0.165362 0.109117
0.487633 0.162737 0.10985
0.555962 0.159991 0.111055
0.599359 0.157702 0.113222
0.631464 0.155901 0.115892
0.660624 0.154131 0.119005
0.687663 0.152819 0.122683
0.711452 0.151568 0.126055
0.733516 0.150805 0.130312
0.753094 0.149905 0.134157
0.770901 0.149615 0.138689
0.787152 0.149432 0.143328
0.80174 0.149096 0.148104
0.814786 0.149035 0.152956
0.82681 0.149187 0.158267
0.83743 0.149493 0.163821
0.847272 0.149844 0.169177
0.855833 0.149859 0.174517
0.00741588 0.157687 0.128908
0.00888075 0.161715 0.126528
0.0110628 0.166018 0.124361
0.0160372 0.170642 0.122927
0.0233616 0.176623 0.121889
0.0341039 0.182849 0.120897
0.0512551 0.187198 0.119402
0.0701152 0.192554 0.118883
0.0915999 0.197604 0.119097
0.11667 0.202533 0.119646
0.146914 0.207187 0.120378
0.184619 0.211048 0.121294
0.231113 0.213687 0.121721
0.288228 0.214298 0.121401
0.352804 0.213794 0.121126
0.420279 0.212726 0.121431
0.488716 0.211322 0.122194
0.558022 0.208972 0.123232
0.605493 0.207248 0.12546
0.638422 0.205127 0.127871
0.668742 0.203571 0.130571
0.696162 0.201694 0.133822
0.721462 0.200336 0.137713
0.744244 0.199252 0.141726
0.764401 0.197971 0.145937
0.782834 0.197375 0.150362
0.799252 0.196933 0.155154
0.813794 0.196216 0.159869
0.827405 0.195956 0.16492
0.839384 0.195895 0.170413
0.850416 0.195926 0.175738
0.86009 0.195621 0.181064
0.869078 0.19585 0.186648
0.00846876 0.18822 0.13991
0.0099794 0.192905 0.137423
0.0129702 0.197696 0.135225
0.0180667 0.203143 0.13341
0.0257115 0.210132 0.132769
0.0369116 0.218158 0.13254
0.0548562 0.224628 0.131548
0.0742199 0.231983 0.131426
0.09691 0.239048 0.131884
0.122789 0.245975 0.132799
0.153582 0.252186 0.133974
0.191073 0.257816 0.134829
0.237415 0.262272 0.135332
0.294179 0.265156 0.135546
0.357 0.26659 0.13521
0.422934 0.267094 0.135286
0.490562 0.26717 0.136141
0.560143 0.266255 0.137179
0.609491 0.264729 0.138613
0.643305 0.262959 0.140612
0.674266 0.261189 0.142702
0.702876 0.259464 0.145876
0.728618 0.257404 0.149172
0.75201 0.255924 0.15317
0.772839 0.254673 0.157153
0.791501 0.253086 0.161471
0.808591 0.252079 0.166125
0.824033 0.251179 0.171252
0.837674 0.250584 0.17644
0.849836 0.249638 0.181247
0.860807 0.249302 0.186755
0.870909 0.249058 0.192096
0.880003 0.248905 0.198001
0.00978103 0.222919 0.15108
0.0116426 0.228367 0.14815
0.0148013 0.234134 0.145998
0.0198978 0.240192 0.143984
0.0278935 0.248157 0.143496
0.0393683 0.257954 0.144015
0.0582132 0.266728 0.144137
0.0786297 0.276951 0.144884
0.102541 0.286778 0.146151
0.130251 0.295979 0.147753
0.162554 0.304417 0.149355
0.201053 0.311467 0.150729
0.247288 0.317266 0.151247
0.303258 0.321859 0.151476
0.364904 0.325093 0.151324
0.428473 0.327214 0.151095
0.494774 0.328664 0.151431
0.562966 0.328969 0.151812
0.612238 0.328328 0.152468
0.646189 0.327214 0.153765
0.677531 0.325475 0.155444
0.706447 0.323812 0.15787
0.732479 0.32163 0.160372
0.756207 0.319875 0.163867
0.777859 0.31809 0.167514
0.796933 0.315999 0.171389
0.814237 0.314458 0.175799
0.829862 0.313024 0.180377
0.844053 0.31165 0.185412
0.85655 0.310506 0.190707
0.867628 0.309224 0.1953
0.877989 0.308446 0.200855
0.887129 0.307836 0.206394
0.0110628 0.262455 0.162158
0.0132448 0.268574 0.159396
0.016495 0.275013 0.157427
0.0221256 0.281865 0.15552
0.0303655 0.290852 0.155367
0.0423896 0.302037 0.156664
0.0622721 0.312963 0.158099
0.0842603 0.326207 0.160632
0.109346 0.33875 0.162661
0.138521 0.350729 0.165103
0.173251 0.361151 0.167361
0.213916 0.370062 0.169253
0.260884 0.376944 0.169818
0.316426 0.382635 0.170123
0.376547 0.387137 0.16968
0.438331 0.390448 0.169085
0.502312 0.393088 0.168826
0.568414 0.394354 0.168444
0.614893 0.394583 0.168276
0.647944 0.393942 0.168307
0.679164 0.393088 0.169131
0.707668 0.39147 0.170352
0.733944 0.389792 0.172351
0.758068 0.387991 0.174731
0.779614 0.385657 0.177539
0.799146 0.383734 0.180896
0.816876 0.381781 0.184894
0.832807 0.379889 0.188968
0.84683 0.378103 0.193362
0.859632 0.375998 0.197971
0.87129 0.374472 0.202869
0.88191 0.373098 0.208286
0.891386 0.371954 0.213687
0.0134432 0.306386 0.174929
0.0158083 0.313222 0.172457
0.0195926 0.320287 0.170291
0.025452 0.327962 0.168658
0.0342412 0.337789 0.168948
0.0469825 0.349981 0.170962
0.0677501 0.362402 0.17351
0.0910506 0.377661 0.177386
0.117983 0.393576 0.181643
0.148943 0.407767 0.185016
0.185885 0.420294 0.188083
0.228855 0.430716 0.190295
0.277455 0.438773 0.191028
0.33344 0.445197 0.191211
0.391638 0.45005 0.190219
0.451774 0.45417 0.1897
0.513756 0.457496 0.188708
0.577661 0.459541 0.187457
0.61976 0.461341 0.186892
0.652064 0.461967 0.186435
0.682582 0.462028 0.186526
0.711223 0.461509 0.187198
0.737377 0.460685 0.18851
0.761227 0.459052 0.190036
0.78294 0.457481 0.192386
0.802594 0.455711 0.194934
0.820218 0.453346 0.197528
0.836408 0.45124 0.201129
0.850706 0.449195 0.204822
0.863722 0.44712 0.20911
0.875731 0.445136 0.213397
0.886473 0.443305 0.218326
0.895888 0.441733 0.223301
0.0179141 0.354131 0.190478
0.0202487 0.361456 0.18761
0.024445 0.369268 0.185794
0.030518 0.377005 0.184039
0.0400854 0.387762 0.185061
0.053666 0.400458 0.187701
0.0747845 0.413245 0.190768
0.0994888 0.430472 0.196582
0.127947 0.448234 0.202655
0.160937 0.465217 0.20763
0.199145 0.479484 0.210956
0.243656 0.491218 0.21294
0.294255 0.500267 0.213352
0.3505 0.506325 0.213123
0.408179 0.510979 0.212238
0.46685 0.515908 0.211475
0.528069 0.520424 0.210529
0.590417 0.524163 0.2094
0.62649 0.527855 0.20824
0.658244 0.531594 0.207645
0.687755 0.532799 0.207019
0.715343 0.533211 0.206867
0.741375 0.533288 0.207462
0.764828 0.532631 0.208408
0.786572 0.531441 0.209781
0.806455 0.529976 0.211749
0.824247 0.528206 0.213962
0.840223 0.525795 0.216464
0.85481 0.523522 0.219699
0.868162 0.521218 0.222751
0.880186 0.518883 0.226734
0.891203 0.51664 0.231083
0.901122 0.514549 0.235676
0.0243229 0.404669 0.20853
0.0272374 0.411917 0.205829
0.0316625 0.42034 0.204211
0.0382391 0.428214 0.203128
0.0479438 0.438804 0.204044
0.0618143 0.451743 0.206928
0.0834669 0.465156 0.210254
0.108019 0.482887 0.21619
0.137087 0.50164 0.223239
0.171008 0.514214 0.228809
0.211032 0.525444 0.233143
0.257221 0.53463 0.235279
0.310018 0.542473 0.236301
0.36817 0.549279 0.236698
0.426337 0.5552 0.23621
0.4851 0.560937 0.235966
0.544854 0.565682 0.234409
0.602441 0.570428 0.233326
0.634424 0.574701 0.231876
0.664775 0.578668 0.230808
0.693797 0.582681 0.23006
0.720913 0.585901 0.229419
0.745663 0.588846 0.228992
0.768994 0.591714 0.229252
0.790097 0.593759 0.229587
0.809659 0.59585 0.230655
0.827176 0.597101 0.231754
0.843259 0.598367 0.233616
0.857755 0.599084 0.235828
0.870924 0.596414 0.238224
0.883162 0.593942 0.241184
0.894255 0.591531 0.244495
0.904158 0.589166 0.248371
0.0322423 0.456275 0.228641
0.035462 0.464088 0.226123
0.0396582 0.472221 0.224323
0.0466316 0.480598 0.222858
0.0562448 0.491264 0.223529
0.0697642 0.504204 0.226215
0.0912947 0.512535 0.229297
0.115755 0.524392 0.235401
0.144808 0.537545 0.24271
0.180087 0.551354 0.25005
0.221973 0.56379 0.255253
0.271244 0.574868 0.259205
0.32578 0.583886 0.261128
0.384863 0.591699 0.261631
0.44445 0.599054 0.262257
0.504005 0.605234 0.261997
0.563851 0.610925 0.261021
0.612421 0.616007 0.259648
0.643442 0.620691 0.258045
0.672892 0.625086 0.256367
0.700908 0.629084 0.255131
0.727077 0.633204 0.254398
0.751186 0.636622 0.253269
0.773266 0.639658 0.252476
0.794049 0.642542 0.252308
0.813001 0.644526 0.252277
0.830442 0.646464 0.252934
0.846006 0.647639 0.253483
0.860609 0.648661 0.254627
0.873823 0.649348 0.256184
0.885679 0.649744 0.258122
0.896544 0.649638 0.260197
0.90663 0.649653 0.263157
0.0401923 0.507591 0.249531
0.0430915 0.515465 0.246571
0.0475624 0.521202 0.244526
0.0543069 0.526299 0.242679
0.0636606 0.532616 0.242847
0.0770275 0.540124 0.245228
0.0982223 0.547723 0.247868
0.12256 0.559091 0.254215
0.152407 0.5729 0.262257
0.188724 0.587243 0.27068
0.233051 0.60145 0.278035
0.284337 0.613565 0.283238
0.341115 0.623972 0.286503
0.401984 0.633021 0.288106
0.462669 0.641382 0.289296
0.523186 0.64828 0.288975
0.583703 0.654505 0.288762
0.623301 0.660044 0.287694
0.653559 0.664881 0.286152
0.68217 0.669474 0.284169
0.70898 0.673793 0.282475
0.734081 0.677791 0.280735
0.757351 0.681865 0.279591
0.778805 0.685145 0.27837
0.798947 0.688182 0.277577
0.817227 0.690669 0.276661
0.833921 0.692668 0.27599
0.849226 0.694347 0.275853
0.863355 0.695613 0.276051
0.876112 0.696132 0.276219
0.888167 0.69662 0.277165
0.899214 0.696818 0.278599
0.90901 0.69688 0.280629
0.0472267 0.544442 0.269642
0.049958 0.549004 0.266224
0.0544442 0.554025 0.263737
0.0608682 0.558541 0.261769
0.0703593 0.565164 0.262074
0.0837262 0.572854 0.26421
0.105028 0.581277 0.266758
0.129778 0.593103 0.27332
0.160113 0.60705 0.282277
0.197787 0.622034 0.291539
0.243259 0.636896 0.300252
0.296941 0.65037 0.307439
0.355856 0.661891 0.312352
0.418387 0.67248 0.315343
0.479744 0.681453 0.317266
0.541878 0.688777 0.317601
0.60148 0.695354 0.317418
0.634684 0.701289 0.316487
0.664439 0.706432 0.315282
0.692103 0.71104 0.313542
0.717662 0.715465 0.311452
0.741955 0.719463 0.309545
0.76437 0.723476 0.307713
0.784939 0.727001 0.305913
0.804105 0.7299 0.304524
0.821759 0.732845 0.303105
0.837797 0.734966 0.301503
0.852674 0.736934 0.300526
0.866453 0.738018 0.29929
0.879088 0.739055 0.298894
0.890852 0.739742 0.298817
0.901411 0.739834 0.298863
0.911269 0.739956 0.299763
0.0538186 0.576226 0.289418
0.0567788 0.58053 0.28603
0.0610819 0.585336 0.283635
0.0673228 0.589792 0.280797
0.0770886 0.596155 0.281132
0.0905013 0.603647 0.282841
0.111788 0.61178 0.285649
0.136858 0.62327 0.292332
0.167285 0.636759 0.300816
0.205661 0.652171 0.311238
0.252491 0.667399 0.321355
0.307362 0.681773 0.329839
0.368154 0.69453 0.336538
0.432273 0.705837 0.341146
0.495232 0.71577 0.344198
0.558679 0.723751 0.345312
0.611673 0.730892 0.345678
0.645319 0.737194 0.345327
0.675044 0.742718 0.344167
0.702205 0.747585 0.342794
0.72694 0.75201 0.340597
0.750011 0.756054 0.338598
0.771771 0.760067 0.336736
0.791516 0.763546 0.33431
0.80975 0.766629 0.332174
0.826902 0.769619 0.33022
0.842329 0.771893 0.328328
0.856733 0.77409 0.326543
0.869902 0.775402 0.324514
0.882216 0.776623 0.323171
0.893782 0.777386 0.322057
0.904265 0.777661 0.321233
0.913787 0.778012 0.321233
0.060914 0.607141 0.310246
0.0637827 0.611246 0.306554
0.0679942 0.615457 0.303487
0.0746166 0.620035 0.300679
0.0840925 0.626276 0.300587
0.0976272 0.633417 0.302327
0.118959 0.641245 0.304494
0.143801 0.652262 0.311009
0.174395 0.665217 0.31989
0.212848 0.679927 0.330373
0.260395 0.694926 0.341131
0.316335 0.709178 0.351324
0.378653 0.722438 0.359365
0.44387 0.73431 0.365423
0.508644 0.744564 0.36968
0.573281 0.752804 0.371664
0.62063 0.760052 0.372427
0.654337 0.7664 0.372259
0.683986 0.772091 0.371298
0.710933 0.777066 0.37023
0.735363 0.781567 0.368368
0.757824 0.785763 0.366552
0.778317 0.789425 0.364141
0.797299 0.792828 0.361501
0.81532 0.796109 0.359319
0.831464 0.798886 0.356512
0.846265 0.801266 0.353994
0.860334 0.803464 0.351919
0.873533 0.805234 0.34963
0.885313 0.806424 0.347204
0.896696 0.807507 0.345418
0.906889 0.80824 0.343969
0.916304 0.808591 0.343038
0.0685283 0.637217 0.332219
0.071458 0.641077 0.327886
0.0755474 0.645045 0.324117
0.0822919 0.649317 0.321538
0.0918593 0.655146 0.32105
0.104982 0.662135 0.322377
0.126467 0.669459 0.324422
0.151232 0.679896 0.330587
0.181857 0.692317 0.338949
0.220462 0.705852 0.349584
0.268025 0.72015 0.36054
0.324315 0.734264 0.371145
0.387549 0.747524 0.379828
0.453803 0.759777 0.385748
0.520073 0.770062 0.390066
0.585977 0.778408 0.392355
0.62858 0.785809 0.394369
0.662455 0.792538 0.395865
0.692302 0.79826 0.397101
0.719265 0.803311 0.397147
0.743374 0.807889 0.39556
0.765362 0.811856 0.393698
0.785 0.815534 0.391119
0.803662 0.818967 0.388922
0.820478 0.821988 0.386069
0.836301 0.824948 0.383276
0.85066 0.82739 0.380163
0.864302 0.829313 0.377523
0.87686 0.831189 0.37467
0.888747 0.832746 0.371969
0.899382 0.833844 0.369192
0.909606 0.834821 0.3673
0.919005 0.835523 0.365805
0.0767071 0.666453 0.354452
0.0794842 0.670024 0.349737
0.0838331 0.673518 0.346151
0.0903029 0.677623 0.342702
0.0997635 0.683207 0.341848
0.113191 0.689555 0.342916
0.134157 0.696559 0.344411
0.159091 0.706233 0.349981
0.189792 0.71783 0.358511
0.22768 0.730449 0.368215
0.275029 0.743862 0.378668
0.331365 0.75729 0.386023
0.394842 0.770214 0.392782
0.462135 0.782269 0.39939
0.529519 0.792584 0.404227
0.596277 0.801022 0.40708
0.63537 0.808621 0.409628
0.669673 0.815503 0.411902
0.699794 0.821378 0.413458
0.726696 0.826596 0.414008
0.750744 0.831189 0.414816
0.772503 0.835218 0.415351
0.791974 0.838804 0.415473
0.809583 0.841993 0.414939
0.826185 0.845045 0.41265
0.841123 0.84773 0.409293
0.855192 0.85034 0.40621
0.868254 0.852308 0.403037
0.880629 0.854231 0.399969
0.891814 0.855711 0.396521
0.902617 0.857114 0.393591
0.912154 0.858137 0.390631
0.92134 0.858976 0.388617
0.0855421 0.694652 0.377829
0.0882277 0.697826 0.373114
0.0923476 0.701106 0.36849
0.0987106 0.70486 0.364691
0.108263 0.709926 0.363897
0.121431 0.715892 0.364187
0.142473 0.722332 0.36495
0.167071 0.731334 0.370153
0.197559 0.742046 0.377783
0.23534 0.753582 0.3841
0.282475 0.766247 0.391379
0.338216 0.778836 0.398352
0.401831 0.790982 0.405829
0.468498 0.802457 0.412009
0.536904 0.812604 0.417441
0.603265 0.820844 0.420752
0.641276 0.828946 0.42443
0.675822 0.835676 0.426627
0.706172 0.841718 0.428367
0.733242 0.847028 0.429816
0.757549 0.851652 0.430762
0.778805 0.855863 0.431174
0.79823 0.85948 0.431495
0.815442 0.86276 0.43125
0.831327 0.865858 0.431006
0.845762 0.86833 0.430381
0.859068 0.870604 0.429374
0.8719 0.872786 0.427207
0.883635 0.87451 0.423987
0.894972 0.876295 0.420584
0.905348 0.877913 0.417456
0.914931 0.879042 0.414176
0.923995 0.880156 0.411734
0.0946822 0.721874 0.401648
0.0974289 0.724636 0.396689
0.101305 0.727596 0.391699
0.107927 0.730816 0.387762
0.11725 0.735531 0.385946
0.130114 0.741039 0.385733
0.151186 0.746899 0.385031
0.175631 0.755123 0.38706
0.205783 0.764904 0.391165
0.243244 0.77583 0.397024
0.289204 0.786969 0.403357
0.344396 0.798474 0.409964
0.407172 0.809842 0.417136
0.474235 0.820829 0.424079
0.543069 0.830457 0.429847
0.607569 0.838727 0.433951
0.645808 0.846479 0.437781
0.681376 0.853529 0.440818
0.71136 0.859586 0.442725
0.738598 0.865034 0.444282
0.762676 0.869856 0.44535
0.784253 0.874098 0.445899
0.803372 0.877882 0.446097
0.820493 0.881178 0.446204
0.836118 0.884337 0.446006
0.850187 0.8869 0.44506
0.863279 0.889128 0.444175
0.875578 0.891447 0.443351
0.887098 0.893294 0.442054
0.897932 0.895186 0.441199
0.908095 0.896544 0.440223
0.917678 0.898024 0.437278
0.926375 0.899321 0.434638
0.104189 0.748074 0.418692
0.106844 0.750393 0.413916
0.111254 0.753124 0.409689
0.117128 0.755764 0.405173
0.126375 0.760021 0.402487
0.139345 0.76495 0.400732
0.160372 0.770611 0.400122
0.184573 0.778103 0.401556
0.214389 0.786938 0.40528
0.251194 0.796414 0.409628
0.29662 0.806683 0.415686
0.35053 0.81709 0.422141
0.412299 0.827436 0.428702
0.47895 0.837415 0.435386
0.547463 0.846204 0.441032
0.610452 0.854185 0.445609
0.649439 0.862181 0.450278
0.684672 0.86923 0.453376
0.715557 0.875532 0.456092
0.74255 0.880919 0.457771
0.766964 0.885847 0.459052
0.788388 0.890227 0.459831
0.807477 0.894179 0.459709
0.824979 0.897871 0.460151
0.840345 0.901045 0.459831
0.854307 0.903761 0.459541
0.867155 0.906264 0.458808
0.87921 0.908446 0.457557
0.89041 0.910323 0.456428
0.901183 0.912261 0.455329
0.91107 0.914061 0.454398
0.920211 0.915434 0.45301
0.928939 0.916823 0.452094
0.114275 0.773098 0.436866
0.116701 0.775006 0.4318
0.120867 0.777401 0.42678
0.12697 0.779965 0.422202
0.135805 0.783398 0.418585
0.149081 0.788083 0.417014
0.16968 0.792844 0.415061
0.193591 0.799603 0.4159
0.223163 0.807462 0.41883
0.259495 0.816236 0.423041
0.304051 0.825071 0.427878
0.356451 0.834165 0.4336
0.417075 0.843397 0.439551
0.482338 0.852598 0.446143
0.551171 0.860716 0.451972
0.612696 0.868299 0.456611
0.651423 0.876112 0.461555
0.687465 0.883162 0.465324
0.718379 0.889342 0.468193
0.745892 0.895079 0.470588
0.770184 0.900191 0.471992
0.79202 0.904753 0.473014
0.811261 0.908965 0.473503
0.828504 0.912673 0.473945
0.843824 0.915984 0.47364
0.858015 0.918807 0.473274
0.870939 0.92163 0.472786
0.882567 0.923949 0.471595
0.894011 0.926085 0.470741
0.904112 0.927932 0.46952
0.913924 0.929808 0.46836
0.922942 0.931258 0.466758
0.931579 0.932692 0.465904
0.124224 0.796796 0.455528
0.126833 0.79852 0.449699
0.130724 0.800595 0.444663
0.136965 0.802762 0.43917
0.145861 0.80589 0.435569
0.158618 0.809873 0.433204
0.179141 0.814054 0.430533
0.20296 0.819989 0.43064
0.23212 0.82707 0.433021
0.267964 0.834592 0.436377
0.311727 0.842634 0.440635
0.362982 0.850431 0.445396
0.422248 0.858488 0.450675
0.486275 0.866682 0.45684
0.553811 0.874189 0.461997
0.613901 0.881178 0.466987
0.652964 0.888563 0.47216
0.689052 0.895415 0.476143
0.720424 0.901747 0.479683
0.748119 0.907439 0.482368
0.772671 0.912657 0.484154
0.794553 0.917571 0.485542
0.813993 0.921904 0.486625
0.831449 0.925734 0.48716
0.84712 0.929503 0.487526
0.861311 0.932601 0.48748
