apk/assets/luts/VA-Cinematic.cube
TITLE "VA-Cinematic www.videoartifact.com"
LUT_3D_SIZE 5
0.00370794 0.0106203 0.0320287
0.0681926 0.0235142 0.067216
0.432044 0.00877394 0.0880293
0.687312 0 0.0972152
0.791074 0 0.126162
0.00741588 0.157687 0.128908
0.0915999 0.197604 0.119097
0.488716 0.211322 0.122194
0.764401 0.197971 0.145937
0.869078 0.19585 0.186648
0.0401923 0.507591 0.249531
0.152407 0.5729 0.262257
0.583703 0.654505 0.288762
0.798947 0.688182 0.277577
0.90901 0.69688 0.280629
0.104189 0.748074 0.418692
0.214389 0.786938 0.40528
0.649439 0.862181 0.450278
0.840345 0.901045 0.459831
0.928939 0.916823 0.452094
0.175372 0.904555 0.562707
0.285603 0.920928 0.519539
0.652857 0.944198 0.527062
0.856794 0.982559 0.564157
0.946181 0.998367 0.564889
0.00643931 0.0156558 0.12549
0.0686046 0.0284123 0.156085
0.401938 0.0162509 0.230503
0.674495 0 0.276707
0.78497 0 0.337316
0.00946059 0.184298 0.235676
0.122377 0.200687 0.262852
0.571283 0.201907 0.313405
0.779644 0.203677 0.375814
0.876997 0.211368 0.444541
0.0542306 0.549142 0.442908
0.201526 0.577371 0.448356
0.628229 0.648798 0.456123
0.826932 0.676143 0.469154
0.925719 0.680659 0.516655
0.119417 0.768093 0.583917
0.271504 0.791577 0.566384
0.672572 0.844877 0.587594
0.857847 0.895262 0.612909
0.941634 0.911849 0.606638
0.18613 0.910277 0.72723
0.327123 0.913527 0.675868
0.665034 0.925002 0.655573
0.870039 0.974502 0.719203
0.958892 0.99472 0.733867
0.00448615 0.0192721 0.328267
0.0725109 0.0295262 0.383581
0.421134 0.0179446 0.413504
0.672023 0.0052491 0.449973
0.781216 0.00491341 0.532204
0.0108492 0.200076 0.479332
0.133165 0.215518 0.492409
0.569238 0.23035 0.517082
0.774762 0.238788 0.595712
0.87718 0.247288 0.670237
0.071931 0.611948 0.566537
0.260746 0.623117 0.590402
0.670649 0.644984 0.621073
0.849699 0.661463 0.677104
0.93106 0.676448 0.734707
0.155016 0.833921 0.703334
0.380224 0.826642 0.73611
0.719097 0.839612 0.740383
0.872129 0.884962 0.753048
0.952941 0.897185 0.757504
0.210361 0.939483 0.82797
0.419654 0.922957 0.821454
0.717281 0.92195 0.798657
0.879286 0.961501 0.824491
0.970108 0.991958 0.85153
0.000320439 0.0229343 0.538399
0.0708782 0.0319066 0.58613
0.434775 0.0223239 0.609659
0.684825 0.0123903 0.616587
0.789059 0.0150912 0.650797
0.0157626 0.21796 0.664881
0.138277 0.235325 0.68098
0.586191 0.252827 0.709926
0.787518 0.264286 0.733486
0.881605 0.281193 0.779507
0.0836805 0.631235 0.742779
0.271458 0.641886 0.763363
0.682216 0.658701 0.785382
0.849271 0.682139 0.80853
0.926848 0.700557 0.855619
0.176883 0.868132 0.829862
0.43444 0.870619 0.837232
0.760983 0.867323 0.841291
0.8907 0.879103 0.860273
0.962249 0.884947 0.891356
0.234394 0.973648 0.892912
0.524514 0.959701 0.891371
0.789456 0.946502 0.904219
0.906523 0.961196 0.919341
0.977417 0.987945 0.932097
0 0.0277867 0.699779
0.0708782 0.0365454 0.742641
0.434363 0.0310063 0.757336
0.693263 0.0230716 0.762631
0.799817 0.0266117 0.777356
0.0232853 0.239338 0.792874
0.144991 0.257969 0.811551
0.585885 0.277729 0.836698
0.796506 0.286717 0.858091
0.892531 0.303243 0.877485
0.0955062 0.648981 0.854627
0.279942 0.658045 0.873991
0.684199 0.673182 0.889723
0.852888 0.694423 0.90985
0.932967 0.714565 0.923369
0.187396 0.879088 0.927596
0.440269 0.879683 0.932937
0.760616 0.874723 0.932448
0.893355 0.884764 0.946487
0.962371 0.894499 0.957717
0.243824 0.985763 0.967559
0.551492 0.97557 0.960403
0.8121 0.972427 0.962127
0.929808 0.979767 0.975662
0.984665 0.984665 0.984665
