apk/assets/luts/VA-Cinematic.cube
TITLE "VA-Cinematic www.videoartifact.com"
LUT_3D_SIZE 9
0.00370794 0.0106203 0.0320287
0.00917067 0.0139467 0.0434119
0.0681926 0.0235142 0.067216
0.201068 0.0264897 0.0881514
0.432044 0.00877394 0.0880293
0.599466 0 0.0889601
0.687312 0 0.0972152
0.74902 0 0.109911
0.791074 0 0.126162
0.00952163 0.0632792 0.0788434
0.0158236 0.0736706 0.0732433
0.0793469 0.0808118 0.0772106
0.234134 0.0804456 0.0895552
0.478294 0.0643626 0.0897231
0.633188 0.0548257 0.0967269
0.719707 0.0508278 0.109178
0.779431 0.0498817 0.125292
0.819532 0.0505837 0.144381
0.00741588 0.157687 0.128908
0.0233616 0.176623 0.121889
0.0915999 0.197604 0.119097
0.231113 0.213687 0.121721
0.488716 0.211322 0.122194
0.668742 0.203571 0.130571
0.764401 0.197971 0.145937
0.827405 0.195956 0.16492
0.869078 0.19585 0.186648
0.0134432 0.306386 0.174929
0.0342412 0.337789 0.168948
0.117983 0.393576 0.181643
0.277455 0.438773 0.191028
0.513756 0.457496 0.188708
0.682582 0.462028 0.186526
0.78294 0.457481 0.192386
0.850706 0.449195 0.204822
0.895888 0.441733 0.223301
0.0401923 0.507591 0.249531
0.0636606 0.532616 0.242847
0.152407 0.5729 0.262257
0.341115 0.623972 0.286503
0.583703 0.654505 0.288762
0.70898 0.673793 0.282475
0.798947 0.688182 0.277577
0.863355 0.695613 0.276051
0.90901 0.69688 0.280629
0.0685283 0.637217 0.332219
0.0918593 0.655146 0.32105
0.181857 0.692317 0.338949
0.387549 0.747524 0.379828
0.62858 0.785809 0.394369
0.743374 0.807889 0.39556
0.820478 0.821988 0.386069
0.87686 0.831189 0.37467
0.919005 0.835523 0.365805
0.104189 0.748074 0.418692
0.126375 0.760021 0.402487
0.214389 0.786938 0.40528
0.412299 0.827436 0.428702
0.649439 0.862181 0.450278
0.766964 0.885847 0.459052
0.840345 0.901045 0.459831
0.89041 0.910323 0.456428
0.928939 0.916823 0.452094
0.143587 0.839231 0.492576
0.165423 0.846983 0.47039
0.251392 0.863127 0.462547
0.43267 0.886305 0.473075
0.653773 0.910353 0.491173
0.775967 0.933959 0.507408
0.85182 0.952224 0.514321
0.902495 0.964279 0.51342
0.938293 0.972015 0.507713
0.175372 0.904555 0.562707
0.198779 0.910719 0.536614
0.285603 0.920928 0.519539
0.454292 0.931807 0.517647
0.652857 0.944198 0.527062
0.776684 0.964233 0.548913
0.856794 0.982559 0.564157
0.909789 0.992889 0.568078
0.946181 0.998367 0.564889
0.00514229 0.0128328 0.0687419
0.0102541 0.0166934 0.0779889
0.0653239 0.0256352 0.110445
0.191745 0.0289311 0.142275
0.417777 0.0125582 0.152316
0.592065 0 0.159609
0.6822 0 0.175189
0.745464 0 0.1953
0.788815 0 0.21976
0.00936904 0.0685588 0.112016
0.018677 0.0752117 0.118547
0.0967575 0.0801862 0.137392
0.254475 0.079469 0.158511
0.489632 0.0659037 0.165423
0.636667 0.0586099 0.179034
0.721538 0.0560311 0.198505
0.780652 0.0557565 0.221866
0.820996 0.0572061 0.249073
0.00868238 0.164736 0.190784
0.0298161 0.177844 0.184543
0.105776 0.198856 0.177188
0.268803 0.210483 0.179614
0.541054 0.203403 0.191196
0.688807 0.198077 0.212848
0.775891 0.197116 0.239109
0.834638 0.19823 0.267918
0.874235 0.200641 0.299245
0.0174258 0.320806 0.263676
0.0441901 0.346319 0.255116
0.134493 0.392264 0.259983
0.308446 0.437232 0.265293
0.552773 0.452232 0.259342
0.705776 0.451408 0.261707
0.800855 0.444617 0.278523
0.862959 0.438682 0.304524
0.904219 0.434897 0.334951
0.0456703 0.522683 0.357275
0.0749371 0.540322 0.348043
0.170001 0.570306 0.352972
0.371008 0.620279 0.375875
0.609186 0.65211 0.376074
0.72491 0.671107 0.367834
0.812787 0.684337 0.364462
0.875105 0.68986 0.36936
0.917967 0.689754 0.383612
0.0744182 0.646876 0.434211
0.10338 0.662135 0.420844
0.202136 0.691539 0.419608
0.411063 0.738964 0.440467
0.645289 0.781567 0.458167
0.756664 0.80502 0.462013
0.830884 0.819455 0.462181
0.885649 0.828473 0.462531
0.925917 0.831144 0.462058
0.109636 0.753338 0.499672
0.137209 0.763973 0.480461
0.234363 0.78555 0.473777
0.431632 0.818036 0.487953
0.661189 0.854276 0.514244
0.778958 0.882338 0.529305
0.849912 0.899367 0.531899
0.89897 0.909529 0.528389
0.935546 0.915251 0.522866
0.147753 0.841337 0.575814
0.173724 0.846571 0.548241
0.267201 0.859037 0.530419
0.44828 0.876799 0.53257
0.660426 0.90016 0.552666
0.784817 0.928359 0.579568
0.861234 0.950103 0.592981
0.910491 0.963424 0.593317
0.944533 0.97116 0.586358
0.179522 0.905653 0.648844
0.207691 0.910002 0.619074
0.302022 0.916289 0.591608
0.469078 0.92343 0.580545
0.657481 0.934356 0.587625
0.781949 0.956588 0.616846
0.864256 0.979034 0.642557
0.917159 0.990875 0.650721
0.9523 0.996384 0.648493
0.00643931 0.0156558 0.12549
0.0118715 0.019501 0.134066
0.0686046 0.0284123 0.156085
0.187304 0.0314336 0.200549
0.401938 0.0162509 0.230503
0.582452 0.00323491 0.251179
0.674495 0 0.276707
0.739986 0 0.305272
0.78497 0 0.337316
0.00836194 0.0741588 0.181735
0.020325 0.0783551 0.1935
0.0948348 0.0845502 0.213092
0.242634 0.0851606 0.250751
0.474342 0.0732128 0.26891
0.630259 0.0662242 0.291264
0.717632 0.064271 0.318318
0.778958 0.0648203 0.349142
0.820996 0.0668956 0.382147
0.00946059 0.184298 0.235676
0.035996 0.187686 0.256672
0.122377 0.200687 0.262852
0.314885 0.204639 0.284108
0.571283 0.201907 0.313405
0.696727 0.20174 0.343511
0.779644 0.203677 0.375814
0.837507 0.207233 0.409613
0.876997 0.211368 0.444541
0.0226291 0.359701 0.330617
0.0569924 0.364675 0.36582
0.158007 0.395453 0.366598
0.342763 0.435386 0.363973
0.598917 0.443488 0.35848
0.729244 0.43682 0.377203
0.814374 0.432868 0.410178
0.870924 0.432868 0.446159
0.909224 0.434607 0.482322
0.0542306 0.549142 0.442908
0.0912642 0.554482 0.452598
0.201526 0.577371 0.448356
0.404349 0.615641 0.453834
0.628229 0.648798 0.456123
0.741588 0.666453 0.45742
0.826932 0.676143 0.469154
0.886427 0.67982 0.488487
0.925719 0.680659 0.516655
0.0846571 0.668452 0.513222
0.122072 0.67657 0.514717
0.239048 0.699886 0.50901
0.443763 0.733059 0.514992
0.66154 0.775235 0.533639
0.768978 0.800504 0.538186
0.839887 0.814878 0.537652
0.893904 0.822766 0.540169
0.933089 0.823987 0.548608
0.119417 0.768093 0.583917
0.1552 0.774411 0.576623
0.271504 0.791577 0.566384
0.467491 0.814038 0.566766
0.672572 0.844877 0.587594
0.788861 0.876692 0.608545
0.857847 0.895262 0.612909
0.905623 0.905989 0.609934
0.941634 0.911849 0.606638
0.155657 0.849134 0.657557
0.188922 0.851087 0.640085
0.299382 0.860319 0.620737
0.481834 0.872007 0.611917
0.669764 0.890288 0.623255
0.791684 0.920516 0.655253
0.868772 0.946258 0.675547
0.917662 0.961273 0.678691
0.950637 0.969589 0.673304
0.18613 0.910277 0.72723
0.220844 0.911437 0.705669
0.327123 0.913527 0.675868
0.494728 0.916777 0.656031
0.665034 0.925002 0.655573
0.784924 0.947204 0.684215
0.870039 0.974502 0.719203
0.924605 0.988846 0.733928
0.958892 0.99472 0.733867
0.00628672 0.0178683 0.214832
0.01178 0.0218204 0.228321
0.0723278 0.0293736 0.256229
0.198947 0.0315557 0.286076
0.407141 0.0177157 0.305928
0.578988 0.00657664 0.336385
0.669505 0.00158694 0.373724
0.735546 0 0.409461
0.782086 0 0.446189
0.00534066 0.0776226 0.295628
0.0189212 0.0813916 0.309285
0.097734 0.0869001 0.327016
0.246677 0.0896773 0.33753
0.465171 0.0811933 0.363958
0.623575 0.0758831 0.399863
0.713115 0.0747539 0.433921
0.777157 0.0761273 0.468757
0.820691 0.0784466 0.504189
0.00976577 0.192309 0.354452
0.0361639 0.197223 0.366781
0.131167 0.206348 0.383612
0.313222 0.215824 0.405585
0.559823 0.216678 0.443992
0.692103 0.217334 0.476066
0.777615 0.220005 0.509743
0.836744 0.223743 0.544076
0.877501 0.228153 0.579263
0.0285649 0.39585 0.413001
0.0644541 0.404089 0.428763
0.184039 0.416159 0.450767
0.382559 0.435645 0.459785
0.628382 0.433539 0.478614
0.742702 0.433204 0.513054
0.819638 0.436164 0.548119
0.873335 0.440604 0.582986
0.910903 0.445243 0.616663
0.0644999 0.589258 0.48838
0.106798 0.588357 0.510796
0.24358 0.592447 0.537606
0.450019 0.615366 0.537285
0.648569 0.645975 0.536385
0.759884 0.659678 0.539803
0.841825 0.6654 0.565255
0.895582 0.670115 0.598993
0.930343 0.674098 0.630793
0.0999619 0.708232 0.570977
0.144854 0.705592 0.592859
0.290303 0.714824 0.606332
0.500175 0.736736 0.603983
0.678294 0.768536 0.611399
0.77998 0.795071 0.61532
0.848875 0.808362 0.615641
0.902266 0.813535 0.623423
0.939315 0.813046 0.641566
0.136004 0.798077 0.651606
0.180667 0.795819 0.661997
0.324788 0.803449 0.664302
0.528176 0.817166 0.656962
0.689174 0.838041 0.660746
0.798352 0.870268 0.68217
0.865034 0.890166 0.68687
0.911528 0.90074 0.684764
0.947234 0.905715 0.685115
0.169039 0.86743 0.723415
0.212039 0.864271 0.721675
0.348257 0.866789 0.712871
0.539895 0.872984 0.698756
0.689403 0.885252 0.696162
0.798306 0.911894 0.719051
0.875761 0.94139 0.74342
0.923919 0.957824 0.748165
0.955871 0.966445 0.744625
0.196719 0.921202 0.786831
0.239811 0.917556 0.776181
0.367468 0.915068 0.756634
0.54461 0.914366 0.734768
0.68452 0.920302 0.725155
0.790249 0.93872 0.741085
0.874754 0.96849 0.776852
0.931167 0.986694 0.796551
0.965225 0.993408 0.799512
0.00448615 0.0192721 0.328267
0.0104219 0.0231174 0.34519
0.0725109 0.0295262 0.383581
0.206332 0.0306706 0.413993
0.421134 0.0179446 0.413504
0.585809 0.00865187 0.420356
0.672023 0.0052491 0.449973
0.735409 0.00415045 0.491295
0.781216 0.00491341 0.532204
0.00213626 0.0801862 0.423789
0.0171511 0.0838331 0.437705
0.0961471 0.0896925 0.451667
0.254841 0.0924239 0.454994
0.481956 0.0859083 0.454551
0.62884 0.0839094 0.475563
0.714488 0.0849775 0.515343
0.77731 0.0874189 0.557366
0.822126 0.090959 0.597101
0.0108492 0.200076 0.479332
0.0373541 0.20531 0.483467
0.133165 0.215518 0.492409
0.324849 0.225147 0.505608
0.569238 0.23035 0.517082
0.690867 0.234913 0.552712
0.774762 0.238788 0.595712
0.83505 0.242741 0.634684
0.87718 0.247288 0.670237
0.0334478 0.412207 0.516564
0.0690471 0.420966 0.524193
0.188006 0.434577 0.53875
0.403449 0.444572 0.55404
0.627924 0.450065 0.571252
0.737591 0.452674 0.611063
0.816419 0.456626 0.647379
0.871336 0.461204 0.681727
0.909941 0.466361 0.713359
0.071931 0.611948 0.566537
0.116045 0.616739 0.576135
0.260746 0.623117 0.590402
0.496071 0.63035 0.610452
0.670649 0.644984 0.621073
0.780377 0.652537 0.643839
0.849699 0.661463 0.677104
0.89807 0.669902 0.707607
0.93106 0.676448 0.734707
0.114504 0.742565 0.630716
0.166873 0.745907 0.646097
0.332799 0.74757 0.667079
0.568521 0.748852 0.690623
0.702235 0.766018 0.690959
0.792355 0.790524 0.691554
0.859495 0.800366 0.693751
0.911147 0.802243 0.713649
0.943984 0.80293 0.738689
0.155016 0.833921 0.703334
0.211002 0.832059 0.720806
0.380224 0.826642 0.73611
0.600305 0.8262 0.743084
0.719097 0.839612 0.740383
0.808362 0.863767 0.748348
0.872129 0.884962 0.753048
0.917342 0.89427 0.751781
0.952941 0.897185 0.757504
0.186633 0.895232 0.770367
0.242344 0.889555 0.78143
0.405875 0.881651 0.78439
0.6065 0.878737 0.780301
0.722316 0.887694 0.773724
0.809888 0.906249 0.779385
0.882429 0.936065 0.801221
0.929641 0.953582 0.806287
0.960769 0.962036 0.804181
0.210361 0.939483 0.82797
0.26598 0.932647 0.830091
0.419654 0.922957 0.821454
0.603906 0.916945 0.808804
0.717281 0.92195 0.798657
0.804715 0.93547 0.800504
0.879286 0.961501 0.824491
0.936904 0.983978 0.84712
0.970108 0.991958 0.85153
0.00238041 0.0209201 0.440818
0.00933852 0.0245823 0.453239
0.0716259 0.0306249 0.486595
0.209735 0.0317388 0.515801
0.430014 0.0196078 0.512459
0.592721 0.0112154 0.512917
0.678874 0.00848402 0.526452
0.740185 0.00839246 0.552758
0.783978 0.0101778 0.588663
0.00015259 0.0837568 0.535286
0.0169833 0.0872816 0.541329
0.095552 0.0936294 0.548974
0.256641 0.0969406 0.555856
0.493645 0.0911879 0.555474
0.638468 0.0901503 0.562936
0.72253 0.0929274 0.583215
0.782559 0.0973373 0.617136
0.825864 0.102571 0.658
0.0129549 0.208423 0.575814
0.0392157 0.21384 0.580423
0.135393 0.224918 0.59028
0.326513 0.236484 0.606592
0.582452 0.240757 0.617365
0.700679 0.246342 0.630182
0.780072 0.253635 0.65687
0.836637 0.260426 0.696269
0.877775 0.266194 0.73492
0.0388342 0.42707 0.615015
0.0737774 0.435065 0.622431
0.192157 0.448234 0.636851
0.407675 0.458427 0.651377
0.634195 0.462669 0.665263
0.742809 0.469749 0.679179
0.815732 0.478386 0.712322
0.869398 0.48484 0.750973
0.908766 0.490623 0.783398
0.0775921 0.622171 0.66125
0.121355 0.627115 0.670558
0.266026 0.633402 0.68278
0.500298 0.641657 0.695766
0.680629 0.650584 0.709209
0.779568 0.662409 0.724788
0.845792 0.672511 0.758404
0.894682 0.680827 0.786038
0.92871 0.687816 0.809979
0.12343 0.759747 0.710948
0.178317 0.766155 0.720714
0.350484 0.771221 0.729549
0.591119 0.773465 0.737011
0.723964 0.777859 0.749996
0.806424 0.788281 0.760891
0.871809 0.793423 0.778988
0.915648 0.79794 0.801724
0.945418 0.801923 0.822141
0.168521 0.856596 0.764416
0.233707 0.860258 0.774487
0.421515 0.857176 0.780056
0.6318 0.850568 0.789609
0.752071 0.84979 0.807233
0.825071 0.862257 0.809842
0.880354 0.880812 0.81062
0.925216 0.887449 0.811688
0.959213 0.887694 0.826291
0.201801 0.91931 0.813764
0.272084 0.917998 0.822858
0.459632 0.907744 0.82649
0.646082 0.896452 0.833082
0.759686 0.896849 0.840818
0.832044 0.90927 0.841367
0.89012 0.930877 0.849912
0.935103 0.949126 0.854429
0.965759 0.956695 0.853239
0.223896 0.959487 0.857939
0.296056 0.954498 0.865049
0.475456 0.940322 0.863661
0.646754 0.928756 0.86247
0.756527 0.92932 0.86331
0.830182 0.939879 0.862364
0.888014 0.957534 0.869398
0.941787 0.980743 0.889616
0.973983 0.990082 0.89514
0.000320439 0.0229343 0.538399
0.00825513 0.0263371 0.551522
0.0708782 0.0319066 0.58613
0.209293 0.0335088 0.614466
0.434775 0.0223239 0.609659
0.597025 0.0144961 0.609476
0.684825 0.0123903 0.616587
0.746197 0.012726 0.629725
0.789059 0.0150912 0.650797
0 0.0878004 0.629923
0.0174716 0.091249 0.635233
0.0958267 0.0979477 0.640848
0.255833 0.102632 0.650019
0.499306 0.0974594 0.651637
0.645136 0.0973068 0.658503
0.730755 0.100481 0.669566
0.790524 0.105577 0.686687
0.832395 0.112078 0.712108
0.0157626 0.21796 0.664881
0.0418555 0.223514 0.669703
0.138277 0.235325 0.68098
0.328954 0.248219 0.697307
0.586191 0.252827 0.709926
0.706737 0.257298 0.720806
0.787518 0.264286 0.733486
0.84303 0.27303 0.752377
0.881605 0.281193 0.779507
0.0443122 0.441306 0.701564
0.0785992 0.449226 0.709209
0.196338 0.461707 0.722942
0.411383 0.471855 0.736019
0.634836 0.477455 0.750103
0.748302 0.482536 0.762554
0.822766 0.491859 0.775631
0.873747 0.50248 0.796567
0.910369 0.51136 0.825513
0.0836805 0.631235 0.742779
0.126955 0.635981 0.75172
0.271458 0.641886 0.763363
0.504051 0.649927 0.774243
0.682216 0.658701 0.785382
0.783322 0.669627 0.798062
0.849271 0.682139 0.80853
0.894087 0.69279 0.829465
0.926848 0.700557 0.855619
0.130358 0.768277 0.787549
0.184451 0.774212 0.796536
0.356588 0.779095 0.8038
0.594705 0.780301 0.80798
0.725017 0.785046 0.815549
0.811856 0.792126 0.825727
0.871138 0.799954 0.835172
0.91249 0.805692 0.858076
0.942916 0.809598 0.877104
0.176883 0.868132 0.829862
0.243458 0.872663 0.836881
0.43444 0.870619 0.837232
0.64036 0.86627 0.836225
0.760983 0.867323 0.841291
0.839033 0.872068 0.850965
0.8907 0.879103 0.860273
0.934188 0.882048 0.874617
0.962249 0.884947 0.891356
0.211521 0.933181 0.863523
0.289387 0.934844 0.868482
0.491295 0.926863 0.864332
0.671122 0.919203 0.863996
0.783841 0.917983 0.87361
0.855802 0.919875 0.891081
0.903395 0.930343 0.896056
0.941634 0.945602 0.896895
0.971435 0.95053 0.897932
0.234394 0.973648 0.892912
0.320333 0.971923 0.89659
0.524514 0.959701 0.891371
0.683406 0.950088 0.893385
0.789456 0.946502 0.904219
0.858503 0.950027 0.916426
0.906523 0.961196 0.919341
0.947433 0.977279 0.926772
0.977417 0.987945 0.932097
0 0.0250858 0.627283
0.00796521 0.028275 0.640696
0.070634 0.0338445 0.673823
0.207507 0.0364385 0.697978
0.435874 0.0261845 0.693324
0.599847 0.019089 0.692958
0.689281 0.0175021 0.698833
0.751644 0.0180514 0.70692
0.794675 0.0205539 0.718151
0.000442512 0.092668 0.709148
0.0188144 0.0962081 0.712993
0.0970016 0.10312 0.718959
0.256046 0.109163 0.728328
0.500038 0.105516 0.731395
0.649638 0.105409 0.738567
0.737087 0.108675 0.74815
0.797848 0.114122 0.759319
0.839765 0.120653 0.772808
0.0195163 0.228519 0.737819
0.045182 0.234134 0.743114
0.141436 0.246494 0.755428
0.331899 0.260014 0.770291
0.586007 0.265522 0.782712
0.710369 0.269184 0.793835
0.793133 0.275746 0.804746
0.84892 0.283757 0.815885
0.887572 0.292653 0.829221
0.0500343 0.455879 0.770916
0.0837568 0.463233 0.778225
0.200275 0.475151 0.791577
0.415122 0.485603 0.803296
0.635859 0.491814 0.815412
0.750179 0.496437 0.828244
0.827893 0.504768 0.840055
0.879622 0.514549 0.85127
0.91548 0.525353 0.864439
0.0896468 0.640467 0.806699
0.132235 0.644587 0.814984
0.275853 0.65008 0.826261
0.507424 0.65771 0.835538
0.683558 0.666133 0.844511
0.783673 0.677333 0.856031
0.852872 0.688762 0.865919
0.898619 0.699718 0.873793
0.929534 0.709316 0.885328
0.136584 0.776135 0.847105
0.190494 0.781552 0.85539
0.361181 0.785702 0.861967
0.596246 0.786236 0.864225
0.725551 0.790066 0.86981
0.812375 0.796887 0.878538
0.87303 0.804166 0.887587
0.915251 0.810987 0.893385
0.943069 0.817044 0.906264
0.182635 0.874113 0.885039
0.248554 0.878264 0.891707
0.438209 0.875685 0.891112
0.641108 0.870787 0.888792
0.761456 0.871656 0.892409
0.839292 0.876295 0.899962
0.893736 0.881865 0.908492
0.933654 0.886992 0.914717
0.960143 0.891142 0.931762
0.217151 0.9402 0.912123
0.295735 0.942397 0.916121
0.498939 0.934768 0.910094
0.675746 0.928344 0.906401
0.789303 0.929366 0.910475
0.861845 0.933913 0.918105
0.913314 0.938857 0.926543
0.949737 0.943969 0.934646
0.976196 0.94609 0.947509
0.240467 0.981689 0.931853
0.331533 0.981292 0.9337
0.547372 0.970855 0.925139
0.70222 0.965331 0.92343
0.809308 0.966064 0.929671
0.877089 0.969055 0.940978
0.925383 0.971328 0.956466
0.959045 0.977493 0.963317
0.980972 0.985962 0.963943
0 0.0277867 0.699779
0.00817884 0.0307927 0.7122
0.0708782 0.0365454 0.742641
0.206317 0.0402075 0.761166
0.434363 0.0310063 0.757336
0.601968 0.0244907 0.757443
0.693263 0.0230716 0.762631
0.756313 0.0239872 0.769543
0.799817 0.0266117 0.777356
0.00267033 0.0982223 0.768643
0.0211337 0.101793 0.772137
0.0987564 0.109102 0.778607
0.257359 0.116274 0.787915
0.499535 0.114107 0.791821
0.652171 0.114244 0.799054
0.742535 0.117632 0.808133
0.803891 0.122957 0.817853
0.846174 0.129229 0.827878
0.0232853 0.239338 0.792874
0.0487831 0.244938 0.798505
0.144991 0.257969 0.811551
0.335012 0.271931 0.82565
0.585885 0.277729 0.836698
0.711101 0.281132 0.847562
0.796506 0.286717 0.858091
0.853437 0.294408 0.868055
0.892531 0.303243 0.877485
0.0555123 0.469841 0.822644
0.0881056 0.476631 0.829313
0.203967 0.487449 0.842939
0.418235 0.496269 0.853605
0.636652 0.504906 0.86421
0.75021 0.509941 0.876463
0.83032 0.516991 0.888655
0.88365 0.526375 0.899016
0.920012 0.536431 0.907927
0.0955062 0.648981 0.854627
0.137163 0.652979 0.862791
0.279942 0.658045 0.873991
0.509529 0.665049 0.88191
0.684199 0.673182 0.889723
0.783429 0.683696 0.899733
0.852888 0.694423 0.90985
0.901213 0.705074 0.917556
0.932967 0.714565 0.923369
0.142351 0.783032 0.892302
0.195224 0.788418 0.900542
0.36376 0.791394 0.90634
0.59588 0.791089 0.907423
0.725002 0.79443 0.911879
0.812146 0.800931 0.919463
0.87216 0.807996 0.928008
0.916869 0.814191 0.934218
0.945876 0.820493 0.938796
0.187396 0.879088 0.927596
0.252399 0.882887 0.933593
0.440269 0.879683 0.932937
0.640497 0.874266 0.929763
0.760616 0.874723 0.932448
0.838514 0.879118 0.938781
0.893355 0.884764 0.946487
0.934401 0.889601 0.953399
0.962371 0.894499 0.957717
0.220737 0.943801 0.95201
0.298665 0.945632 0.955871
0.50013 0.937758 0.949813
0.675563 0.931456 0.945907
0.788876 0.932158 0.948867
0.861708 0.936904 0.956008
0.913222 0.941772 0.963409
0.950866 0.946105 0.969863
0.976059 0.950027 0.974044
0.243824 0.985763 0.967559
0.334569 0.985473 0.968887
0.551492 0.97557 0.960403
0.704662 0.970916 0.957992
0.8121 0.972427 0.962127
0.880552 0.976196 0.969299
0.929808 0.979767 0.975662
0.965316 0.982651 0.980697
0.984665 0.984665 0.984665
